;FLAVOR:Marlin
;TIME:2294
;Filament used: 1.78165m
;Layer height: 0.2
;MINX:3.789
;MINY:15.676
;MINZ:0.15
;MAXX:212.211
;MAXY:225.324
;MAXZ:0.35
;Generated with Cura_SteamEngine 4.11.0
M140 S60
M105
M190 S60
M104 S200
M105
M109 S200
M82 ;absolute extrusion mode
G92 E0 ;
G28 ;
G1 Z5 F5000 ;
G29 ;
G92 E0
G92 E0
G1 F3000 E-3
;LAYER_COUNT:2
;LAYER:0
M107
G0 F3600 X7.503 Y16.43 Z0.15
;TYPE:SKIRT
G1 F3000 E0
G1 F1800 X8.177 Y16.131 E0.01839
G1 X8.879 Y15.906 E0.03678
G1 X9.602 Y15.758 E0.05519
G1 X10.407 Y15.688 E0.07535
G1 X10.919 Y15.676 E0.08812
G1 X34.388 Y15.676 E0.67356
G1 X35.188 Y15.687 E0.69352
G1 X35.923 Y15.737 E0.71189
G1 X36.649 Y15.867 E0.73029
G1 X37.079 Y15.983 E0.7414
G1 X38.381 Y16.381 E0.77537
G1 X40.557 Y17.021 E0.83194
G1 X43.084 Y17.692 E0.89717
G1 X45.687 Y18.305 E0.96387
G1 X48.235 Y18.831 E1.02877
G1 X50.858 Y19.292 E1.09521
G1 X53.433 Y19.672 E1.16014
G1 X56.06 Y19.983 E1.22613
G1 X58.714 Y20.222 E1.2926
G1 X61.325 Y20.383 E1.35785
G1 X63.948 Y20.471 E1.42332
G1 X66.6 Y20.485 E1.48948
G1 X69.219 Y20.423 E1.55483
G1 X71.879 Y20.286 E1.62127
G1 X74.486 Y20.078 E1.68651
G1 X77.083 Y19.796 E1.75167
G1 X79.724 Y19.433 E1.81817
G1 X82.327 Y19 E1.88399
G1 X84.91 Y18.496 E1.94964
G1 X87.467 Y17.921 E2.01502
G1 X90.005 Y17.274 E2.08035
G1 X92.603 Y16.534 E2.14774
G1 X94.341 Y15.993 E2.19315
G1 X95.055 Y15.813 E2.21151
G1 X95.786 Y15.71 E2.22993
G1 X96.483 Y15.679 E2.24733
G1 X96.69 Y15.676 E2.2525
G1 X120.255 Y15.677 E2.84033
G1 X120.96 Y15.687 E2.85792
G1 X121.696 Y15.737 E2.87632
G1 X122.422 Y15.867 E2.89472
G1 X122.854 Y15.984 E2.90588
G1 X123.547 Y16.196 E2.92396
G1 X126.085 Y16.934 E2.98989
G1 X128.701 Y17.615 E3.05732
G1 X131.218 Y18.196 E3.12176
G1 X133.859 Y18.729 E3.18897
G1 X136.402 Y19.163 E3.25332
G1 X139.058 Y19.542 E3.32025
G1 X141.653 Y19.837 E3.3854
G1 X144.258 Y20.059 E3.45061
G1 X146.917 Y20.211 E3.51705
G1 X149.535 Y20.286 E3.58238
G1 X152.19 Y20.286 E3.64861
G1 X154.811 Y20.213 E3.71402
G1 X157.427 Y20.065 E3.77938
G1 X160.077 Y19.841 E3.84572
G1 X162.709 Y19.543 E3.9118
G1 X165.275 Y19.178 E3.97645
G1 X167.911 Y18.727 E4.04316
G1 X170.475 Y18.214 E4.10839
G1 X173.035 Y17.626 E4.17391
G1 X175.623 Y16.952 E4.24062
G1 X178.146 Y16.22 E4.30615
G1 X178.715 Y16.042 E4.32102
G1 X178.987 Y15.962 E4.3281
G1 X179.705 Y15.793 E4.3465
G1 X180.699 Y15.689 E4.37143
G1 X181.235 Y15.676 E4.3848
G1 X204.792 Y15.677 E4.97243
G1 X205.49 Y15.686 E4.98985
G1 X206.225 Y15.735 E5.00822
G1 X206.951 Y15.864 E5.02662
G1 X207.659 Y16.07 E5.04501
G1 X208.34 Y16.353 E5.06341
G1 X208.987 Y16.707 E5.0818
G1 X209.591 Y17.129 E5.10018
G1 X210.147 Y17.614 E5.11859
G1 X210.646 Y18.156 E5.13697
G1 X211.084 Y18.749 E5.15536
G1 X211.455 Y19.386 E5.17374
G1 X211.755 Y20.06 E5.19215
G1 X211.98 Y20.762 E5.21054
G1 X212.128 Y21.484 E5.22892
G1 X212.199 Y22.294 E5.2492
G1 X212.211 Y22.806 E5.26198
G1 X212.21 Y46.359 E5.84951
G1 X212.199 Y47.085 E5.86762
G1 X212.148 Y47.821 E5.88603
G1 X212.018 Y48.546 E5.9044
G1 X211.903 Y48.971 E5.91538
G1 X211.495 Y50.305 E5.95018
G1 X210.866 Y52.444 E6.0058
G1 X210.195 Y54.971 E6.07102
G1 X209.582 Y57.574 E6.13773
G1 X209.056 Y60.122 E6.20263
G1 X208.595 Y62.745 E6.26906
G1 X208.215 Y65.32 E6.33399
G1 X207.904 Y67.947 E6.39998
G1 X207.665 Y70.601 E6.46645
G1 X207.504 Y73.212 E6.53171
G1 X207.416 Y75.835 E6.59718
G1 X207.402 Y78.487 E6.66333
G1 X207.464 Y81.107 E6.72871
G1 X207.601 Y83.766 E6.79512
G1 X207.809 Y86.373 E6.86036
G1 X208.091 Y88.97 E6.92552
G1 X208.454 Y91.611 E6.99202
G1 X208.887 Y94.214 E7.05785
G1 X209.391 Y96.797 E7.1235
G1 X209.966 Y99.354 E7.18887
G1 X210.613 Y101.892 E7.25421
G1 X211.353 Y104.491 E7.32162
G1 X211.893 Y106.222 E7.36685
G1 X212.074 Y106.936 E7.38522
G1 X212.176 Y107.666 E7.40361
G1 X212.208 Y108.372 E7.42124
G1 X212.211 Y108.577 E7.42636
G1 X212.21 Y132.13 E8.01389
G1 X212.199 Y132.856 E8.032
G1 X212.148 Y133.592 E8.0504
G1 X212.018 Y134.317 E8.06878
G1 X211.903 Y134.742 E8.07976
G1 X211.495 Y136.076 E8.11456
G1 X210.866 Y138.215 E8.17017
G1 X210.195 Y140.742 E8.2354
G1 X209.582 Y143.345 E8.3021
G1 X209.056 Y145.893 E8.367
G1 X208.595 Y148.516 E8.43344
G1 X208.215 Y151.091 E8.49837
G1 X207.904 Y153.718 E8.56436
G1 X207.665 Y156.372 E8.63083
G1 X207.504 Y158.983 E8.69608
G1 X207.416 Y161.606 E8.76155
G1 X207.402 Y164.258 E8.82771
G1 X207.464 Y166.878 E8.89308
G1 X207.601 Y169.537 E8.9595
G1 X207.809 Y172.144 E9.02474
G1 X208.091 Y174.741 E9.0899
G1 X208.454 Y177.382 E9.1564
G1 X208.887 Y179.985 E9.22222
G1 X209.391 Y182.568 E9.28787
G1 X209.966 Y185.125 E9.35325
G1 X210.613 Y187.663 E9.41858
G1 X211.353 Y190.262 E9.48599
G1 X211.893 Y191.993 E9.53123
G1 X212.074 Y192.707 E9.5496
G1 X212.176 Y193.437 E9.56799
G1 X212.208 Y194.143 E9.58562
G1 X212.211 Y194.348 E9.59073
G1 X212.21 Y217.872 E10.17754
G1 X212.201 Y218.599 E10.19568
G1 X212.152 Y219.335 E10.21408
G1 X212.024 Y220.061 E10.23247
G1 X211.818 Y220.769 E10.25086
G1 X211.536 Y221.45 E10.26925
G1 X211.182 Y222.097 E10.28764
G1 X210.76 Y222.702 E10.30604
G1 X210.276 Y223.257 E10.32441
G1 X209.734 Y223.757 E10.34281
G1 X209.141 Y224.195 E10.3612
G1 X208.504 Y224.566 E10.37959
G1 X207.83 Y224.867 E10.398
G1 X207.128 Y225.092 E10.41639
G1 X206.406 Y225.24 E10.43477
G1 X205.593 Y225.312 E10.45513
G1 X205.081 Y225.324 E10.46791
G1 X181.515 Y225.323 E11.05576
G1 X180.815 Y225.313 E11.07323
G1 X179.998 Y225.252 E11.09366
G1 X179.274 Y225.115 E11.11205
G1 X178.898 Y225.012 E11.12177
G1 X178.176 Y224.79 E11.14061
G1 X175.686 Y224.066 E11.2053
G1 X173.07 Y223.385 E11.27273
G1 X170.553 Y222.804 E11.33717
G1 X167.912 Y222.271 E11.40438
G1 X165.369 Y221.837 E11.46873
G1 X162.713 Y221.458 E11.53565
G1 X160.118 Y221.163 E11.6008
G1 X157.513 Y220.941 E11.66602
G1 X154.854 Y220.789 E11.73246
G1 X152.236 Y220.714 E11.79779
G1 X149.581 Y220.714 E11.86402
G1 X146.96 Y220.787 E11.92943
G1 X144.344 Y220.935 E11.99479
G1 X141.694 Y221.159 E12.06113
G1 X139.062 Y221.457 E12.1272
G1 X136.496 Y221.822 E12.19186
G1 X133.86 Y222.273 E12.25857
G1 X131.296 Y222.786 E12.32379
G1 X128.736 Y223.374 E12.38932
G1 X126.148 Y224.048 E12.45603
G1 X123.623 Y224.781 E12.52161
G1 X123.051 Y224.96 E12.53657
G1 X122.774 Y225.041 E12.54376
G1 X122.056 Y225.209 E12.56216
G1 X121.072 Y225.311 E12.58684
G1 X120.536 Y225.324 E12.60021
G1 X96.97 Y225.323 E13.18807
G1 X96.267 Y225.313 E13.20561
G1 X95.532 Y225.263 E13.22398
G1 X94.806 Y225.133 E13.24238
G1 X94.376 Y225.017 E13.25349
G1 X93.074 Y224.619 E13.28745
G1 X90.898 Y223.979 E13.34403
G1 X88.371 Y223.308 E13.40925
G1 X85.768 Y222.695 E13.47596
G1 X83.22 Y222.169 E13.54086
G1 X80.597 Y221.708 E13.6073
G1 X78.022 Y221.328 E13.67222
G1 X75.395 Y221.017 E13.73821
G1 X72.741 Y220.778 E13.80469
G1 X70.13 Y220.617 E13.86994
G1 X67.507 Y220.529 E13.93541
G1 X64.855 Y220.515 E14.00156
G1 X62.236 Y220.577 E14.06691
G1 X59.576 Y220.714 E14.13336
G1 X56.969 Y220.922 E14.19859
G1 X54.372 Y221.204 E14.26376
G1 X51.731 Y221.567 E14.33026
G1 X49.128 Y222 E14.39608
G1 X46.545 Y222.504 E14.46173
G1 X43.988 Y223.079 E14.52711
G1 X41.45 Y223.726 E14.59244
G1 X38.852 Y224.466 E14.65983
G1 X37.114 Y225.007 E14.70523
G1 X36.4 Y225.187 E14.7236
G1 X35.669 Y225.29 E14.74202
G1 X34.972 Y225.321 E14.75942
G1 X34.765 Y225.324 E14.76458
G1 X11.208 Y225.323 E15.35222
G1 X10.51 Y225.314 E15.36963
G1 X9.775 Y225.265 E15.388
G1 X9.049 Y225.136 E15.4064
G1 X8.341 Y224.93 E15.42479
G1 X7.66 Y224.647 E15.44319
G1 X7.013 Y224.293 E15.46159
G1 X6.409 Y223.871 E15.47997
G1 X5.853 Y223.386 E15.49837
G1 X5.354 Y222.844 E15.51675
G1 X4.916 Y222.251 E15.53514
G1 X4.545 Y221.614 E15.55353
G1 X4.245 Y220.94 E15.57193
G1 X4.02 Y220.238 E15.59032
G1 X3.872 Y219.516 E15.6087
G1 X3.8 Y218.699 E15.62916
G1 X3.789 Y218.182 E15.64206
G1 X3.79 Y194.619 E16.22984
G1 X3.801 Y193.913 E16.24746
G1 X3.852 Y193.178 E16.26584
G1 X3.983 Y192.452 E16.28424
G1 X4.097 Y192.032 E16.29509
G1 X4.486 Y190.758 E16.32832
G1 X5.134 Y188.556 E16.38558
G1 X5.805 Y186.029 E16.4508
G1 X6.418 Y183.426 E16.51751
G1 X6.944 Y180.878 E16.58241
G1 X7.405 Y178.255 E16.64884
G1 X7.785 Y175.68 E16.71377
G1 X8.096 Y173.053 E16.77976
G1 X8.335 Y170.399 E16.84623
G1 X8.496 Y167.788 E16.91149
G1 X8.584 Y165.165 E16.97696
G1 X8.598 Y162.513 E17.04311
G1 X8.536 Y159.893 E17.10849
G1 X8.399 Y157.234 E17.1749
G1 X8.191 Y154.629 E17.24009
G1 X7.908 Y152.021 E17.30553
G1 X7.547 Y149.393 E17.3717
G1 X7.113 Y146.786 E17.43763
G1 X6.611 Y144.209 E17.50312
G1 X6.032 Y141.639 E17.56884
G1 X5.386 Y139.103 E17.63412
G1 X4.647 Y136.51 E17.70138
G1 X4.106 Y134.772 E17.74678
G1 X3.926 Y134.058 E17.76515
G1 X3.823 Y133.327 E17.78357
G1 X3.792 Y132.63 E17.80097
G1 X3.789 Y132.423 E17.80613
G1 X3.79 Y108.848 E18.39421
G1 X3.801 Y108.142 E18.41183
G1 X3.852 Y107.407 E18.43021
G1 X3.983 Y106.681 E18.44861
G1 X4.097 Y106.261 E18.45947
G1 X4.486 Y104.987 E18.49269
G1 X5.134 Y102.785 E18.54995
G1 X5.805 Y100.258 E18.61517
G1 X6.418 Y97.655 E18.68188
G1 X6.944 Y95.107 E18.74678
G1 X7.405 Y92.484 E18.81322
G1 X7.785 Y89.909 E18.87814
G1 X8.096 Y87.282 E18.94413
G1 X8.335 Y84.628 E19.01061
G1 X8.496 Y82.017 E19.07586
G1 X8.584 Y79.394 E19.14133
G1 X8.598 Y76.742 E19.20748
G1 X8.536 Y74.122 E19.27286
G1 X8.399 Y71.463 E19.33928
G1 X8.191 Y68.858 E19.40446
G1 X7.908 Y66.25 E19.4699
G1 X7.547 Y63.622 E19.53607
G1 X7.113 Y61.015 E19.602
G1 X6.611 Y58.438 E19.66749
G1 X6.032 Y55.868 E19.73321
G1 X5.386 Y53.332 E19.79849
G1 X4.647 Y50.739 E19.86575
G1 X4.106 Y49.001 E19.91115
G1 X3.926 Y48.287 E19.92952
G1 X3.823 Y47.556 E19.94794
G1 X3.792 Y46.859 E19.96534
G1 X3.789 Y46.652 E19.97051
G1 X3.79 Y23.058 E20.55906
G1 X3.799 Y22.393 E20.57565
G1 X3.849 Y21.657 E20.59405
G1 X3.978 Y20.932 E20.61242
G1 X4.185 Y20.224 E20.63082
G1 X4.467 Y19.543 E20.64921
G1 X4.822 Y18.896 E20.66762
G1 X5.244 Y18.292 E20.686
G1 X5.73 Y17.737 E20.7044
G1 X6.273 Y17.238 E20.7228
G1 X6.866 Y16.801 E20.74117
G1 X7.503 Y16.43 E20.75956
G0 F3600 X7.877 Y16.692
G1 F1800 X8.541 Y16.425 E20.77741
G1 X9.23 Y16.233 E20.79525
G1 X9.936 Y16.119 E20.81309
G1 X10.74 Y16.079 E20.83317
G1 X10.919 Y16.076 E20.83764
G1 X34.388 Y16.076 E21.42308
G1 X35.182 Y16.087 E21.44289
G1 X35.896 Y16.137 E21.46074
G1 X36.599 Y16.266 E21.47857
G1 X36.962 Y16.366 E21.48796
G1 X38.249 Y16.759 E21.52153
G1 X40.411 Y17.395 E21.57775
G1 X43.003 Y18.083 E21.64464
G1 X45.585 Y18.692 E21.71082
G1 X48.183 Y19.228 E21.77699
G1 X50.802 Y19.688 E21.84332
G1 X53.403 Y20.072 E21.90891
G1 X56.009 Y20.381 E21.97437
G1 X58.652 Y20.619 E22.04057
G1 X61.323 Y20.784 E22.10732
G1 X63.933 Y20.871 E22.17246
G1 X66.608 Y20.885 E22.23919
G1 X69.249 Y20.823 E22.30509
G1 X71.86 Y20.688 E22.37031
G1 X74.525 Y20.475 E22.437
G1 X77.183 Y20.187 E22.50369
G1 X79.773 Y19.831 E22.56891
G1 X82.398 Y19.395 E22.63529
G1 X84.97 Y18.893 E22.70066
G1 X87.573 Y18.307 E22.76721
G1 X90.117 Y17.659 E22.8327
G1 X92.694 Y16.924 E22.89955
G1 X94.459 Y16.375 E22.94566
G1 X95.153 Y16.201 E22.9635
G1 X96.167 Y16.089 E22.98895
G1 X96.69 Y16.076 E23.002
G1 X120.25 Y16.077 E23.58971
G1 X120.955 Y16.087 E23.6073
G1 X121.668 Y16.137 E23.62513
G1 X122.372 Y16.266 E23.64298
G1 X122.737 Y16.366 E23.65242
G1 X123.47 Y16.59 E23.67154
G1 X126.011 Y17.329 E23.73755
G1 X128.582 Y17.999 E23.80383
G1 X131.127 Y18.586 E23.86898
G1 X133.772 Y19.119 E23.93628
G1 X136.356 Y19.56 E24.00168
G1 X138.989 Y19.936 E24.06802
G1 X141.61 Y20.235 E24.13383
G1 X144.238 Y20.459 E24.19962
G1 X146.918 Y20.611 E24.26658
G1 X149.523 Y20.686 E24.33159
G1 X152.166 Y20.686 E24.39752
G1 X154.844 Y20.611 E24.46435
G1 X157.482 Y20.463 E24.53026
G1 X160.122 Y20.239 E24.59635
G1 X162.739 Y19.943 E24.66205
G1 X165.367 Y19.569 E24.72826
G1 X167.951 Y19.127 E24.79366
G1 X170.564 Y18.604 E24.86013
G1 X173.128 Y18.015 E24.92576
G1 X175.721 Y17.34 E24.9926
G1 X178.249 Y16.606 E25.05826
G1 X178.828 Y16.426 E25.07339
G1 X179.1 Y16.346 E25.08046
G1 X179.797 Y16.183 E25.09831
G1 X180.712 Y16.089 E25.12126
G1 X181.235 Y16.076 E25.13431
G1 X204.787 Y16.077 E25.72182
G1 X205.485 Y16.086 E25.73923
G1 X206.198 Y16.135 E25.75706
G1 X206.902 Y16.263 E25.77491
G1 X207.587 Y16.469 E25.79275
G1 X208.244 Y16.751 E25.81058
G1 X208.866 Y17.104 E25.82842
G1 X209.445 Y17.524 E25.84627
G1 X209.974 Y18.006 E25.86412
G1 X210.445 Y18.544 E25.88196
G1 X210.853 Y19.131 E25.89979
G1 X211.193 Y19.761 E25.91765
G1 X211.461 Y20.424 E25.93549
G1 X211.653 Y21.113 E25.95333
G1 X211.767 Y21.819 E25.97117
G1 X211.808 Y22.627 E25.99135
G1 X211.811 Y22.806 E25.99581
G1 X211.81 Y46.353 E26.5832
G1 X211.799 Y47.079 E26.60131
G1 X211.748 Y47.792 E26.61914
G1 X211.618 Y48.496 E26.637
G1 X211.52 Y48.854 E26.64626
G1 X211.112 Y50.188 E26.68106
G1 X210.492 Y52.298 E26.73592
G1 X209.804 Y54.89 E26.80281
G1 X209.195 Y57.472 E26.86899
G1 X208.659 Y60.07 E26.93516
G1 X208.199 Y62.689 E27.00149
G1 X207.815 Y65.29 E27.06708
G1 X207.506 Y67.896 E27.13254
G1 X207.268 Y70.539 E27.19874
G1 X207.103 Y73.21 E27.26549
G1 X207.016 Y75.82 E27.33063
G1 X207.002 Y78.495 E27.39736
G1 X207.064 Y81.137 E27.46329
G1 X207.199 Y83.747 E27.52848
G1 X207.412 Y86.412 E27.59517
G1 X207.7 Y89.07 E27.66186
G1 X208.056 Y91.66 E27.72708
G1 X208.492 Y94.285 E27.79346
G1 X208.994 Y96.857 E27.85883
G1 X209.58 Y99.46 E27.92538
G1 X210.228 Y102.004 E27.99087
G1 X210.966 Y104.593 E28.05802
G1 X211.511 Y106.341 E28.1037
G1 X211.685 Y107.034 E28.12152
G1 X211.798 Y108.052 E28.14707
G1 X211.811 Y108.577 E28.16017
G1 X211.81 Y132.124 E28.74756
G1 X211.799 Y132.85 E28.76567
G1 X211.748 Y133.563 E28.7835
G1 X211.618 Y134.267 E28.80136
G1 X211.52 Y134.625 E28.81062
G1 X211.112 Y135.959 E28.84541
G1 X210.492 Y138.069 E28.90027
G1 X209.804 Y140.661 E28.96717
G1 X209.195 Y143.243 E29.03335
G1 X208.659 Y145.841 E29.09952
G1 X208.199 Y148.46 E29.16585
G1 X207.815 Y151.061 E29.23143
G1 X207.506 Y153.667 E29.2969
G1 X207.268 Y156.31 E29.36309
G1 X207.103 Y158.981 E29.42985
G1 X207.016 Y161.591 E29.49499
G1 X207.002 Y164.266 E29.56172
G1 X207.064 Y166.908 E29.62764
G1 X207.199 Y169.518 E29.69284
G1 X207.412 Y172.183 E29.75953
G1 X207.7 Y174.841 E29.82622
G1 X208.056 Y177.431 E29.89144
G1 X208.492 Y180.056 E29.95781
G1 X208.994 Y182.628 E30.02318
G1 X209.58 Y185.231 E30.08974
G1 X210.228 Y187.775 E30.15523
G1 X210.966 Y190.364 E30.22238
G1 X211.511 Y192.112 E30.26806
G1 X211.685 Y192.805 E30.28588
G1 X211.798 Y193.823 E30.31143
G1 X211.811 Y194.348 E30.32453
G1 X211.811 Y217.867 E30.91121
G1 X211.802 Y218.594 E30.92935
G1 X211.753 Y219.308 E30.9472
G1 X211.625 Y220.012 E30.96505
G1 X211.419 Y220.697 E30.9829
G1 X211.138 Y221.354 E31.00072
G1 X210.785 Y221.977 E31.01858
G1 X210.365 Y222.556 E31.03643
G1 X209.883 Y223.084 E31.05426
G1 X209.346 Y223.556 E31.07209
G1 X208.758 Y223.964 E31.08995
G1 X208.129 Y224.305 E31.1078
G1 X207.466 Y224.573 E31.12563
G1 X206.777 Y224.765 E31.14348
G1 X206.071 Y224.88 E31.16132
G1 X205.26 Y224.921 E31.18158
G1 X205.081 Y224.924 E31.18604
G1 X181.521 Y224.923 E31.77375
G1 X180.821 Y224.913 E31.79121
G1 X180.051 Y224.856 E31.81047
G1 X179.016 Y224.629 E31.8369
G1 X178.334 Y224.419 E31.8547
G1 X175.76 Y223.671 E31.92157
G1 X173.189 Y223.001 E31.98785
G1 X170.644 Y222.414 E32.053
G1 X167.999 Y221.881 E32.1203
G1 X165.415 Y221.44 E32.18569
G1 X162.782 Y221.064 E32.25204
G1 X160.161 Y220.765 E32.31785
G1 X157.533 Y220.541 E32.38364
G1 X154.853 Y220.389 E32.4506
G1 X152.248 Y220.314 E32.51561
G1 X149.605 Y220.314 E32.58154
G1 X146.927 Y220.389 E32.64837
G1 X144.289 Y220.537 E32.71428
G1 X141.649 Y220.761 E32.78037
G1 X139.032 Y221.057 E32.84607
G1 X136.404 Y221.431 E32.91228
G1 X133.82 Y221.873 E32.97768
G1 X131.207 Y222.396 E33.04415
G1 X128.643 Y222.985 E33.10978
G1 X126.05 Y223.66 E33.17661
G1 X123.519 Y224.395 E33.24236
G1 X122.938 Y224.576 E33.25754
G1 X122.661 Y224.657 E33.26474
G1 X121.965 Y224.819 E33.28256
G1 X121.059 Y224.911 E33.30528
G1 X120.536 Y224.924 E33.31833
G1 X96.976 Y224.923 E33.90604
G1 X96.273 Y224.913 E33.92357
G1 X95.559 Y224.863 E33.94143
G1 X94.856 Y224.734 E33.95926
G1 X94.493 Y224.634 E33.96865
G1 X93.206 Y224.241 E34.00222
G1 X91.044 Y223.605 E34.05843
G1 X88.452 Y222.917 E34.12533
G1 X85.87 Y222.308 E34.19151
G1 X83.272 Y221.772 E34.25768
G1 X80.653 Y221.312 E34.32401
