;FLAVOR:Marlin
;TIME:535
;Filament used: 0.353833m
;Layer height: 0.2
;MINX:21.7
;MINY:47.7
;MINZ:0.15
;MAXX:198.3
;MAXY:192.3
;MAXZ:0.15
;Generated with Cura_SteamEngine 4.8.0
M140 S60
M105
M190 S60
M104 S200
M105
M109 S200
M82 ;absolute extrusion mode
G92 E0 ;
G28 ;
G1 Z5 F5000 ;
G29 ;
G92 E0
G92 E0
G1 F3000 E-3
;LAYER_COUNT:1
;LAYER:0
M107
G0 F3600 X25.414 Y48.454 Z0.15
;TYPE:SKIRT
G1 F3000 E0
G1 F1800 X26.088 Y48.155 E0.01839
G1 X26.79 Y47.93 E0.03678
G1 X27.513 Y47.782 E0.05519
G1 X28.318 Y47.712 E0.07535
G1 X28.83 Y47.7 E0.08812
G1 X50.793 Y47.7 E0.63599
G1 X51.591 Y47.711 E0.6559
G1 X52.327 Y47.761 E0.6743
G1 X52.895 Y47.856 E0.68867
G1 X53.347 Y47.952 E0.70019
G1 X55.346 Y48.414 E0.75137
G1 X57.933 Y48.933 E0.81719
G1 X60.5 Y49.373 E0.88216
G1 X63.157 Y49.753 E0.94911
G1 X65.745 Y50.048 E1.01409
G1 X68.368 Y50.272 E1.07976
G1 X71.017 Y50.423 E1.14595
G1 X73.634 Y50.498 E1.21126
G1 X76.288 Y50.498 E1.27746
G1 X78.909 Y50.425 E1.34287
G1 X81.534 Y50.277 E1.40845
G1 X84.162 Y50.055 E1.47424
G1 X86.814 Y49.754 E1.54082
G1 X89.387 Y49.388 E1.60565
G1 X92.017 Y48.939 E1.6722
G1 X94.598 Y48.422 E1.73787
G1 X95.992 Y48.11 E1.7735
G1 X96.978 Y47.883 E1.79874
G1 X97.705 Y47.757 E1.81714
G1 X98.296 Y47.713 E1.83193
G1 X98.83 Y47.7 E1.84525
G1 X120.89 Y47.701 E2.39554
G1 X121.591 Y47.711 E2.41303
G1 X122.327 Y47.761 E2.43143
G1 X122.895 Y47.856 E2.4458
G1 X123.347 Y47.952 E2.45732
G1 X125.346 Y48.414 E2.5085
G1 X127.933 Y48.933 E2.57432
G1 X130.5 Y49.373 E2.63929
G1 X133.157 Y49.753 E2.70624
G1 X135.745 Y50.048 E2.77122
G1 X138.368 Y50.272 E2.83689
G1 X141.017 Y50.423 E2.90308
G1 X143.634 Y50.498 E2.96838
G1 X146.288 Y50.498 E3.03459
G1 X148.909 Y50.425 E3.09999
G1 X151.534 Y50.277 E3.16558
G1 X154.162 Y50.055 E3.23137
G1 X156.814 Y49.754 E3.29795
G1 X159.387 Y49.388 E3.36278
G1 X162.017 Y48.939 E3.42933
G1 X164.598 Y48.422 E3.49499
G1 X165.992 Y48.11 E3.53063
G1 X166.978 Y47.883 E3.55587
G1 X167.705 Y47.757 E3.57427
G1 X168.296 Y47.713 E3.58906
G1 X168.83 Y47.7 E3.60238
G1 X190.881 Y47.701 E4.15245
G1 X191.579 Y47.71 E4.16986
G1 X192.314 Y47.759 E4.18823
G1 X193.04 Y47.888 E4.20663
G1 X193.748 Y48.094 E4.22502
G1 X194.429 Y48.377 E4.24342
G1 X195.076 Y48.731 E4.26182
G1 X195.68 Y49.153 E4.2802
G1 X196.236 Y49.638 E4.2986
G1 X196.735 Y50.18 E4.31698
G1 X197.173 Y50.773 E4.33537
G1 X197.544 Y51.41 E4.35376
G1 X197.844 Y52.084 E4.37216
G1 X198.069 Y52.786 E4.39055
G1 X198.217 Y53.508 E4.40893
G1 X198.288 Y54.318 E4.42922
G1 X198.3 Y54.83 E4.44199
G1 X198.299 Y76.875 E4.99191
G1 X198.288 Y77.612 E5.01029
G1 X198.221 Y78.472 E5.03181
G1 X197.842 Y81.128 E5.09874
G1 X197.545 Y83.739 E5.16429
G1 X197.323 Y86.344 E5.22951
G1 X197.171 Y89.003 E5.29594
G1 X197.096 Y91.621 E5.36128
G1 X197.096 Y94.274 E5.42746
G1 X197.169 Y96.897 E5.49291
G1 X197.317 Y99.512 E5.55825
G1 X197.54 Y102.153 E5.62436
G1 X197.839 Y104.788 E5.69051
G1 X198.035 Y106.235 E5.72694
G1 X198.221 Y107.533 E5.75965
G1 X198.287 Y108.294 E5.7787
G1 X198.3 Y108.83 E5.79208
G1 X198.299 Y130.875 E6.34199
G1 X198.288 Y131.612 E6.36038
G1 X198.221 Y132.472 E6.3819
G1 X197.842 Y135.128 E6.44882
G1 X197.545 Y137.739 E6.51437
G1 X197.323 Y140.344 E6.57959
G1 X197.171 Y143.003 E6.64603
G1 X197.096 Y145.621 E6.71136
G1 X197.096 Y148.274 E6.77754
G1 X197.169 Y150.897 E6.843
G1 X197.317 Y153.512 E6.90833
G1 X197.54 Y156.153 E6.97445
G1 X197.839 Y158.788 E7.0406
G1 X198.035 Y160.235 E7.07702
G1 X198.221 Y161.533 E7.10973
G1 X198.287 Y162.294 E7.12879
G1 X198.3 Y162.83 E7.14216
G1 X198.299 Y184.848 E7.6914
G1 X198.29 Y185.575 E7.70954
G1 X198.241 Y186.311 E7.72794
G1 X198.113 Y187.037 E7.74633
G1 X197.907 Y187.745 E7.76472
G1 X197.625 Y188.426 E7.78311
G1 X197.271 Y189.073 E7.80151
G1 X196.849 Y189.678 E7.81991
G1 X196.365 Y190.233 E7.83828
G1 X195.823 Y190.733 E7.85667
G1 X195.23 Y191.171 E7.87506
G1 X194.593 Y191.542 E7.89345
G1 X193.919 Y191.843 E7.91186
G1 X193.217 Y192.068 E7.93025
G1 X192.495 Y192.216 E7.94864
G1 X191.682 Y192.288 E7.969
G1 X191.17 Y192.3 E7.98177
G1 X169.11 Y192.299 E8.53206
G1 X168.411 Y192.289 E8.5495
G1 X167.675 Y192.239 E8.5679
G1 X167.115 Y192.146 E8.58206
G1 X166.653 Y192.048 E8.59384
G1 X164.654 Y191.586 E8.64502
G1 X162.066 Y191.067 E8.71087
G1 X159.501 Y190.627 E8.77579
G1 X156.843 Y190.247 E8.84276
G1 X154.255 Y189.952 E8.90774
G1 X151.632 Y189.728 E8.97341
G1 X148.983 Y189.577 E9.0396
G1 X146.366 Y189.502 E9.1049
G1 X143.712 Y189.502 E9.17111
G1 X141.091 Y189.575 E9.23652
G1 X138.466 Y189.723 E9.3021
G1 X135.838 Y189.945 E9.36789
G1 X133.186 Y190.246 E9.43447
G1 X130.613 Y190.612 E9.4993
G1 X127.983 Y191.061 E9.56585
G1 X125.402 Y191.578 E9.63152
G1 X123.985 Y191.895 E9.66774
G1 X123.024 Y192.116 E9.69233
G1 X122.298 Y192.243 E9.71072
G1 X121.705 Y192.287 E9.72555
G1 X121.17 Y192.3 E9.7389
G1 X99.11 Y192.299 E10.28919
G1 X98.411 Y192.289 E10.30663
G1 X97.675 Y192.239 E10.32503
G1 X97.115 Y192.146 E10.33919
G1 X96.653 Y192.048 E10.35097
G1 X94.654 Y191.586 E10.40215
G1 X92.066 Y191.067 E10.468
G1 X89.501 Y190.627 E10.53291
G1 X86.843 Y190.247 E10.59989
G1 X84.255 Y189.952 E10.66487
G1 X81.632 Y189.728 E10.73054
G1 X78.983 Y189.577 E10.79673
G1 X76.366 Y189.502 E10.86203
G1 X73.712 Y189.502 E10.92824
G1 X71.091 Y189.575 E10.99364
G1 X68.466 Y189.723 E11.05923
G1 X65.838 Y189.945 E11.12502
G1 X63.186 Y190.246 E11.1916
G1 X60.613 Y190.612 E11.25643
G1 X57.983 Y191.061 E11.32298
G1 X55.402 Y191.578 E11.38864
G1 X53.985 Y191.895 E11.42487
G1 X53.024 Y192.116 E11.44946
G1 X52.298 Y192.243 E11.46785
G1 X51.705 Y192.287 E11.48268
G1 X51.17 Y192.3 E11.49603
G1 X29.119 Y192.299 E12.0461
G1 X28.421 Y192.29 E12.06351
G1 X27.686 Y192.241 E12.08188
G1 X26.96 Y192.112 E12.10028
G1 X26.252 Y191.906 E12.11867
G1 X25.571 Y191.623 E12.13707
G1 X24.924 Y191.269 E12.15546
G1 X24.32 Y190.847 E12.17384
G1 X23.764 Y190.362 E12.19225
G1 X23.265 Y189.82 E12.21063
G1 X22.827 Y189.227 E12.22902
G1 X22.456 Y188.59 E12.24741
G1 X22.156 Y187.916 E12.26581
G1 X21.931 Y187.214 E12.2842
G1 X21.783 Y186.492 E12.30258
G1 X21.711 Y185.675 E12.32304
G1 X21.7 Y185.158 E12.33594
G1 X21.701 Y163.103 E12.88611
G1 X21.712 Y162.385 E12.90402
G1 X21.779 Y161.528 E12.92546
G1 X22.159 Y158.862 E12.99264
G1 X22.456 Y156.254 E13.05811
G1 X22.677 Y153.656 E13.12316
G1 X22.829 Y150.996 E13.18962
G1 X22.904 Y148.379 E13.25493
G1 X22.904 Y145.723 E13.32118
G1 X22.83 Y143.091 E13.38686
G1 X22.684 Y140.49 E13.45185
G1 X22.458 Y137.831 E13.51841
G1 X22.159 Y135.196 E13.58457
G1 X21.966 Y133.763 E13.62064
G1 X21.778 Y132.452 E13.65367
G1 X21.712 Y131.681 E13.67298
G1 X21.7 Y131.17 E13.68573
G1 X21.701 Y109.103 E14.23619
G1 X21.712 Y108.385 E14.2541
G1 X21.779 Y107.528 E14.27555
G1 X22.159 Y104.862 E14.34272
G1 X22.456 Y102.254 E14.4082
G1 X22.677 Y99.656 E14.47324
G1 X22.829 Y96.996 E14.5397
G1 X22.904 Y94.379 E14.60501
G1 X22.904 Y91.723 E14.67127
G1 X22.83 Y89.091 E14.73695
G1 X22.684 Y86.49 E14.80193
G1 X22.458 Y83.831 E14.8685
G1 X22.159 Y81.196 E14.93465
G1 X21.966 Y79.763 E14.97072
G1 X21.778 Y78.452 E15.00376
G1 X21.712 Y77.681 E15.02306
G1 X21.7 Y77.17 E15.03581
G1 X21.701 Y55.082 E15.5868
G1 X21.71 Y54.417 E15.60339
G1 X21.76 Y53.681 E15.62179
G1 X21.889 Y52.956 E15.64016
G1 X22.096 Y52.248 E15.65856
G1 X22.378 Y51.567 E15.67695
G1 X22.733 Y50.92 E15.69536
G1 X23.155 Y50.316 E15.71374
G1 X23.641 Y49.761 E15.73214
G1 X24.184 Y49.262 E15.75053
G1 X24.777 Y48.825 E15.76891
G1 X25.414 Y48.454 E15.7873
G0 F3600 X25.788 Y48.716
G1 F1800 X26.452 Y48.449 E15.80515
G1 X27.141 Y48.257 E15.82299
G1 X27.847 Y48.143 E15.84083
G1 X28.651 Y48.103 E15.86091
G1 X28.83 Y48.1 E15.86538
G1 X50.793 Y48.1 E16.41325
G1 X51.585 Y48.111 E16.43301
G1 X52.299 Y48.161 E16.45086
G1 X52.812 Y48.247 E16.46384
G1 X53.257 Y48.342 E16.47519
G1 X55.249 Y48.802 E16.52619
G1 X57.858 Y49.326 E16.59257
G1 X60.447 Y49.77 E16.65809
G1 X63.088 Y50.147 E16.72464
G1 X65.702 Y50.445 E16.79027
G1 X68.347 Y50.671 E16.85649
G1 X71.018 Y50.823 E16.92323
G1 X73.622 Y50.898 E16.98821
G1 X76.264 Y50.898 E17.05411
G1 X78.944 Y50.823 E17.12099
G1 X81.59 Y50.674 E17.1871
G1 X84.205 Y50.453 E17.25257
G1 X86.849 Y50.153 E17.31894
G1 X89.439 Y49.785 E17.3842
G1 X92.092 Y49.332 E17.45134
G1 X94.678 Y48.814 E17.51713
G1 X96.082 Y48.5 E17.55302
G1 X97.068 Y48.273 E17.57826
G1 X97.773 Y48.152 E17.5961
G1 X98.308 Y48.113 E17.60948
G1 X98.83 Y48.1 E17.62251
G1 X120.884 Y48.101 E18.17264
G1 X121.585 Y48.111 E18.19013
G1 X122.299 Y48.161 E18.20799
G1 X122.812 Y48.247 E18.22096
G1 X123.257 Y48.342 E18.23231
G1 X125.249 Y48.802 E18.28331
G1 X127.858 Y49.326 E18.34969
G1 X130.447 Y49.77 E18.41522
G1 X133.088 Y50.147 E18.48177
G1 X135.702 Y50.445 E18.5474
G1 X138.347 Y50.671 E18.61362
G1 X141.018 Y50.823 E18.68035
G1 X143.622 Y50.898 E18.74534
G1 X146.264 Y50.898 E18.81124
G1 X148.944 Y50.823 E18.87812
G1 X151.59 Y50.674 E18.94423
G1 X154.205 Y50.453 E19.00969
G1 X156.849 Y50.153 E19.07607
G1 X159.439 Y49.785 E19.14133
G1 X162.092 Y49.332 E19.20847
G1 X164.678 Y48.814 E19.27425
G1 X166.082 Y48.5 E19.31014
G1 X167.068 Y48.273 E19.33538
G1 X167.773 Y48.152 E19.35323
G1 X168.308 Y48.113 E19.36661
G1 X168.83 Y48.1 E19.37963
G1 X190.876 Y48.101 E19.92957
G1 X191.574 Y48.11 E19.94698
G1 X192.287 Y48.159 E19.96481
G1 X192.991 Y48.287 E19.98266
G1 X193.676 Y48.493 E20.00051
G1 X194.333 Y48.775 E20.01834
G1 X194.955 Y49.128 E20.03618
G1 X195.534 Y49.548 E20.05402
G1 X196.063 Y50.03 E20.07188
G1 X196.534 Y50.568 E20.08971
G1 X196.942 Y51.155 E20.10754
G1 X197.282 Y51.785 E20.1254
G1 X197.55 Y52.448 E20.14324
G1 X197.742 Y53.137 E20.16108
G1 X197.856 Y53.843 E20.17892
G1 X197.897 Y54.651 E20.1991
G1 X197.9 Y54.83 E20.20357
G1 X197.899 Y76.87 E20.75336
G1 X197.888 Y77.607 E20.77175
G1 X197.825 Y78.415 E20.79196
G1 X197.446 Y81.068 E20.85882
G1 X197.147 Y83.696 E20.92479
G1 X196.923 Y86.324 E20.99059
G1 X196.771 Y88.993 E21.05727
G1 X196.696 Y91.609 E21.12256
G1 X196.696 Y94.253 E21.18851
G1 X196.771 Y96.93 E21.25532
G1 X196.919 Y99.567 E21.3212
G1 X197.142 Y102.198 E21.38707
G1 X197.443 Y104.845 E21.45352
G1 X197.631 Y106.238 E21.48858
G1 X197.825 Y107.59 E21.52266
G1 X197.887 Y108.306 E21.54058
G1 X197.9 Y108.83 E21.55366
G1 X197.899 Y130.87 E22.10345
G1 X197.888 Y131.607 E22.12183
G1 X197.825 Y132.415 E22.14205
G1 X197.446 Y135.068 E22.2089
G1 X197.147 Y137.696 E22.27488
G1 X196.923 Y140.324 E22.34067
G1 X196.771 Y142.993 E22.40736
G1 X196.696 Y145.609 E22.47264
G1 X196.696 Y148.253 E22.5386
G1 X196.771 Y150.93 E22.6054
G1 X196.919 Y153.567 E22.67129
G1 X197.142 Y156.198 E22.73715
G1 X197.443 Y158.845 E22.80361
G1 X197.631 Y160.238 E22.83867
G1 X197.825 Y161.59 E22.87274
G1 X197.887 Y162.306 E22.89067
G1 X197.9 Y162.83 E22.90375
G1 X197.9 Y184.843 E23.45286
G1 X197.891 Y185.57 E23.471
G1 X197.842 Y186.284 E23.48885
G1 X197.714 Y186.988 E23.5067
G1 X197.508 Y187.673 E23.52454
G1 X197.227 Y188.33 E23.54237
G1 X196.874 Y188.953 E23.56023
G1 X196.454 Y189.532 E23.57807
G1 X195.972 Y190.06 E23.59591
G1 X195.435 Y190.532 E23.61374
G1 X194.847 Y190.94 E23.6316
G1 X194.218 Y191.281 E23.64944
G1 X193.555 Y191.549 E23.66728
G1 X192.866 Y191.741 E23.68512
G1 X192.16 Y191.856 E23.70297
G1 X191.349 Y191.897 E23.72322
G1 X191.17 Y191.9 E23.72769
G1 X169.115 Y191.899 E24.27785
G1 X168.416 Y191.889 E24.29529
G1 X167.703 Y191.839 E24.31312
G1 X167.197 Y191.754 E24.32592
G1 X166.743 Y191.658 E24.3375
G1 X164.751 Y191.198 E24.38849
G1 X162.142 Y190.674 E24.45488
G1 X159.554 Y190.23 E24.52038
G1 X156.913 Y189.853 E24.58693
G1 X154.298 Y189.555 E24.65258
G1 X151.653 Y189.329 E24.7188
G1 X148.982 Y189.177 E24.78554
G1 X146.378 Y189.102 E24.85052
G1 X143.736 Y189.102 E24.91642
G1 X141.056 Y189.177 E24.9833
G1 X138.41 Y189.326 E25.04941
G1 X135.795 Y189.547 E25.11488
G1 X133.151 Y189.847 E25.18125
G1 X130.561 Y190.215 E25.24651
G1 X127.908 Y190.668 E25.31365
G1 X125.322 Y191.186 E25.37944
G1 X123.919 Y191.5 E25.4153
G1 X122.934 Y191.727 E25.44052
G1 X122.229 Y191.848 E25.45836
G1 X121.693 Y191.887 E25.47177
G1 X121.17 Y191.9 E25.48482
G1 X99.115 Y191.899 E26.03498
G1 X98.416 Y191.889 E26.05242
G1 X97.703 Y191.839 E26.07025
G1 X97.197 Y191.754 E26.08305
G1 X96.743 Y191.658 E26.09462
G1 X94.751 Y191.198 E26.14562
G1 X92.142 Y190.674 E26.212
G1 X89.554 Y190.23 E26.2775
G1 X86.913 Y189.853 E26.34405
G1 X84.298 Y189.555 E26.40971
G1 X81.653 Y189.329 E26.47593
G1 X78.982 Y189.177 E26.54266
G1 X76.378 Y189.102 E26.60765
G1 X73.736 Y189.102 E26.67355
G1 X71.056 Y189.177 E26.74043
G1 X68.41 Y189.326 E26.80654
G1 X65.795 Y189.547 E26.872
G1 X63.151 Y189.847 E26.93838
G1 X60.561 Y190.215 E27.00364
G1 X57.908 Y190.668 E27.07077
G1 X55.322 Y191.186 E27.13656
G1 X53.919 Y191.5 E27.17243
G1 X52.934 Y191.727 E27.19764
G1 X52.229 Y191.848 E27.21549
G1 X51.693 Y191.887 E27.22889
G1 X51.17 Y191.9 E27.24194
G1 X29.124 Y191.899 E27.79188
G1 X28.426 Y191.89 E27.8093
G1 X27.713 Y191.841 E27.82712
G1 X27.009 Y191.713 E27.84497
G1 X26.324 Y191.507 E27.86282
G1 X25.667 Y191.225 E27.88065
G1 X25.045 Y190.872 E27.89849
G1 X24.466 Y190.452 E27.91633
G1 X23.937 Y189.97 E27.93419
G1 X23.466 Y189.432 E27.95202
G1 X23.058 Y188.845 E27.96986
G1 X22.718 Y188.215 E27.98771
G1 X22.45 Y187.552 E28.00555
G1 X22.258 Y186.863 E28.02339
G1 X22.144 Y186.157 E28.04123
G1 X22.102 Y185.331 E28.06186
G1 X22.1 Y185.158 E28.06618
G1 X22.101 Y163.109 E28.6162
G1 X22.112 Y162.391 E28.63411
G1 X22.175 Y161.585 E28.65427
G1 X22.554 Y158.932 E28.72113
G1 X22.853 Y156.304 E28.7871
G1 X23.077 Y153.676 E28.8529
G1 X23.229 Y150.996 E28.91986
G1 X23.304 Y148.391 E28.98487
G1 X23.304 Y145.747 E29.05082
G1 X23.229 Y143.068 E29.11768
G1 X23.08 Y140.423 E29.18376
G1 X22.856 Y137.786 E29.24978
G1 X22.556 Y135.141 E29.31618
G1 X22.362 Y133.709 E29.35223
G1 X22.174 Y132.395 E29.38534
G1 X22.112 Y131.669 E29.40352
G1 X22.1 Y131.17 E29.41597
G1 X22.101 Y109.109 E29.96628
G1 X22.112 Y108.391 E29.98419
G1 X22.175 Y107.585 E30.00436
G1 X22.554 Y104.932 E30.07121
G1 X22.853 Y102.304 E30.13719
G1 X23.077 Y99.676 E30.20298
G1 X23.229 Y96.996 E30.26994
G1 X23.304 Y94.391 E30.33495
G1 X23.304 Y91.747 E30.40091
G1 X23.229 Y89.068 E30.46776
G1 X23.08 Y86.423 E30.53385
G1 X22.856 Y83.786 E30.59986
G1 X22.556 Y81.141 E30.66627
G1 X22.362 Y79.709 E30.70231
G1 X22.174 Y78.395 E30.73543
G1 X22.112 Y77.669 E30.7536
G1 X22.1 Y77.17 E30.76605
G1 X22.101 Y55.087 E31.31692
G1 X22.11 Y54.422 E31.33351
G1 X22.159 Y53.709 E31.35133
G1 X22.288 Y53.005 E31.36919
G1 X22.495 Y52.321 E31.38701
G1 X22.777 Y51.663 E31.40487
G1 X23.13 Y51.041 E31.42271
G1 X23.55 Y50.463 E31.44054
G1 X24.033 Y49.935 E31.45839
G1 X24.571 Y49.464 E31.47622
G1 X25.159 Y49.056 E31.49408
G1 X25.788 Y48.716 E31.51191
G0 F3600 X25.539 Y49.296
G1 F1800 X26.159 Y48.988 E31.52918
G1 X26.811 Y48.754 E31.54646
G1 X27.485 Y48.597 E31.56372
G1 X28.341 Y48.511 E31.58518
G1 X28.83 Y48.5 E31.59739
G1 X50.879 Y48.501 E32.1474
G1 X51.58 Y48.511 E32.16489
G1 X52.27 Y48.56 E32.18214
G1 X53.053 Y48.707 E32.20202
G1 X55.146 Y49.189 E32.25559
G1 X57.784 Y49.719 E32.32271
G1 X60.395 Y50.166 E32.38879
G1 X63.057 Y50.547 E32.45587
G1 X65.662 Y50.843 E32.52127
G1 X68.323 Y51.071 E32.5879
G1 X70.948 Y51.221 E32.65348
G1 X73.646 Y51.298 E32.72081
G1 X76.276 Y51.298 E32.78642
G1 X78.975 Y51.223 E32.85377
G1 X81.574 Y51.076 E32.91871
G1 X84.25 Y50.85 E32.9857
G1 X86.913 Y50.548 E33.05255
G1 X89.526 Y50.177 E33.11839
G1 X92.132 Y49.732 E33.18434
G1 X94.756 Y49.206 E33.25109
G1 X96.21 Y48.881 E33.28826
G1 X97.158 Y48.663 E33.31252
G1 X97.841 Y48.547 E33.32981
G1 X98.646 Y48.503 E33.34992
G1 X98.83 Y48.5 E33.35451
G1 X120.879 Y48.501 E33.90452
G1 X121.58 Y48.511 E33.92201
G1 X122.27 Y48.56 E33.93927
G1 X123.053 Y48.707 E33.95914
G1 X125.146 Y49.189 E34.01272
G1 X127.784 Y49.719 E34.07984
G1 X130.395 Y50.166 E34.14591
G1 X133.057 Y50.547 E34.213
G1 X135.662 Y50.843 E34.2784
G1 X138.323 Y51.071 E34.34502
G1 X140.948 Y51.221 E34.41061
G1 X143.646 Y51.298 E34.47793
G1 X146.276 Y51.298 E34.54354
G1 X148.975 Y51.223 E34.61089
G1 X151.574 Y51.076 E34.67583
G1 X154.25 Y50.85 E34.74282
G1 X156.913 Y50.548 E34.80967
G1 X159.526 Y50.177 E34.87551
G1 X162.132 Y49.732 E34.94146
G1 X164.756 Y49.206 E35.00822
