;FLAVOR:Marlin
;TIME:584
;Filament used: 0.398871m
;Layer height: 0.2
;MINX:87.7
;MINY:108.7
;MINZ:0.15
;MAXX:128.3
;MAXY:141.8
;MAXZ:9.95
;Generated with Cura_SteamEngine 4.11.0
M140 S60
M105
M190 S60
M104 S200
M105
M109 S200
M82 ;absolute extrusion mode
G92 E0 ;
G28 ;
G1 Z5 F5000 ;
G29 ;
G92 E0
G92 E0
G1 F3000 E-3
;LAYER_COUNT:50
;LAYER:0
M107
G0 F3600 X90.184 Y110.262 Z0.15
;TYPE:SKIRT
G1 F3000 E0
G1 F1800 X90.777 Y109.825 E0.01838
G1 X91.414 Y109.454 E0.03676
G1 X92.088 Y109.155 E0.05516
G1 X92.79 Y108.93 E0.07355
G1 X93.513 Y108.782 E0.09196
G1 X94.318 Y108.712 E0.11211
G1 X94.83 Y108.7 E0.12489
G1 X102.252 Y108.7 E0.31003
G1 X103.69 Y108.705 E0.3459
G1 X104.375 Y108.7 E0.36299
G1 X111.752 Y108.7 E0.54701
G1 X113.19 Y108.705 E0.58288
G1 X113.875 Y108.7 E0.59997
G1 X120.89 Y108.701 E0.77496
G1 X121.588 Y108.711 E0.79237
G1 X122.324 Y108.761 E0.81077
G1 X123.05 Y108.891 E0.82917
G1 X123.757 Y109.099 E0.84756
G1 X124.438 Y109.382 E0.86595
G1 X125.084 Y109.737 E0.88434
G1 X125.688 Y110.16 E0.90273
G1 X126.243 Y110.646 E0.92114
G1 X126.741 Y111.189 E0.93951
G1 X127.178 Y111.783 E0.95791
G1 X127.548 Y112.42 E0.97629
G1 X127.847 Y113.094 E0.99468
G1 X128.072 Y113.797 E1.01309
G1 X128.218 Y114.519 E1.03147
G1 X128.288 Y115.319 E1.0515
G1 X128.3 Y115.83 E1.06425
G1 X128.299 Y124.868 E1.2897
G1 X128.289 Y125.59 E1.30772
G1 X128.239 Y126.326 E1.32612
G1 X128.11 Y127.052 E1.34451
G1 X127.902 Y127.759 E1.36289
G1 X127.62 Y128.44 E1.38128
G1 X127.265 Y129.086 E1.39967
G1 X126.842 Y129.691 E1.41808
G1 X126.338 Y130.264 E1.43712
G1 X125.48 Y131.135 E1.46762
G1 X125.246 Y131.366 E1.47582
G1 X123.4 Y133.29 E1.54233
G1 X121.649 Y135.222 E1.60737
G1 X119.914 Y137.25 E1.67395
G1 X118.37 Y139.161 E1.73524
G1 X118.221 Y139.34 E1.74105
G1 X117.72 Y139.881 E1.75944
G1 X117.162 Y140.363 E1.77783
G1 X116.556 Y140.783 E1.79622
G1 X115.908 Y141.134 E1.81461
G1 X115.226 Y141.414 E1.833
G1 X114.517 Y141.617 E1.8514
G1 X113.791 Y141.743 E1.86978
G1 X113.204 Y141.787 E1.88446
G1 X112.67 Y141.8 E1.89778
G1 X111.61 Y141.799 E1.92423
G1 X109.764 Y141.772 E1.97028
G1 X109.347 Y141.76 E1.98069
G1 X106.666 Y141.756 E2.04756
G1 X105.136 Y141.789 E2.08574
G1 X104.665 Y141.8 E2.09749
G1 X103.61 Y141.799 E2.12381
G1 X102.909 Y141.789 E2.1413
G1 X102.173 Y141.739 E2.1597
G1 X101.448 Y141.609 E2.17807
G1 X100.74 Y141.401 E2.19648
G1 X100.059 Y141.118 E2.21488
G1 X99.413 Y140.763 E2.23326
G1 X98.809 Y140.34 E2.25166
G1 X98.255 Y139.855 E2.27002
G1 X97.719 Y139.266 E2.28989
G1 X96.979 Y138.351 E2.31925
G1 X96.827 Y138.178 E2.32499
G1 X96.089 Y137.263 E2.35431
G1 X94.353 Y135.227 E2.42106
G1 X92.601 Y133.289 E2.48623
G1 X90.749 Y131.352 E2.55308
G1 X89.7 Y130.302 E2.5901
G1 X89.207 Y129.753 E2.60851
G1 X88.778 Y129.154 E2.62689
G1 X88.415 Y128.512 E2.64528
G1 X88.125 Y127.834 E2.66368
G1 X87.909 Y127.129 E2.68207
G1 X87.771 Y126.405 E2.70046
G1 X87.713 Y125.704 E2.718
G1 X87.7 Y125.17 E2.73133
G1 X87.701 Y116.082 E2.95803
G1 X87.71 Y115.417 E2.97462
G1 X87.76 Y114.681 E2.99302
G1 X87.889 Y113.956 E3.01139
G1 X88.096 Y113.248 E3.02979
G1 X88.378 Y112.567 E3.04818
G1 X88.733 Y111.92 E3.06659
G1 X89.155 Y111.316 E3.08497
G1 X89.641 Y110.761 E3.10337
G1 X90.184 Y110.262 E3.12177
G0 F3600 X90.571 Y110.464
G1 F1800 X91.159 Y110.056 E3.13962
G1 X91.788 Y109.716 E3.15746
G1 X92.452 Y109.449 E3.17531
G1 X93.141 Y109.257 E3.19315
G1 X93.847 Y109.143 E3.21099
G1 X94.651 Y109.103 E3.23107
G1 X94.83 Y109.1 E3.23554
G1 X102.251 Y109.1 E3.42065
G1 X103.692 Y109.105 E3.4566
G1 X104.378 Y109.1 E3.47371
G1 X111.751 Y109.1 E3.65763
G1 X113.192 Y109.105 E3.69358
G1 X113.878 Y109.1 E3.71069
G1 X120.885 Y109.101 E3.88548
G1 X121.583 Y109.111 E3.90289
G1 X122.296 Y109.161 E3.92072
G1 X123 Y109.29 E3.93858
G1 X123.684 Y109.498 E3.95641
G1 X124.341 Y109.78 E3.97425
G1 X124.963 Y110.134 E3.9921
G1 X125.541 Y110.555 E4.00994
G1 X126.069 Y111.038 E4.02779
G1 X126.539 Y111.576 E4.04561
G1 X126.947 Y112.164 E4.06346
G1 X127.286 Y112.794 E4.08131
G1 X127.553 Y113.457 E4.09914
G1 X127.744 Y114.147 E4.117
G1 X127.857 Y114.853 E4.13483
G1 X127.897 Y115.65 E4.15474
G1 X127.9 Y115.83 E4.15923
G1 X127.899 Y124.863 E4.38456
G1 X127.889 Y125.585 E4.40257
G1 X127.84 Y126.298 E4.4204
G1 X127.71 Y127.002 E4.43826
G1 X127.504 Y127.686 E4.45607
G1 X127.222 Y128.344 E4.47393
G1 X126.868 Y128.965 E4.49176
G1 X126.447 Y129.544 E4.50962
G1 X126.053 Y129.984 E4.52435
G1 X125.273 Y130.777 E4.5521
G1 X124.959 Y131.086 E4.56309
G1 X123.115 Y133.008 E4.62953
G1 X121.347 Y134.958 E4.69519
G1 X119.614 Y136.985 E4.76172
G1 X118.063 Y138.905 E4.82329
G1 X117.914 Y139.084 E4.8291
G1 X117.426 Y139.608 E4.84696
G1 X116.883 Y140.073 E4.86479
G1 X116.292 Y140.476 E4.88264
G1 X115.659 Y140.809 E4.90048
G1 X114.993 Y141.07 E4.91832
G1 X114.302 Y141.255 E4.93616
G1 X113.595 Y141.362 E4.954
G1 X112.867 Y141.397 E4.97218
G1 X112.67 Y141.4 E4.9771
G1 X111.615 Y141.399 E5.00341
G1 X109.776 Y141.372 E5.04929
G1 X109.359 Y141.36 E5.0597
G1 X106.702 Y141.356 E5.12598
G1 X104.665 Y141.4 E5.1768
G1 X103.616 Y141.399 E5.20297
G1 X102.915 Y141.389 E5.22046
G1 X102.201 Y141.339 E5.23831
G1 X101.498 Y141.21 E5.25614
G1 X100.813 Y141.003 E5.27399
G1 X100.156 Y140.72 E5.29184
G1 X99.534 Y140.367 E5.30968
G1 X98.956 Y139.946 E5.32752
G1 X98.428 Y139.463 E5.34537
G1 X98.03 Y139.015 E5.36032
G1 X97.226 Y138.021 E5.39221
G1 X97.138 Y137.927 E5.39542
G1 X96.37 Y136.975 E5.42593
G1 X94.671 Y134.982 E5.49126
G1 X92.904 Y133.028 E5.55698
G1 X91.038 Y131.076 E5.62434
G1 X89.982 Y130.019 E5.66161
G1 X89.506 Y129.486 E5.67944
G1 X89.092 Y128.903 E5.69727
G1 X88.746 Y128.277 E5.71511
G1 X88.471 Y127.616 E5.73297
G1 X88.273 Y126.929 E5.75081
G1 X88.152 Y126.224 E5.76865
G1 X88.113 Y125.692 E5.78196
G1 X88.1 Y125.17 E5.79498
G1 X88.101 Y116.087 E6.02156
G1 X88.11 Y115.422 E6.03815
G1 X88.159 Y114.709 E6.05598
G1 X88.288 Y114.005 E6.07383
G1 X88.495 Y113.321 E6.09166
G1 X88.777 Y112.663 E6.10952
G1 X89.13 Y112.041 E6.12736
G1 X89.55 Y111.463 E6.14518
G1 X90.033 Y110.935 E6.16303
G1 X90.571 Y110.464 E6.18087
G0 F3600 X90.958 Y110.673
G1 F1800 X91.539 Y110.296 E6.19814
G1 X92.159 Y109.988 E6.21541
G1 X92.811 Y109.754 E6.23269
G1 X93.485 Y109.597 E6.24996
G1 X94.341 Y109.511 E6.27142
G1 X94.83 Y109.5 E6.28362
G1 X102.249 Y109.5 E6.46869
G1 X103.693 Y109.505 E6.50471
G1 X104.381 Y109.5 E6.52187
G1 X111.749 Y109.5 E6.70566
G1 X113.193 Y109.505 E6.74169
G1 X113.881 Y109.5 E6.75885
G1 X120.879 Y109.501 E6.93341
G1 X121.577 Y109.511 E6.95083
G1 X122.268 Y109.56 E6.96811
G1 X122.948 Y109.69 E6.98538
G1 X123.609 Y109.896 E7.00265
G1 X124.242 Y110.178 E7.01993
G1 X124.838 Y110.53 E7.0372
G1 X125.389 Y110.949 E7.05447
G1 X125.889 Y111.429 E7.07176
G1 X126.33 Y111.963 E7.08903
G1 X126.707 Y112.544 E7.10631
G1 X127.014 Y113.165 E7.12359
G1 X127.247 Y113.817 E7.14086
G1 X127.404 Y114.491 E7.15813
G1 X127.489 Y115.341 E7.17944
G1 X127.5 Y115.83 E7.19164
G1 X127.499 Y124.857 E7.41682
G1 X127.489 Y125.579 E7.43483
G1 X127.44 Y126.27 E7.45211
G1 X127.311 Y126.95 E7.46937
G1 X127.105 Y127.611 E7.48664
G1 X126.824 Y128.244 E7.50392
G1 X126.471 Y128.841 E7.52122
G1 X126.053 Y129.392 E7.53847
G1 X125.768 Y129.703 E7.549
G1 X124.919 Y130.565 E7.57918
G1 X124.673 Y130.807 E7.58779
G1 X122.812 Y132.747 E7.65485
G1 X121.048 Y134.694 E7.72038
G1 X119.315 Y136.719 E7.78687
G1 X117.755 Y138.65 E7.84879
G1 X117.606 Y138.829 E7.8546
G1 X117.133 Y139.334 E7.87186
G1 X116.605 Y139.782 E7.88914
G1 X116.029 Y140.166 E7.9064
G1 X115.412 Y140.482 E7.9237
G1 X114.763 Y140.723 E7.94097
G1 X114.091 Y140.889 E7.95823
G1 X113.18 Y140.987 E7.98109
G1 X112.67 Y141 E7.99382
G1 X111.621 Y140.999 E8.01998
G1 X109.788 Y140.972 E8.06571
G1 X109.372 Y140.96 E8.07609
G1 X106.694 Y140.956 E8.1429
G1 X105.063 Y140.99 E8.18359
G1 X104.665 Y141 E8.19352
G1 X103.621 Y140.999 E8.21957
G1 X102.92 Y140.989 E8.23705
G1 X102.23 Y140.94 E8.25431
G1 X101.549 Y140.81 E8.2716
G1 X100.888 Y140.604 E8.28887
G1 X100.256 Y140.322 E8.30614
G1 X99.659 Y139.97 E8.32343
G1 X99.108 Y139.551 E8.34069
G1 X98.608 Y139.072 E8.35797
G1 X98.341 Y138.763 E8.36815
G1 X97.578 Y137.819 E8.39843
G1 X97.449 Y137.675 E8.40325
G1 X96.699 Y136.746 E8.43304
G1 X94.973 Y134.721 E8.49941
G1 X93.172 Y132.729 E8.5664
G1 X91.35 Y130.823 E8.63217
G1 X90.265 Y129.737 E8.67047
G1 X89.805 Y129.219 E8.68775
G1 X89.407 Y128.652 E8.70503
G1 X89.078 Y128.043 E8.7223
G1 X88.82 Y127.401 E8.73956
G1 X88.639 Y126.732 E8.75684
G1 X88.535 Y126.047 E8.77413
G1 X88.503 Y125.354 E8.79143
G1 X88.5 Y125.17 E8.79602
G1 X88.501 Y116.093 E9.02245
G1 X88.51 Y115.428 E9.03904
G1 X88.559 Y114.737 E9.05632
G1 X88.687 Y114.057 E9.07358
G1 X88.894 Y113.395 E9.09088
G1 X89.175 Y112.762 E9.10816
G1 X89.527 Y112.166 E9.12543
G1 X89.945 Y111.614 E9.1427
G1 X90.424 Y111.114 E9.15997
G1 X90.958 Y110.673 E9.17725
G0 F3600 X90.814 Y111.301
G1 F1800 X91.343 Y110.89 E9.19396
G1 X91.916 Y110.545 E9.21064
G1 X92.527 Y110.272 E9.22733
G1 X93.165 Y110.073 E9.24401
G1 X93.823 Y109.951 E9.2607
G1 X94.352 Y109.911 E9.27393
G1 X94.83 Y109.9 E9.28586
G1 X102.248 Y109.9 E9.4709
G1 X103.694 Y109.905 E9.50697
G1 X104.383 Y109.9 E9.52416
G1 X111.748 Y109.9 E9.70788
G1 X113.194 Y109.905 E9.74395
G1 X113.883 Y109.9 E9.76114
G1 X120.873 Y109.901 E9.93551
G1 X121.571 Y109.911 E9.95292
G1 X122.238 Y109.96 E9.9696
G1 X122.895 Y110.089 E9.98631
G1 X123.531 Y110.295 E10.00298
G1 X124.139 Y110.576 E10.01969
G1 X124.708 Y110.926 E10.03635
G1 X125.232 Y111.343 E10.05306
G1 X125.702 Y111.819 E10.06975
G1 X126.112 Y112.347 E10.08642
G1 X126.457 Y112.921 E10.10313
G1 X126.73 Y113.532 E10.11982
G1 X126.928 Y114.171 E10.13651
G1 X127.049 Y114.829 E10.1532
G1 X127.089 Y115.353 E10.16631
G1 X127.1 Y115.83 E10.17821
G1 X127.099 Y124.852 E10.40326
G1 X127.089 Y125.574 E10.42128
G1 X127.04 Y126.241 E10.43796
G1 X126.912 Y126.897 E10.45463
G1 X126.706 Y127.534 E10.47133
G1 X126.426 Y128.141 E10.48801
G1 X126.075 Y128.711 E10.5047
G1 X125.482 Y129.423 E10.52782
G1 X124.638 Y130.28 E10.55782
G1 X124.386 Y130.528 E10.56664
G1 X122.528 Y132.465 E10.6336
G1 X120.746 Y134.43 E10.69977
G1 X119.001 Y136.471 E10.76675
G1 X117.448 Y138.394 E10.82841
G1 X117.299 Y138.573 E10.83422
G1 X116.841 Y139.06 E10.8509
G1 X116.328 Y139.49 E10.8676
G1 X115.768 Y139.855 E10.88427
G1 X115.168 Y140.151 E10.90096
G1 X114.537 Y140.374 E10.91765
G1 X113.884 Y140.519 E10.93434
G1 X113.167 Y140.587 E10.95231
G1 X112.67 Y140.6 E10.96471
G1 X111.627 Y140.599 E10.99073
G1 X109.799 Y140.573 E11.03633
G1 X109.347 Y140.56 E11.04761
G1 X106.686 Y140.556 E11.11399
G1 X105.099 Y140.59 E11.15359
G1 X104.665 Y140.6 E11.16442
G1 X103.627 Y140.599 E11.19031
G1 X102.926 Y140.589 E11.2078
G1 X102.259 Y140.54 E11.22448
G1 X101.602 Y140.411 E11.24118
G1 X100.966 Y140.205 E11.25786
G1 X100.359 Y139.925 E11.27453
G1 X99.789 Y139.574 E11.29123
G1 X99.265 Y139.157 E11.30794
G1 X98.652 Y138.512 E11.33013
G1 X97.833 Y137.5 E11.36261
G1 X97.761 Y137.424 E11.36522
G1 X97.017 Y136.502 E11.39477
G1 X95.273 Y134.456 E11.46184
G1 X93.475 Y132.468 E11.5287
G1 X91.617 Y130.524 E11.59578
G1 X90.548 Y129.454 E11.63351
G1 X90.105 Y128.953 E11.65019
G1 X89.724 Y128.403 E11.66688
G1 X89.411 Y127.812 E11.68357
G1 X89.171 Y127.187 E11.70027
G1 X89.008 Y126.538 E11.71696
G1 X88.913 Y125.668 E11.73879
G1 X88.9 Y125.17 E11.75122
G1 X88.901 Y116.098 E11.97752
G1 X88.91 Y115.433 E11.99411
G1 X88.959 Y114.766 E12.01079
G1 X89.087 Y114.109 E12.02749
G1 X89.292 Y113.473 E12.04416
G1 X89.572 Y112.865 E12.06086
G1 X89.923 Y112.295 E12.07755
G1 X90.339 Y111.771 E12.09424
G1 X90.814 Y111.301 E12.11091
G0 F3600 X91.203 Y111.495
G1 F1800 X91.726 Y111.117 E12.12701
G1 X92.29 Y110.806 E12.14308
G1 X92.889 Y110.568 E12.15916
G1 X93.513 Y110.405 E12.17524
G1 X94.363 Y110.311 E12.19658
G1 X94.83 Y110.3 E12.20823
G1 X102.246 Y110.3 E12.39322
G1 X103.695 Y110.305 E12.42937
G1 X104.386 Y110.3 E12.4466
G1 X111.746 Y110.3 E12.6302
G1 X113.195 Y110.305 E12.66635
G1 X113.886 Y110.3 E12.68358
G1 X120.867 Y110.301 E12.85773
G1 X121.565 Y110.311 E12.87514
G1 X122.208 Y110.36 E12.89122
G1 X122.84 Y110.488 E12.90731
G1 X123.451 Y110.694 E12.92339
G1 X124.032 Y110.973 E12.93947
G1 X124.574 Y111.322 E12.95555
G1 X125.068 Y111.736 E12.97163
G1 X125.508 Y112.208 E12.98773
G1 X125.886 Y112.73 E13.0038
G1 X126.196 Y113.295 E13.01988
G1 X126.434 Y113.894 E13.03596
G1 X126.596 Y114.518 E13.05204
G1 X126.689 Y115.364 E13.07327
G1 X126.7 Y115.83 E13.0849
G1 X126.7 Y124.846 E13.3098
G1 X126.69 Y125.568 E13.32782
G1 X126.641 Y126.211 E13.3439
G1 X126.513 Y126.843 E13.35999
G1 X126.307 Y127.454 E13.37607
G1 X126.028 Y128.035 E13.39215
G1 X125.679 Y128.577 E13.40823
G1 X125.197 Y129.142 E13.42676
G1 X124.358 Y129.995 E13.4566
G1 X124.082 Y130.266 E13.46625
G1 X122.243 Y132.183 E13.53252
G1 X120.445 Y134.167 E13.59931
G1 X118.684 Y136.226 E13.66689
G1 X117.141 Y138.138 E13.72818
G1 X116.992 Y138.317 E13.73399
G1 X116.549 Y138.786 E13.75008
G1 X116.052 Y139.196 E13.76616
G1 X115.508 Y139.542 E13.78224
G1 X114.926 Y139.818 E13.79831
G1 X114.313 Y140.02 E13.81441
G1 X113.681 Y140.145 E13.83048
G1 X113.155 Y140.188 E13.84364
G1 X112.67 Y140.2 E13.85574
G1 X111.633 Y140.199 E13.88161
G1 X109.811 Y140.173 E13.92707
G1 X109.36 Y140.16 E13.93832
G1 X106.678 Y140.156 E14.00522
G1 X105.079 Y140.19 E14.04512
G1 X104.665 Y140.2 E14.05545
G1 X103.633 Y140.199 E14.08119
G1 X102.932 Y140.189 E14.09868
G1 X102.289 Y140.14 E14.11477
G1 X101.657 Y140.012 E14.13085
G1 X101.046 Y139.807 E14.14693
G1 X100.465 Y139.527 E14.16302
G1 X99.923 Y139.178 E14.1791
G1 X99.429 Y138.764 E14.19518
G1 X98.963 Y138.26 E14.2123
G1 X98.185 Y137.299 E14.24314
G1 X98.072 Y137.173 E14.24737
G1 X97.314 Y136.233 E14.27749
G1 X95.561 Y134.177 E14.34489
G1 X93.778 Y132.205 E14.4112
G1 X91.906 Y130.247 E14.47878
G1 X90.831 Y129.171 E14.51672
G1 X90.405 Y128.688 E14.53279
G1 X90.041 Y128.155 E14.54889
G1 X89.747 Y127.582 E14.56495
G1 X89.525 Y126.977 E14.58103
G1 X89.38 Y126.348 E14.59713
G1 X89.312 Y125.655 E14.6145
G1 X89.3 Y125.17 E14.6266
G1 X89.3 Y116.104 E14.85275
G1 X89.309 Y115.439 E14.86934
G1 X89.358 Y114.796 E14.88543
G1 X89.486 Y114.164 E14.90151
G1 X89.691 Y113.553 E14.91759
G1 X89.97 Y112.972 E14.93367
G1 X90.319 Y112.429 E14.94977
G1 X90.732 Y111.935 E14.96583
G1 X91.203 Y111.495 E14.98191
G1 F3000 E11.98191
;MESH:BLTMount.stl(1)
G0 F3600 X96.5 Y124.5
;TYPE:WALL-INNER
G1 F3000 E14.98191
G1 F1800 X95.5 Y124.5 E15.00686
G1 X95.5 Y116.5 E15.20642
G1 X96.5 Y116.5 E15.23136
G1 X96.5 Y124.5 E15.43092
G0 F3600 X96.9 Y124.1
G1 F1800 X101.9 Y124.1 E15.55565
G1 X101.9 Y124.9 E15.5756
G1 X95.1 Y124.9 E15.74523
G1 X95.1 Y116.1 E15.96475
G1 X101.9 Y116.1 E16.13437
G1 X101.9 Y116.9 E16.15433
G1 X96.9 Y116.9 E16.27906
G1 X96.9 Y124.1 E16.45866
G0 F3600 X97.3 Y123.7
;TYPE:WALL-OUTER
G1 F1800 X102.3 Y123.7 E16.58339
G1 X102.3 Y125.3 E16.6233
G1 X94.7 Y125.3 E16.81288
G1 X94.7 Y115.7 E17.05235
G1 X102.3 Y115.7 E17.24194
G1 X102.3 Y117.3 E17.28185
G1 X97.3 Y117.3 E17.40657
G1 X97.3 Y123.7 E17.56622
G0 F3600 X97.5 Y123.7
G1 F3000 E14.56622
G0 F3600 X96.11 Y124.11
;TYPE:SKIN
G1 F3000 E17.56622
G1 F1800 X95.89 Y124.11 E17.57171
G1 X95.89 Y116.89 E17.75181
G1 X96.11 Y116.89 E17.7573
G1 X96.11 Y124.11 E17.93741
G0 F3600 X96.832 Y124.55
;TYPE:SKIN
G1 F1800 X97.063 Y124.498 E17.94373
G1 X101.305 Y124.498 E18.05707
G1 X101.686 Y124.313 E18.06838
G1 F3000 E15.06838
G0 F3600 X101.225 Y116.498
G1 F3000 E18.06838
G1 F1800 X101.504 Y116.494 E18.07498
G1 X101.645 Y116.353 E18.0797
G1 X100.659 Y116.498 E18.10328
G1 X96.982 Y116.498 E18.19026
G1 X96.791 Y116.59 E18.19528
G1 F3000 E15.19528
;MESH:BLTMount.stl
G0 F3600 X111 Y124.5
;TYPE:WALL-INNER
G1 F3000 E18.19528
G1 F1800 X110 Y124.5 E18.22022
G1 X110 Y116.5 E18.41978
G1 X111 Y116.5 E18.44473
G1 X111 Y124.5 E18.64429
G1 F3000 E15.64429
G0 F3600 X109.6 Y116.9
G1 F3000 E18.64429
G1 F1800 X104.6 Y116.9 E18.76902
G1 X104.6 Y116.1 E18.78897
G1 X111.4 Y116.1 E18.9586
G1 X111.4 Y124.9 E19.17812
G1 X104.6 Y124.9 E19.34774
G1 X104.6 Y124.1 E19.3677
G1 X109.6 Y124.1 E19.49242
G1 X109.6 Y116.9 E19.67203
G0 F3600 X109.2 Y117.3
;TYPE:WALL-OUTER
G1 F1800 X104.2 Y117.3 E19.79675
G1 X104.2 Y115.7 E19.83667
G1 X111.8 Y115.7 E20.02625
