;FLAVOR:Marlin
;TIME:3902
;Filament used: 2.04344m
;Layer height: 0.2
;MINX:69.294
;MINY:107.427
;MINZ:0.15
;MAXX:150.721
;MAXY:154.327
;MAXZ:15.95
;Generated with Cura_SteamEngine 4.8.0
M140 S60
M105
M190 S60
M104 S200
M105
M109 S200
M82 ;absolute extrusion mode
G92 E0 ;
 G28 ;
 G1 Z5 F5000 ;
 G29 ;
G92 E0
G92 E0
G1 F3000 E-3
;LAYER_COUNT:80
;LAYER:0
M107
G0 F3600 X71.241 Y110.33 Z0.15
;TYPE:SKIRT
G1 F3000 E0
G1 F1200 X71.735 Y110.054 E0.01412
G1 X72.262 Y109.85 E0.02821
G1 X72.813 Y109.723 E0.04232
G1 X73.376 Y109.674 E0.05641
G1 X74.153 Y109.711 E0.07582
G1 X75.565 Y109.811 E0.11113
G1 X76.547 Y109.894 E0.13571
G1 X79.233 Y110.083 E0.20288
G1 X81.968 Y110.196 E0.27116
G1 X84.681 Y110.232 E0.33885
G1 X87.419 Y110.192 E0.40715
G1 X90.093 Y110.075 E0.47392
G1 X92.827 Y109.879 E0.5423
G1 X95.526 Y109.609 E0.60996
G1 X98.206 Y109.264 E0.67736
G1 X100.897 Y108.839 E0.74532
G1 X103.571 Y108.34 E0.81318
G1 X106.307 Y107.748 E0.88301
G1 X106.955 Y107.598 E0.8996
G1 X107.513 Y107.51 E0.91369
G1 X108.037 Y107.469 E0.9268
G1 X108.883 Y107.433 E0.94792
G1 X109.315 Y107.427 E0.9587
G1 X111.051 Y107.432 E1.00201
G1 X111.635 Y107.45 E1.01658
G1 X112.416 Y107.502 E1.03611
G1 X112.977 Y107.58 E1.05023
G1 X113.574 Y107.708 E1.06546
G1 X115.138 Y108.064 E1.10548
G1 X117.841 Y108.6 E1.17422
G1 X120.505 Y109.049 E1.24161
G1 X123.192 Y109.426 E1.30929
G1 X125.887 Y109.726 E1.37693
G1 X128.585 Y109.949 E1.44447
G1 X131.287 Y110.095 E1.51197
G1 X134.029 Y110.166 E1.58039
G1 X136.738 Y110.159 E1.64796
G1 X139.443 Y110.077 E1.71547
G1 X142.175 Y109.915 E1.78374
G1 X143.52 Y109.807 E1.8174
G1 X144.629 Y109.711 E1.84517
G1 X145.632 Y109.64 E1.87025
G1 X146.354 Y109.599 E1.88829
G1 X146.919 Y109.607 E1.90239
G1 X147.478 Y109.695 E1.9165
G1 X148.019 Y109.86 E1.93061
G1 X148.53 Y110.1 E1.94469
G1 X149.003 Y110.41 E1.9588
G1 X149.428 Y110.783 E1.97291
G1 X149.796 Y111.213 E1.98702
G1 X150.099 Y111.69 E2.00112
G1 X150.366 Y112.3 E2.01773
G1 X150.55 Y112.893 E2.03322
G1 X150.669 Y113.446 E2.04733
G1 X150.721 Y114.354 E2.07002
G1 X150.715 Y114.926 E2.08429
G1 X150.692 Y115.283 E2.09321
G1 X150.598 Y116.159 E2.11519
G1 X150.473 Y117.185 E2.14097
G1 X150.223 Y119.877 E2.20841
G1 X150.045 Y122.623 E2.27705
G1 X149.949 Y125.289 E2.3436
G1 X149.926 Y128.036 E2.41213
G1 X149.981 Y130.74 E2.47959
G1 X150.113 Y133.449 E2.54725
G1 X150.321 Y136.155 E2.61495
G1 X150.541 Y138.244 E2.66735
G1 X150.543 Y138.317 E2.66917
G1 X150.692 Y139.636 E2.70228
G1 X150.721 Y140.533 E2.72467
G1 X150.714 Y140.941 E2.73485
G1 X150.663 Y141.504 E2.74895
G1 X150.421 Y142.441 E2.77309
G1 X150.226 Y142.971 E2.78718
G1 X149.958 Y143.469 E2.80129
G1 X149.623 Y143.924 E2.81538
G1 X149.227 Y144.327 E2.82947
G1 X148.777 Y144.671 E2.8436
G1 X148.284 Y144.947 E2.8577
G1 X147.757 Y145.152 E2.8718
G1 X146.964 Y145.31 E2.89197
G1 X145.636 Y145.439 E2.92526
G1 X145.565 Y145.453 E2.92706
G1 X143.563 Y145.66 E2.97727
G1 X140.844 Y146.018 E3.04568
G1 X138.206 Y146.442 E3.11233
G1 X135.509 Y146.955 E3.18081
G1 X132.874 Y147.534 E3.24811
G1 X130.241 Y148.189 E3.31579
G1 X127.601 Y148.928 E3.38418
G1 X125.04 Y149.723 E3.45107
G1 X122.45 Y150.608 E3.51935
G1 X119.908 Y151.557 E3.58703
G1 X117.364 Y152.591 E3.65553
G1 X116.833 Y152.822 E3.66998
G1 X115.533 Y153.358 E3.70506
G1 X114.856 Y153.616 E3.72313
G1 X114.047 Y153.883 E3.74438
G1 X113.302 Y154.1 E3.76374
G1 X112.526 Y154.245 E3.78343
G1 X112.002 Y154.285 E3.79654
G1 X111.156 Y154.321 E3.81766
G1 X110.724 Y154.327 E3.82844
G1 X108.988 Y154.322 E3.87174
G1 X108.382 Y154.303 E3.88687
G1 X107.62 Y154.252 E3.90592
G1 X106.794 Y154.107 E3.92684
G1 X106.251 Y153.951 E3.94093
G1 X106.053 Y153.889 E3.94611
G1 X105.308 Y153.646 E3.96565
G1 X104.603 Y153.384 E3.98442
G1 X103.246 Y152.83 E4.02098
G1 X101.879 Y152.247 E4.05805
G1 X99.334 Y151.248 E4.12625
G1 X96.775 Y150.329 E4.19408
G1 X94.224 Y149.491 E4.26106
G1 X91.633 Y148.72 E4.32849
G1 X88.96 Y148.006 E4.39751
G1 X86.385 Y147.397 E4.46351
G1 X83.663 Y146.832 E4.53286
G1 X80.992 Y146.359 E4.60053
G1 X78.355 Y145.966 E4.66703
G1 X75.624 Y145.639 E4.73564
G1 X73.691 Y145.454 E4.78408
G1 X73.09 Y145.402 E4.79913
G1 X72.532 Y145.314 E4.81322
G1 X71.992 Y145.148 E4.82731
G1 X71.48 Y144.907 E4.84143
G1 X71.008 Y144.597 E4.85552
G1 X70.583 Y144.223 E4.86964
G1 X70.216 Y143.793 E4.88374
G1 X69.913 Y143.316 E4.89784
G1 X69.649 Y142.71 E4.91433
G1 X69.462 Y142.101 E4.93022
G1 X69.344 Y141.548 E4.94432
G1 X69.294 Y140.656 E4.96661
G1 X69.3 Y140.062 E4.98143
G1 X69.324 Y139.722 E4.98993
G1 X69.42 Y138.82 E5.01256
G1 X69.542 Y137.819 E5.03771
G1 X69.792 Y135.132 E5.10503
G1 X69.97 Y132.386 E5.17367
G1 X70.066 Y129.72 E5.24022
G1 X70.089 Y126.973 E5.30875
G1 X70.034 Y124.269 E5.37621
G1 X69.902 Y121.56 E5.44387
G1 X69.694 Y118.854 E5.51157
G1 X69.474 Y116.765 E5.56397
G1 X69.472 Y116.693 E5.56576
G1 X69.324 Y115.384 E5.59862
G1 X69.299 Y114.974 E5.60887
G1 X69.294 Y114.443 E5.62212
G1 X69.301 Y114.053 E5.63185
G1 X69.354 Y113.491 E5.64593
G1 X69.596 Y112.559 E5.66995
G1 X69.791 Y112.029 E5.68404
G1 X70.059 Y111.531 E5.69814
G1 X70.395 Y111.076 E5.71225
G1 X70.792 Y110.673 E5.72636
G1 X71.241 Y110.33 E5.74046
G0 F3600 X71.578 Y110.591
G1 F1200 X72.056 Y110.349 E5.75382
G1 X72.565 Y110.181 E5.76719
G1 X73.094 Y110.09 E5.78058
G1 X73.659 Y110.081 E5.79468
G1 X74.161 Y110.112 E5.80723
G1 X75.531 Y110.21 E5.84149
G1 X76.484 Y110.291 E5.86535
G1 X79.223 Y110.483 E5.93384
G1 X81.947 Y110.596 E6.00185
G1 X84.681 Y110.632 E6.07005
G1 X87.407 Y110.592 E6.13806
G1 X90.141 Y110.473 E6.20633
G1 X92.859 Y110.278 E6.2743
G1 X95.546 Y110.009 E6.34166
G1 X98.288 Y109.656 E6.41063
G1 X100.955 Y109.235 E6.47798
G1 X103.664 Y108.729 E6.54673
G1 X106.361 Y108.145 E6.61556
G1 X107.045 Y107.987 E6.63307
G1 X107.547 Y107.908 E6.64575
G1 X108.063 Y107.869 E6.65866
G1 X108.9 Y107.833 E6.67956
G1 X109.314 Y107.827 E6.68988
G1 X111.043 Y107.832 E6.73301
G1 X111.617 Y107.85 E6.74734
G1 X112.389 Y107.901 E6.76664
G1 X112.894 Y107.972 E6.77936
G1 X113.485 Y108.098 E6.79443
G1 X115.077 Y108.46 E6.83516
G1 X117.734 Y108.987 E6.90273
G1 X120.454 Y109.446 E6.97154
G1 X123.128 Y109.82 E7.03889
G1 X125.842 Y110.123 E7.10702
G1 X128.564 Y110.348 E7.17515
G1 X131.292 Y110.495 E7.2433
G1 X134.02 Y110.566 E7.31137
G1 X136.752 Y110.559 E7.37952
G1 X139.442 Y110.477 E7.44665
G1 X142.237 Y110.312 E7.5165
G1 X143.554 Y110.206 E7.54946
G1 X144.657 Y110.11 E7.57707
G1 X145.655 Y110.04 E7.60203
G1 X146.377 Y109.999 E7.62007
G1 X146.913 Y110.008 E7.63344
G1 X147.442 Y110.097 E7.64682
G1 X147.952 Y110.264 E7.66021
G1 X148.431 Y110.505 E7.67359
G1 X148.869 Y110.814 E7.68696
G1 X149.257 Y111.185 E7.70035
G1 X149.585 Y111.609 E7.71372
G1 X149.846 Y112.077 E7.72709
G1 X150.03 Y112.553 E7.73982
G1 X150.166 Y113.005 E7.75159
G1 X150.277 Y113.53 E7.76498
G1 X150.321 Y114.364 E7.78581
G1 X150.316 Y114.907 E7.79936
G1 X150.294 Y115.24 E7.80768
G1 X150.201 Y116.11 E7.82951
G1 X150.077 Y117.132 E7.85519
G1 X149.821 Y119.886 E7.92418
G1 X149.648 Y122.548 E7.99073
G1 X149.549 Y125.308 E8.05962
G1 X149.526 Y128.041 E8.1278
G1 X149.581 Y130.732 E8.19494
G1 X149.716 Y133.501 E8.26409
G1 X149.923 Y136.191 E8.33139
G1 X150.143 Y138.286 E8.38394
G1 X150.145 Y138.359 E8.38576
G1 X150.294 Y139.681 E8.41895
G1 X150.321 Y140.536 E8.44029
G1 X150.314 Y140.933 E8.45019
G1 X150.263 Y141.467 E8.46357
G1 X150.037 Y142.33 E8.48583
G1 X149.85 Y142.832 E8.49919
G1 X149.591 Y143.302 E8.51258
G1 X149.264 Y143.727 E8.52595
G1 X148.878 Y144.099 E8.53933
G1 X148.441 Y144.41 E8.55271
G1 X147.963 Y144.652 E8.56607
G1 X147.454 Y144.821 E8.57945
G1 X146.926 Y144.912 E8.59282
G1 X145.633 Y145.037 E8.62522
G1 X145.524 Y145.055 E8.62798
G1 X143.506 Y145.263 E8.67858
G1 X140.794 Y145.621 E8.74682
G1 X138.139 Y146.048 E8.8139
G1 X135.42 Y146.565 E8.88294
G1 X132.772 Y147.147 E8.95057
G1 X130.166 Y147.795 E9.01756
G1 X127.49 Y148.544 E9.08688
G1 X124.918 Y149.342 E9.15405
G1 X122.297 Y150.238 E9.22315
G1 X119.754 Y151.188 E9.29087
G1 X117.23 Y152.213 E9.35882
G1 X116.68 Y152.452 E9.37378
G1 X115.282 Y153.027 E9.41149
G1 X114.714 Y153.242 E9.42664
G1 X113.927 Y153.501 E9.44731
G1 X113.19 Y153.716 E9.46646
G1 X112.492 Y153.846 E9.48417
G1 X111.976 Y153.885 E9.49708
G1 X111.139 Y153.921 E9.51797
G1 X110.725 Y153.927 E9.5283
G1 X108.996 Y153.922 E9.57143
G1 X108.4 Y153.903 E9.58631
G1 X107.647 Y153.853 E9.60513
G1 X106.904 Y153.723 E9.62395
G1 X106.37 Y153.569 E9.63781
G1 X106.176 Y153.509 E9.64288
G1 X105.442 Y153.269 E9.66214
G1 X104.748 Y153.011 E9.68061
G1 X103.452 Y152.483 E9.71552
G1 X102.034 Y151.879 E9.75397
G1 X99.461 Y150.868 E9.82293
G1 X96.93 Y149.959 E9.89001
G1 X94.348 Y149.111 E9.95781
G1 X91.712 Y148.327 E10.02641
G1 X89.083 Y147.625 E10.09429
G1 X86.452 Y147.002 E10.16173
G1 X83.743 Y146.44 E10.23075
G1 X81.085 Y145.969 E10.29808
G1 X78.361 Y145.563 E10.36678
G1 X75.707 Y145.245 E10.43346
G1 X73.736 Y145.057 E10.48285
G1 X73.125 Y145.004 E10.49815
G1 X72.595 Y144.918 E10.51154
G1 X72.085 Y144.755 E10.5249
G1 X71.604 Y144.517 E10.53829
G1 X71.164 Y144.211 E10.55166
G1 X70.774 Y143.843 E10.56503
G1 X70.443 Y143.42 E10.57843
G1 X70.179 Y142.954 E10.59179
G1 X69.986 Y142.461 E10.605
G1 X69.846 Y141.99 E10.61726
G1 X69.736 Y141.465 E10.63064
G1 X69.694 Y140.645 E10.65112
G1 X69.7 Y140.082 E10.66516
G1 X69.721 Y139.765 E10.67309
G1 X69.818 Y138.868 E10.69559
G1 X69.936 Y137.902 E10.71987
G1 X70.194 Y135.123 E10.78949
G1 X70.367 Y132.461 E10.85603
G1 X70.466 Y129.701 E10.92493
G1 X70.489 Y126.96 E10.9933
G1 X70.434 Y124.277 E11.06025
G1 X70.299 Y121.508 E11.1294
G1 X70.092 Y118.818 E11.1967
G1 X69.872 Y116.723 E11.24925
G1 X69.87 Y116.65 E11.25107
G1 X69.722 Y115.339 E11.28398
G1 X69.699 Y114.97 E11.2932
G1 X69.694 Y114.439 E11.30645
G1 X69.701 Y114.063 E11.31583
G1 X69.753 Y113.529 E11.32921
G1 X69.98 Y112.671 E11.35135
G1 X70.167 Y112.168 E11.36474
G1 X70.427 Y111.699 E11.37812
G1 X70.754 Y111.274 E11.39149
G1 X71.14 Y110.902 E11.40487
G1 X71.578 Y110.591 E11.41827
G0 F3600 X71.486 Y111.138
G1 F1200 X71.91 Y110.862 E11.43089
G1 X72.372 Y110.657 E11.44349
G1 X72.86 Y110.526 E11.4561
G1 X73.363 Y110.475 E11.46871
G1 X74.103 Y110.509 E11.48719
G1 X75.498 Y110.608 E11.52208
G1 X76.48 Y110.691 E11.54666
G1 X79.214 Y110.883 E11.61503
G1 X81.924 Y110.995 E11.68269
G1 X84.681 Y111.032 E11.75147
G1 X87.431 Y110.991 E11.82007
G1 X90.149 Y110.873 E11.88794
G1 X92.894 Y110.677 E11.95659
G1 X95.605 Y110.405 E12.02455
G1 X98.325 Y110.055 E12.09296
G1 X101.025 Y109.629 E12.16115
G1 X103.717 Y109.126 E12.22946
G1 X106.494 Y108.525 E12.30034
G1 X107.135 Y108.377 E12.31675
G1 X107.837 Y108.285 E12.33441
G1 X108.164 Y108.264 E12.34258
G1 X109.011 Y108.23 E12.36373
G1 X109.313 Y108.227 E12.37126
G1 X111.036 Y108.232 E12.41424
G1 X111.599 Y108.249 E12.42829
G1 X112.362 Y108.3 E12.44737
G1 X112.81 Y108.363 E12.45865
G1 X113.396 Y108.488 E12.4736
G1 X114.982 Y108.849 E12.51418
G1 X117.689 Y109.385 E12.58301
G1 X120.37 Y109.838 E12.65084
G1 X123.1 Y110.22 E12.7196
G1 X125.802 Y110.521 E12.78742
G1 X128.545 Y110.748 E12.85608
G1 X131.259 Y110.895 E12.92388
G1 X134.011 Y110.966 E12.99255
G1 X136.729 Y110.959 E13.06035
G1 X139.514 Y110.874 E13.12986
G1 X142.196 Y110.716 E13.19688
G1 X143.612 Y110.602 E13.23231
G1 X144.633 Y110.513 E13.25788
G1 X145.678 Y110.439 E13.28401
G1 X146.4 Y110.398 E13.30205
G1 X146.905 Y110.409 E13.31465
G1 X147.402 Y110.5 E13.32725
G1 X147.879 Y110.668 E13.33987
G1 X148.324 Y110.909 E13.35249
G1 X148.725 Y111.217 E13.36511
G1 X149.072 Y111.584 E13.37771
G1 X149.357 Y112.002 E13.39033
G1 X149.609 Y112.559 E13.40558
G1 X149.782 Y113.117 E13.42015
G1 X149.885 Y113.612 E13.43276
G1 X149.921 Y114.375 E13.45182
G1 X149.916 Y114.887 E13.46459
G1 X149.896 Y115.198 E13.47236
G1 X149.804 Y116.062 E13.49404
G1 X149.676 Y117.118 E13.52057
G1 X149.424 Y119.823 E13.58834
G1 X149.248 Y122.543 E13.65633
G1 X149.149 Y125.289 E13.72488
G1 X149.126 Y128.045 E13.79363
G1 X149.181 Y130.761 E13.86139
G1 X149.314 Y133.477 E13.92922
G1 X149.528 Y136.266 E13.999
G1 X149.745 Y138.328 E14.05072
G1 X149.747 Y138.39 E14.05227
G1 X149.897 Y139.726 E14.0858
G1 X149.921 Y140.539 E14.10609
G1 X149.914 Y140.925 E14.11572
G1 X149.864 Y141.428 E14.12833
G1 X149.653 Y142.218 E14.14873
G1 X149.474 Y142.691 E14.16135
G1 X149.224 Y143.131 E14.17397
G1 X148.907 Y143.525 E14.18658
G1 X148.532 Y143.864 E14.19919
G1 X148.109 Y144.14 E14.21179
G1 X147.647 Y144.346 E14.22441
G1 X147.158 Y144.476 E14.23703
G1 X146.887 Y144.514 E14.24386
G1 X145.551 Y144.643 E14.27734
G1 X145.482 Y144.657 E14.2791
G1 X143.453 Y144.866 E14.32998
G1 X140.75 Y145.223 E14.39799
G1 X138.073 Y145.653 E14.46563
G1 X135.332 Y146.174 E14.53522
G1 X132.687 Y146.755 E14.60278
G1 X130.067 Y147.408 E14.67013
G1 X127.368 Y148.163 E14.74004
G1 X124.786 Y148.964 E14.80748
G1 X122.196 Y149.849 E14.87576
G1 X119.599 Y150.819 E14.94491
G1 X117.082 Y151.842 E15.01268
G1 X116.528 Y152.082 E15.02775
G1 X115.141 Y152.653 E15.06516
G1 X114.573 Y152.868 E15.08031
G1 X113.807 Y153.12 E15.10043
G1 X113.079 Y153.332 E15.11934
G1 X112.458 Y153.447 E15.1351
G1 X111.95 Y153.486 E15.1478
G1 X111.123 Y153.521 E15.16845
G1 X110.726 Y153.527 E15.17836
G1 X109.003 Y153.522 E15.22134
G1 X108.419 Y153.504 E15.23591
G1 X107.674 Y153.454 E15.25454
G1 X107.014 Y153.338 E15.27125
G1 X106.489 Y153.187 E15.28488
G1 X106.3 Y153.128 E15.28982
G1 X105.576 Y152.892 E15.30882
G1 X104.892 Y152.638 E15.32702
G1 X103.56 Y152.094 E15.36291
G1 X102.17 Y151.502 E15.4006
G1 X99.635 Y150.506 E15.46854
G1 X97.042 Y149.575 E15.53726
G1 X94.449 Y148.723 E15.60535
G1 X91.857 Y147.952 E15.67281
G1 X89.173 Y147.235 E15.74211
G1 X86.512 Y146.606 E15.81031
G1 X83.829 Y146.049 E15.87867
G1 X81.147 Y145.573 E15.94662
G1 X78.426 Y145.168 E16.01524
G1 X75.711 Y144.843 E16.08345
G1 X73.797 Y144.66 E16.13141
G1 X73.159 Y144.605 E16.14739
G1 X72.66 Y144.522 E16.16
G1 X72.181 Y144.362 E16.1726
G1 X71.733 Y144.127 E16.18522
G1 X71.327 Y143.826 E16.19783
G1 X70.974 Y143.464 E16.21044
G1 X70.683 Y143.051 E16.22305
G1 X70.406 Y142.452 E16.23951
G1 X70.23 Y141.879 E16.25446
G1 X70.129 Y141.384 E16.26706
G1 X70.094 Y140.634 E16.28579
G1 X70.099 Y140.102 E16.29906
G1 X70.119 Y139.807 E16.30644
G1 X70.215 Y138.916 E16.32879
G1 X70.337 Y137.917 E16.3539
G1 X70.591 Y135.186 E16.42232
G1 X70.767 Y132.466 E16.49031
G1 X70.866 Y129.72 E16.55885
G1 X70.889 Y126.96 E16.62771
G1 X70.834 Y124.248 E16.69537
G1 X70.701 Y121.532 E16.7632
G1 X70.486 Y118.734 E16.8332
G1 X70.27 Y116.681 E16.8847
G1 X70.268 Y116.62 E16.88622
G1 X70.119 Y115.295 E16.91948
G1 X70.099 Y114.966 E16.9277
G1 X70.094 Y114.435 E16.94095
G1 X70.101 Y114.072 E16.95001
G1 X70.152 Y113.569 E16.96262
G1 X70.364 Y112.782 E16.98295
G1 X70.543 Y112.309 E16.99557
G1 X70.794 Y111.87 E17.00818
G1 X71.111 Y111.477 E17.02078
G1 X71.486 Y111.138 E17.03339
G1 F3000 E14.03339
;MESH:noseclipV.2.Reinforcedupsidedown.stl(5)
G0 F3600 X74.53 Y114.75
;TYPE:WALL-INNER
G1 F3000 E17.03339
G1 F1200 X75.173 Y114.796 E17.04947
G1 X75.285 Y115.186 E17.05959
G1 X75.384 Y115.532 E17.06857
G1 X75.038 Y115.433 E17.07361
G1 X74.426 Y115.257 E17.0895
G1 X74.357 Y115.03 E17.09541
G1 X74.287 Y114.798 E17.10146
G1 X74.288 Y114.734 E17.10306
G1 X74.53 Y114.75 E17.10702
G1 F3000 E14.10702
G0 F3600 X74.558 Y140.346
G1 F3000 E17.10702
G1 F1200 X74.557 Y140.347 E17.10705
G1 X74.288 Y140.364 E17.11378
G1 X74.348 Y140.101 E17.1178
G1 X74.349 Y140.1 E17.11784
G1 X74.4 Y139.886 E17.12333
G1 X74.428 Y139.839 E17.12469
G1 X75.036 Y139.665 E17.14047
G1 X75.382 Y139.566 E17.14944
G1 X75.283 Y139.912 E17.15449
G1 X75.171 Y140.302 E17.16461
G1 X74.558 Y140.346 E17.17994
G0 F3600 X73.89 Y140.581
G1 F1200 X73.889 Y140.58 E17.17998
G1 X73.887 Y140.245 E17.18833
G1 X74.028 Y139.728 E17.2017
G1 X74.169 Y139.497 E17.20845
G1 X75.619 Y139.082 E17.24607
G1 X75.965 Y138.983 E17.25505
G1 X75.866 Y139.329 E17.2601
G1 X75.479 Y140.681 E17.29518
G1 X74.102 Y140.779 E17.32961
G1 X73.89 Y140.793 E17.33491
G1 X73.89 Y140.581 E17.33827
G1 F3000 E14.33827
G0 F3600 X73.89 Y114.517
G1 F3000 E17.33827
G1 F1200 X73.89 Y114.305 E17.34356
G1 X74.102 Y114.319 E17.34693
G1 X75.48 Y114.417 E17.38139
G1 X75.868 Y115.769 E17.41648
