;FLAVOR:Marlin
;TIME:3290
;Filament used: 1.76785m
;Layer height: 0.2
;MINX:79.805
;MINY:86.191
;MINZ:0.15
;MAXX:135.249
;MAXY:157.099
;MAXZ:18.35
;Generated with Cura_SteamEngine 4.8.0
M140 S60
M105
M190 S60
M104 S200
M105
M109 S200
M82 ;absolute extrusion mode
G92 E0 ;
G28 ;
G1 Z5 F5000 ;
G29 ;
G92 E0
G92 E0
G1 F3000 E-3
;LAYER_COUNT:92
;LAYER:0
M107
G0 F3600 X83.67 Y111.541 Z0.15
;TYPE:SKIRT
G1 F3000 E0
G1 F1200 X84.322 Y111.076 E0.01998
G1 X84.62 Y110.879 E0.02889
G1 X86.061 Y109.973 E0.07135
G1 X88.289 Y108.484 E0.1382
G1 X90.518 Y106.901 E0.20639
G1 X92.69 Y105.265 E0.27422
G1 X94.792 Y103.584 E0.34136
G1 X96.978 Y101.732 E0.41283
G1 X97.751 Y101.058 E0.43842
G1 X98.297 Y100.658 E0.4553
G1 X98.915 Y100.348 E0.47255
G1 X99.637 Y100.061 E0.49193
G1 X102.161 Y99.017 E0.56006
G1 X104.616 Y97.919 E0.62715
G1 X107.074 Y96.735 E0.69521
G1 X109.486 Y95.489 E0.76293
G1 X111.838 Y94.188 E0.82998
G1 X114.204 Y92.789 E0.89854
G1 X114.427 Y92.648 E0.90512
G1 X116.789 Y91.21 E0.9741
G1 X116.906 Y91.142 E0.97748
G1 X117.522 Y90.795 E0.99512
G1 X117.723 Y90.689 E1.00078
G1 X118.52 Y90.298 E1.02293
G1 X121.017 Y89.028 E1.09281
G1 X123.359 Y87.754 E1.15932
G1 X123.797 Y87.499 E1.17196
G1 X124.923 Y86.863 E1.20422
G1 X125.433 Y86.621 E1.2183
G1 X125.973 Y86.452 E1.23242
G1 X126.545 Y86.361 E1.24686
G1 X127.577 Y86.272 E1.2727
G1 X128.759 Y86.191 E1.30226
G1 X129.324 Y86.193 E1.31635
G1 X129.883 Y86.274 E1.33044
G1 X130.426 Y86.433 E1.34455
G1 X130.941 Y86.667 E1.35867
G1 X131.417 Y86.971 E1.37275
G1 X131.846 Y87.339 E1.38685
G1 X132.219 Y87.764 E1.40096
G1 X132.528 Y88.238 E1.41507
G1 X132.841 Y88.961 E1.43473
G1 X132.989 Y89.442 E1.44728
G1 X133.11 Y89.995 E1.4614
G1 X133.16 Y90.82 E1.48202
G1 X133.154 Y91.386 E1.49614
G1 X133.139 Y91.623 E1.50206
G1 X133.081 Y92.294 E1.51886
G1 X132.93 Y93.814 E1.55697
G1 X132.736 Y96.549 E1.62536
G1 X132.622 Y99.223 E1.69213
G1 X132.582 Y101.964 E1.76051
G1 X132.62 Y104.709 E1.82899
G1 X132.732 Y107.378 E1.89563
G1 X132.923 Y110.082 E1.96325
G1 X133.196 Y112.84 E2.03238
G1 X133.348 Y114.357 E2.07041
G1 X133.695 Y117.074 E2.13874
G1 X134.118 Y119.771 E2.20684
G1 X134.615 Y122.447 E2.27473
G1 X135.16 Y124.997 E2.33978
G1 X135.237 Y125.673 E2.35675
G1 X135.249 Y126.213 E2.37022
G1 X135.238 Y126.784 E2.38447
G1 X135.219 Y127.037 E2.3908
G1 X135.122 Y127.951 E2.41373
G1 X135 Y128.952 E2.43888
G1 X134.75 Y131.639 E2.5062
G1 X134.573 Y134.369 E2.57444
G1 X134.476 Y137.051 E2.64139
G1 X134.453 Y139.798 E2.70991
G1 X134.508 Y142.502 E2.77738
G1 X134.64 Y145.211 E2.84504
G1 X134.848 Y147.917 E2.91274
G1 X135.068 Y150.006 E2.96514
G1 X135.07 Y150.077 E2.96691
G1 X135.218 Y151.385 E2.99974
G1 X135.248 Y152.29 E3.02233
G1 X135.241 Y152.701 E3.03259
G1 X135.189 Y153.264 E3.04669
G1 X135.085 Y153.726 E3.0585
G1 X134.946 Y154.208 E3.07102
G1 X134.752 Y154.739 E3.08512
G1 X134.484 Y155.237 E3.09923
G1 X134.149 Y155.692 E3.11332
G1 X133.753 Y156.096 E3.12743
G1 X133.304 Y156.44 E3.14154
G1 X132.812 Y156.717 E3.15563
G1 X132.285 Y156.921 E3.16972
G1 X131.734 Y157.05 E3.18384
G1 X131.171 Y157.099 E3.19794
G1 X130.38 Y157.062 E3.21769
G1 X128.96 Y156.958 E3.25321
G1 X128.269 Y156.9 E3.2705
G1 X127.711 Y156.813 E3.28459
G1 X127.17 Y156.648 E3.2987
G1 X126.61 Y156.382 E3.31417
G1 X124.286 Y155.046 E3.38103
G1 X121.901 Y153.761 E3.44861
G1 X118.653 Y152.146 E3.5391
G1 X118.106 Y151.878 E3.55429
G1 X116.993 Y151.26 E3.58605
G1 X116.707 Y151.093 E3.59431
G1 X116.077 Y150.713 E3.61266
G1 X115.811 Y150.538 E3.62061
G1 X114.93 Y149.904 E3.64768
G1 X114.002 Y149.199 E3.67675
G1 X113.542 Y148.839 E3.69133
G1 X111.409 Y147.264 E3.75747
G1 X109.138 Y145.686 E3.82645
G1 X106.885 Y144.212 E3.89361
G1 X104.574 Y142.793 E3.96126
G1 X102.223 Y141.438 E4.02895
G1 X99.823 Y140.146 E4.09694
G1 X99.523 Y139.993 E4.10534
G1 X98.533 Y139.475 E4.13321
G1 X98.051 Y139.178 E4.14734
G1 X97.787 Y138.971 E4.1557
G1 X96.964 Y138.267 E4.18272
G1 X96.349 Y137.725 E4.20317
G1 X94.297 Y136.022 E4.26969
G1 X92.156 Y134.343 E4.33756
G1 X89.962 Y132.72 E4.40564
G1 X87.731 Y131.165 E4.47347
G1 X85.462 Y129.679 E4.54113
G1 X85.324 Y129.593 E4.54519
G1 X84.412 Y129.008 E4.57222
G1 X84.236 Y128.888 E4.57753
G1 X83.694 Y128.498 E4.59419
G1 X83.272 Y128.148 E4.60786
G1 X82.717 Y127.59 E4.6275
G1 X82.194 Y126.976 E4.64761
G1 X81.848 Y126.528 E4.66173
G1 X81.712 Y126.339 E4.66754
G1 X81.244 Y125.647 E4.68838
G1 X81.097 Y125.415 E4.69523
G1 X80.777 Y124.796 E4.71262
G1 X80.549 Y124.242 E4.72756
G1 X80.33 Y123.658 E4.74312
G1 X80.186 Y123.221 E4.7546
G1 X80.016 Y122.641 E4.76967
G1 X79.87 Y121.861 E4.78947
G1 X79.835 Y121.416 E4.8006
G1 X79.812 Y120.863 E4.81441
G1 X79.805 Y120.321 E4.82793
G1 X79.808 Y119.351 E4.85213
G1 X79.825 Y118.792 E4.86608
G1 X79.863 Y118.234 E4.88003
G1 X80 Y117.433 E4.9003
G1 X80.134 Y116.97 E4.91232
G1 X80.375 Y116.238 E4.93155
G1 X80.522 Y115.838 E4.94218
G1 X80.744 Y115.294 E4.95684
G1 X81.058 Y114.681 E4.97402
G1 X81.382 Y114.164 E4.98924
G1 X81.718 Y113.674 E5.00406
G1 X82.241 Y112.991 E5.02552
G1 X82.707 Y112.44 E5.04352
G1 X83.247 Y111.899 E5.06259
G1 X83.67 Y111.541 E5.07641
G0 F3600 X83.906 Y111.863
G1 F1200 X84.551 Y111.405 E5.09614
G1 X84.833 Y111.218 E5.10458
G1 X86.274 Y110.312 E5.14704
G1 X88.513 Y108.816 E5.21421
G1 X90.768 Y107.214 E5.28322
G1 X92.914 Y105.598 E5.35023
G1 X95.056 Y103.885 E5.41865
G1 X97.257 Y102.02 E5.49061
G1 X98.014 Y101.36 E5.51566
G1 X98.506 Y100.999 E5.53089
G1 X99.063 Y100.72 E5.54643
G1 X99.739 Y100.451 E5.56457
G1 X102.322 Y99.383 E5.6343
G1 X104.788 Y98.28 E5.70169
G1 X107.253 Y97.093 E5.76993
G1 X109.684 Y95.836 E5.8382
G1 X112.055 Y94.525 E5.90579
G1 X114.391 Y93.144 E5.97348
G1 X114.635 Y92.99 E5.98068
G1 X116.997 Y91.552 E6.04966
G1 X117.102 Y91.49 E6.0527
G1 X117.718 Y91.143 E6.07034
G1 X117.899 Y91.048 E6.07543
G1 X118.747 Y90.632 E6.099
G1 X121.169 Y89.401 E6.16677
G1 X123.586 Y88.086 E6.23541
G1 X123.994 Y87.847 E6.2472
G1 X125.12 Y87.211 E6.27946
G1 X125.605 Y86.983 E6.29283
G1 X126.119 Y86.83 E6.30621
G1 X126.58 Y86.759 E6.31784
G1 X127.604 Y86.671 E6.34348
G1 X128.786 Y86.59 E6.37304
G1 X129.322 Y86.594 E6.38641
G1 X129.852 Y86.677 E6.39979
G1 X130.364 Y86.837 E6.41317
G1 X130.846 Y87.072 E6.42655
G1 X131.288 Y87.376 E6.43993
G1 X131.679 Y87.742 E6.45329
G1 X132.012 Y88.163 E6.46668
G1 X132.279 Y88.628 E6.48005
G1 X132.519 Y89.267 E6.49708
G1 X132.605 Y89.555 E6.50458
G1 X132.718 Y90.08 E6.51797
G1 X132.76 Y90.83 E6.53671
G1 X132.755 Y91.364 E6.55003
G1 X132.741 Y91.589 E6.55566
G1 X132.683 Y92.254 E6.57231
G1 X132.531 Y93.779 E6.61054
G1 X132.338 Y96.504 E6.67868
G1 X132.221 Y99.235 E6.74687
G1 X132.182 Y101.964 E6.81495
G1 X132.219 Y104.697 E6.88313
G1 X132.334 Y107.425 E6.95125
G1 X132.525 Y110.132 E7.01894
G1 X132.792 Y112.832 E7.08662
G1 X132.816 Y113.047 E7.09202
G1 X132.951 Y114.41 E7.12618
G1 X133.298 Y117.119 E7.19431
G1 X133.723 Y119.827 E7.26269
G1 X134.224 Y122.529 E7.33124
G1 X134.768 Y125.075 E7.39618
G1 X134.837 Y125.683 E7.41145
G1 X134.849 Y126.21 E7.4246
G1 X134.839 Y126.767 E7.43849
G1 X134.822 Y126.994 E7.44417
G1 X134.724 Y127.903 E7.46698
G1 X134.606 Y128.869 E7.49125
G1 X134.348 Y131.648 E7.56088
G1 X134.175 Y134.31 E7.62742
G1 X134.076 Y137.07 E7.69631
G1 X134.053 Y139.803 E7.76449
G1 X134.108 Y142.494 E7.83163
G1 X134.243 Y145.263 E7.90079
G1 X134.45 Y147.953 E7.96809
G1 X134.67 Y150.048 E8.02063
G1 X134.672 Y150.12 E8.02243
G1 X134.82 Y151.43 E8.05532
G1 X134.848 Y152.294 E8.07688
G1 X134.841 Y152.693 E8.08683
G1 X134.79 Y153.227 E8.10022
G1 X134.701 Y153.616 E8.11017
G1 X134.562 Y154.098 E8.12268
G1 X134.375 Y154.6 E8.13605
G1 X134.116 Y155.07 E8.14943
G1 X133.79 Y155.496 E8.16281
G1 X133.405 Y155.868 E8.17617
G1 X132.968 Y156.179 E8.18955
G1 X132.49 Y156.422 E8.20293
G1 X131.981 Y156.591 E8.2163
G1 X131.452 Y156.683 E8.2297
G1 X130.872 Y156.693 E8.24417
G1 X130.374 Y156.66 E8.25662
G1 X128.994 Y156.559 E8.29113
G1 X128.303 Y156.501 E8.30843
G1 X127.773 Y156.417 E8.32182
G1 X127.262 Y156.255 E8.33519
G1 X126.809 Y156.035 E8.34775
G1 X124.481 Y154.696 E8.41475
G1 X122.066 Y153.396 E8.48316
G1 X118.872 Y151.807 E8.57215
G1 X118.3 Y151.528 E8.58803
G1 X117.194 Y150.914 E8.61958
G1 X116.914 Y150.751 E8.62766
G1 X116.284 Y150.371 E8.64602
G1 X116.044 Y150.213 E8.65319
G1 X115.172 Y149.586 E8.67998
G1 X114.249 Y148.884 E8.7089
G1 X113.797 Y148.53 E8.72323
G1 X111.613 Y146.918 E8.79094
G1 X109.404 Y145.383 E8.85804
G1 X107.067 Y143.854 E8.9277
G1 X104.793 Y142.457 E8.99428
G1 X102.418 Y141.088 E9.06266
G1 X100.014 Y139.794 E9.13076
G1 X99.708 Y139.639 E9.13932
G1 X98.718 Y139.121 E9.16719
G1 X98.263 Y138.837 E9.18057
G1 X98.047 Y138.667 E9.18743
G1 X97.229 Y137.966 E9.2143
G1 X96.66 Y137.465 E9.23321
G1 X94.537 Y135.702 E9.30205
G1 X92.373 Y134.005 E9.37065
G1 X90.207 Y132.402 E9.43787
G1 X87.949 Y130.83 E9.5065
G1 X85.684 Y129.345 E9.57406
G1 X85.54 Y129.256 E9.57829
G1 X84.628 Y128.671 E9.60531
G1 X84.469 Y128.563 E9.61011
G1 X83.927 Y128.173 E9.62677
G1 X83.382 Y127.701 E9.64475
G1 X83.005 Y127.314 E9.65823
G1 X82.504 Y126.723 E9.67756
G1 X82.165 Y126.284 E9.69139
G1 X82.043 Y126.115 E9.69659
G1 X81.645 Y125.529 E9.71426
G1 X81.435 Y125.201 E9.72398
G1 X81.147 Y124.644 E9.73962
G1 X80.878 Y123.987 E9.75733
G1 X80.612 Y123.242 E9.77706
G1 X80.57 Y123.109 E9.78054
G1 X80.4 Y122.529 E9.79562
G1 X80.268 Y121.826 E9.81346
G1 X80.235 Y121.4 E9.82412
G1 X80.209 Y120.736 E9.84069
G1 X80.205 Y120.322 E9.85102
G1 X80.208 Y119.36 E9.87502
G1 X80.224 Y118.819 E9.88852
G1 X80.262 Y118.261 E9.90247
G1 X80.386 Y117.541 E9.9207
G1 X80.514 Y117.094 E9.9323
G1 X80.752 Y116.372 E9.95126
G1 X80.892 Y115.989 E9.96143
G1 X81.114 Y115.445 E9.97609
G1 X81.397 Y114.893 E9.99156
G1 X81.785 Y114.276 E10.00974
G1 X82.035 Y113.917 E10.02066
G1 X82.477 Y113.338 E10.03883
G1 X82.81 Y112.927 E10.05202
G1 X83.172 Y112.533 E10.06537
G1 X83.906 Y111.863 E10.09016
G0 F3600 X84.143 Y112.186
G1 F1200 X84.779 Y111.733 E10.10964
G1 X85.046 Y111.557 E10.11761
G1 X86.463 Y110.667 E10.15936
G1 X88.762 Y109.13 E10.22834
G1 X90.995 Y107.544 E10.29666
G1 X93.181 Y105.897 E10.36494
G1 X95.301 Y104.202 E10.43265
G1 X97.489 Y102.348 E10.50419
G1 X98.277 Y101.661 E10.53026
G1 X98.716 Y101.34 E10.54383
G1 X99.211 Y101.091 E10.55765
G1 X99.933 Y100.804 E10.57703
G1 X102.459 Y99.759 E10.64522
G1 X104.975 Y98.634 E10.71397
G1 X107.417 Y97.458 E10.78159
G1 X109.883 Y96.184 E10.85082
G1 X112.247 Y94.876 E10.91822
G1 X114.594 Y93.488 E10.98624
G1 X114.843 Y93.332 E10.99357
G1 X117.298 Y91.839 E11.06524
G1 X117.914 Y91.492 E11.08288
G1 X118.076 Y91.407 E11.08744
G1 X118.883 Y91.011 E11.10987
G1 X121.362 Y89.751 E11.17924
G1 X123.772 Y88.439 E11.24768
G1 X124.19 Y88.196 E11.25975
G1 X125.316 Y87.56 E11.292
G1 X125.775 Y87.347 E11.30463
G1 X126.261 Y87.208 E11.31724
G1 X126.614 Y87.158 E11.32613
G1 X127.631 Y87.07 E11.35159
G1 X128.813 Y86.989 E11.38115
G1 X129.319 Y86.995 E11.39377
G1 X129.817 Y87.08 E11.40637
G1 X130.296 Y87.242 E11.41899
G1 X130.743 Y87.478 E11.4316
G1 X131.148 Y87.781 E11.44421
G1 X131.499 Y88.144 E11.45681
G1 X131.79 Y88.558 E11.46943
G1 X132.079 Y89.205 E11.48711
G1 X132.221 Y89.668 E11.49919
G1 X132.326 Y90.163 E11.51181
G1 X132.36 Y90.841 E11.52875
G1 X132.355 Y91.343 E11.54127
G1 X132.342 Y91.555 E11.54657
G1 X132.285 Y92.214 E11.56307
G1 X132.133 Y93.747 E11.6015
G1 X131.938 Y96.493 E11.67017
G1 X131.822 Y99.213 E11.73808
G1 X131.782 Y101.964 E11.80671
G1 X131.82 Y104.718 E11.87542
G1 X131.934 Y107.436 E11.94328
G1 X132.128 Y110.181 E12.01192
G1 X132.395 Y112.876 E12.07948
G1 X132.418 Y113.087 E12.08477
G1 X132.555 Y114.464 E12.11929
G1 X132.904 Y117.195 E12.18797
G1 X133.327 Y119.891 E12.25605
G1 X133.826 Y122.582 E12.32432
G1 X134.376 Y125.153 E12.3899
G1 X134.437 Y125.694 E12.40348
G1 X134.449 Y126.208 E12.41631
G1 X134.439 Y126.75 E12.42983
G1 X134.424 Y126.952 E12.43488
G1 X134.327 Y127.855 E12.45754
G1 X134.205 Y128.854 E12.48264
G1 X133.951 Y131.585 E12.55106
G1 X133.775 Y134.305 E12.61906
G1 X133.676 Y137.051 E12.6876
G1 X133.653 Y139.807 E12.75635
G1 X133.708 Y142.523 E12.82412
G1 X133.841 Y145.239 E12.89195
G1 X134.055 Y148.028 E12.96172
G1 X134.272 Y150.09 E13.01344
G1 X134.274 Y150.151 E13.01497
G1 X134.423 Y151.475 E13.0482
G1 X134.448 Y152.298 E13.06874
G1 X134.441 Y152.685 E13.0784
G1 X134.391 Y153.188 E13.09101
G1 X134.317 Y153.505 E13.09913
G1 X134.178 Y153.987 E13.11164
G1 X134 Y154.46 E13.12425
G1 X133.749 Y154.899 E13.13686
G1 X133.433 Y155.293 E13.14946
G1 X133.058 Y155.633 E13.16209
G1 X132.635 Y155.909 E13.17469
G1 X132.173 Y156.116 E13.18732
G1 X131.685 Y156.247 E13.19992
G1 X131.182 Y156.299 E13.21253
G1 X130.431 Y156.263 E13.23129
G1 X129.027 Y156.161 E13.2664
G1 X128.336 Y156.103 E13.2837
G1 X127.837 Y156.021 E13.29632
G1 X127.358 Y155.861 E13.30891
G1 X127.009 Y155.688 E13.31863
G1 X124.664 Y154.34 E13.3861
G1 X122.28 Y153.055 E13.45366
G1 X119.043 Y151.446 E13.54383
G1 X118.494 Y151.178 E13.55907
G1 X117.395 Y150.568 E13.59043
G1 X117.12 Y150.408 E13.59836
G1 X116.49 Y150.028 E13.61672
G1 X116.277 Y149.888 E13.62308
G1 X115.414 Y149.267 E13.6496
G1 X114.495 Y148.569 E13.67838
G1 X114.041 Y148.214 E13.69276
G1 X111.849 Y146.596 E13.76072
G1 X109.605 Y145.036 E13.8289
G1 X107.315 Y143.538 E13.89716
G1 X104.981 Y142.104 E13.96549
G1 X102.575 Y140.718 E14.03475
G1 X100.205 Y139.442 E14.1019
G1 X99.893 Y139.284 E14.11062
G1 X98.903 Y138.766 E14.13849
G1 X98.307 Y138.363 E14.15644
G1 X97.493 Y137.666 E14.18317
G1 X96.897 Y137.141 E14.20299
G1 X94.794 Y135.395 E14.27117
G1 X92.635 Y133.702 E14.33961
G1 X90.428 Y132.069 E14.4081
G1 X88.192 Y130.511 E14.47608
G1 X85.874 Y128.992 E14.54521
G1 X85.756 Y128.919 E14.54867
G1 X84.844 Y128.334 E14.5757
G1 X84.703 Y128.238 E14.57995
G1 X84.161 Y127.848 E14.59661
G1 X83.658 Y127.411 E14.61323
G1 X83.294 Y127.037 E14.62625
G1 X82.814 Y126.469 E14.6448
G1 X82.483 Y126.041 E14.6583
G1 X82.374 Y125.89 E14.66294
G1 X81.92 Y125.219 E14.68315
G1 X81.773 Y124.987 E14.69
G1 X81.517 Y124.492 E14.70391
G1 X81.253 Y123.847 E14.72129
G1 X80.991 Y123.114 E14.74071
G1 X80.954 Y122.996 E14.74379
G1 X80.784 Y122.416 E14.75887
G1 X80.667 Y121.792 E14.77471
G1 X80.635 Y121.383 E14.78494
G1 X80.609 Y120.732 E14.80119
G1 X80.605 Y120.323 E14.8114
G1 X80.608 Y119.369 E14.83519
G1 X80.623 Y118.847 E14.84822
G1 X80.661 Y118.289 E14.86217
G1 X80.771 Y117.648 E14.8784
G1 X80.894 Y117.219 E14.88953
G1 X81.129 Y116.506 E14.90826
G1 X81.262 Y116.14 E14.91797
G1 X81.484 Y115.596 E14.93263
G1 X81.735 Y115.106 E14.94636
G1 X82.059 Y114.589 E14.96158
G1 X82.353 Y114.159 E14.97457
G1 X82.795 Y113.58 E14.99274
G1 X83.12 Y113.18 E15.0056
G1 X83.462 Y112.809 E15.01819
G1 X84.143 Y112.186 E15.04121
G1 F3000 E12.04121
;MESH:noseclipV.2.Reinforcedupsidedown.stl(1)
G0 F3600 X95.184 Y110.894
;TYPE:WALL-INNER
G1 F3000 E15.04121
G1 F1200 X95.201 Y110.892 E15.04164
G1 X95.2 Y111.104 E15.04496
G1 X95.156 Y111.238 E15.04848
G1 X95.061 Y111.521 E15.05592
G1 X94.486 Y111.686 E15.07085
G1 X94.14 Y111.785 E15.07982
G1 X94.239 Y111.439 E15.08487
G1 X94.379 Y110.951 E15.09753
G1 X95.043 Y110.904 E15.11414
G1 X95.184 Y110.894 E15.11576
G1 F3000 E12.11576
G0 F3600 X95.187 Y129.128
G1 F3000 E15.11576
G1 F1200 X95.047 Y129.119 E15.11926
G1 X94.378 Y129.071 E15.13599
G1 X94.238 Y128.583 E15.14866
G1 X94.139 Y128.237 E15.15764
G1 X94.485 Y128.336 E15.16268
G1 X95.062 Y128.501 E15.17765
G1 X95.157 Y128.784 E15.1851
G1 X95.201 Y128.917 E15.18791
G1 X95.202 Y129.129 E15.1932
G1 X95.187 Y129.128
G1 F3000 E12.1932
G0 F3600 X88.647 Y126.39
;TYPE:WALL-OUTER
G1 F3000 E15.1932
G1 F1200 X88.816 Y126.429 E15.19752
G1 X91.221 Y126.984 E15.25909
G1 X92.88 Y127.459 E15.30214
G1 X93.474 Y127.63 E15.31756
G1 X93.676 Y127.688 E15.3228
G1 X93.847 Y127.737 E15.32724
G1 X95.306 Y128.155 E15.3651
G1 X95.445 Y128.35 E15.37107
G1 X95.601 Y128.857 E15.3843
G1 X95.602 Y129.355 E15.39673
G1 X95.602 Y129.373 E15.39718
G1 X95.545 Y129.557 E15.40198
G1 X95.273 Y129.535 E15.40879
G1 X95.256 Y129.534 E15.40921
G1 X94.071 Y129.45 E15.43885
G1 X93.67 Y128.054 E15.47508
G1 X93.621 Y127.883 E15.47855
G1 X93.433 Y127.775 E15.48132
G1 X92.844 Y127.586 E15.4868
G1 X91.175 Y127.169 E15.50404
