;FLAVOR:Marlin
;TIME:917
;Filament used: 0.615266m
;Layer height: 0.2
;MINX:78.21
;MINY:105.71
;MINZ:0.15
;MAXX:137.79
;MAXY:135.289
;MAXZ:5.95
;Generated with Cura_SteamEngine 4.11.0
M140 S60
M105
M190 S60
M104 S200
M105
M109 S200
M82 ;absolute extrusion mode
 G92 E0 ;
 M565 Z-1 ;
 G1 Z5 F5000 ;
 G29 ;

G92 E0
G92 E0
G1 F3000 E-3
;LAYER_COUNT:30
;LAYER:0
M107
G0 F3600 X83.851 Y108.877 Z0.15
;TYPE:SKIRT
G1 F3000 E0
G1 F1200 X84.355 Y108.499 E0.01572
G1 X84.793 Y108.197 E0.02899
G1 X85.372 Y107.828 E0.04611
G1 X85.847 Y107.554 E0.05979
G1 X86.471 Y107.229 E0.07734
G1 X86.968 Y106.994 E0.09106
G1 X87.627 Y106.719 E0.10887
G1 X88.329 Y106.465 E0.12749
G1 X89.218 Y106.202 E0.15062
G1 X89.934 Y106.03 E0.16899
G1 X90.484 Y105.925 E0.18295
G1 X91.094 Y105.831 E0.19835
G1 X91.895 Y105.751 E0.21843
G1 X92.427 Y105.72 E0.23172
G1 X93.236 Y105.711 E0.25191
G1 X93.972 Y105.742 E0.27028
G1 X94.575 Y105.793 E0.28538
G1 X94.829 Y105.822 E0.29176
G1 X97.668 Y106.174 E0.36312
G1 X100.399 Y106.432 E0.43155
G1 X103.024 Y106.606 E0.49717
G1 X105.757 Y106.71 E0.56539
G1 X108.455 Y106.735 E0.6327
G1 X111.115 Y106.686 E0.69906
G1 X113.846 Y106.557 E0.76726
G1 X116.507 Y106.356 E0.83383
G1 X119.189 Y106.078 E0.90109
G1 X120.863 Y105.859 E0.94321
G1 X121.565 Y105.779 E0.96083
G1 X122.283 Y105.727 E0.97879
G1 X123.022 Y105.71 E0.99723
G1 X123.78 Y105.731 E1.01615
G1 X124.533 Y105.789 E1.03498
G1 X125.061 Y105.853 E1.04825
G1 X125.604 Y105.939 E1.06197
G1 X126.301 Y106.083 E1.07972
G1 X126.956 Y106.247 E1.09656
G1 X127.442 Y106.392 E1.10921
G1 X127.921 Y106.552 E1.12181
G1 X128.18 Y106.647 E1.12869
G1 X128.736 Y106.869 E1.14363
G1 X128.96 Y106.965 E1.14971
G1 X129.489 Y107.208 E1.16423
G1 X130.024 Y107.483 E1.17923
G1 X130.477 Y107.739 E1.19221
G1 X130.933 Y108.015 E1.20551
G1 X131.469 Y108.374 E1.2216
G1 X132.006 Y108.767 E1.2382
G1 X132.511 Y109.173 E1.25437
G1 X132.705 Y109.338 E1.26072
G1 X133.095 Y109.689 E1.27381
G1 X133.295 Y109.88 E1.28071
G1 X133.702 Y110.291 E1.29514
G1 X134.185 Y110.823 E1.31306
G1 X134.507 Y111.206 E1.32554
G1 X134.894 Y111.708 E1.34135
G1 X135.281 Y112.257 E1.35811
G1 X135.565 Y112.695 E1.37113
G1 X136.018 Y113.479 E1.39372
G1 X136.352 Y114.136 E1.4121
G1 X136.596 Y114.674 E1.42684
G1 X136.839 Y115.28 E1.44313
G1 X137.13 Y116.129 E1.46551
G1 X137.281 Y116.65 E1.47904
G1 X137.333 Y116.849 E1.48417
G1 X137.458 Y117.377 E1.49771
G1 X137.584 Y118.04 E1.51454
G1 X137.661 Y118.549 E1.52739
G1 X137.735 Y119.212 E1.54403
G1 X137.776 Y119.823 E1.5593
G1 X137.79 Y120.437 E1.57462
G1 X137.783 Y120.988 E1.58837
G1 X137.772 Y121.242 E1.59471
G1 X137.726 Y121.891 E1.61094
G1 X137.658 Y122.484 E1.62583
G1 X137.579 Y122.988 E1.63856
G1 X137.46 Y123.611 E1.65438
G1 X137.316 Y124.215 E1.66987
G1 X137.159 Y124.781 E1.68452
G1 X136.963 Y125.381 E1.70026
G1 X136.727 Y126.01 E1.71702
G1 X136.374 Y126.821 E1.73909
G1 X136.095 Y127.38 E1.75467
G1 X135.784 Y127.939 E1.77063
G1 X135.373 Y128.608 E1.79021
G1 X135.229 Y128.822 E1.79665
G1 X134.909 Y129.272 E1.81042
G1 X134.501 Y129.801 E1.82709
G1 X134.217 Y130.139 E1.8381
G1 X133.873 Y130.525 E1.851
G1 X133.696 Y130.713 E1.85744
G1 X133.264 Y131.148 E1.87273
G1 X132.725 Y131.645 E1.89102
G1 X132.532 Y131.809 E1.89734
G1 X132.113 Y132.149 E1.9108
G1 X131.564 Y132.558 E1.92788
G1 X131.005 Y132.937 E1.94472
G1 X130.555 Y133.216 E1.95793
G1 X130.019 Y133.519 E1.97329
G1 X129.535 Y133.768 E1.98687
G1 X128.86 Y134.077 E2.00539
G1 X128.215 Y134.341 E2.02277
G1 X127.507 Y134.586 E2.04146
G1 X126.867 Y134.777 E2.05812
G1 X126.367 Y134.902 E2.07098
G1 X125.844 Y135.015 E2.08432
G1 X125.169 Y135.13 E2.10141
G1 X124.44 Y135.219 E2.11973
G1 X123.789 Y135.268 E2.13601
G1 X123.137 Y135.289 E2.15228
G1 X122.559 Y135.285 E2.1667
G1 X121.971 Y135.255 E2.18139
G1 X121.452 Y135.21 E2.19438
G1 X120.27 Y135.07 E2.22408
G1 X119.061 Y134.911 E2.25449
G1 X116.371 Y134.635 E2.32195
G1 X113.682 Y134.436 E2.38921
G1 X110.987 Y134.313 E2.45651
G1 X108.325 Y134.267 E2.52292
G1 X105.593 Y134.295 E2.59107
G1 X102.929 Y134.4 E2.65758
G1 X100.245 Y134.581 E2.72468
G1 X97.56 Y134.839 E2.79197
G1 X94.624 Y135.202 E2.86577
G1 X94.105 Y135.249 E2.87877
G1 X93.571 Y135.28 E2.89211
G1 X92.768 Y135.289 E2.91214
G1 X92.027 Y135.258 E2.93064
G1 X91.441 Y135.209 E2.94531
G1 X90.898 Y135.142 E2.95896
G1 X90.358 Y135.052 E2.97261
G1 X89.712 Y134.921 E2.98906
G1 X89.215 Y134.797 E3.00183
G1 X88.628 Y134.63 E3.01706
G1 X88.044 Y134.438 E3.03239
G1 X87.282 Y134.141 E3.05279
G1 X86.579 Y133.823 E3.07204
G1 X86.07 Y133.566 E3.08626
G1 X85.34 Y133.152 E3.1072
G1 X84.792 Y132.803 E3.12341
G1 X84.356 Y132.501 E3.13664
G1 X83.922 Y132.179 E3.15012
G1 X83.492 Y131.829 E3.16395
G1 X83.029 Y131.425 E3.17928
G1 X82.544 Y130.963 E3.19598
G1 X82.074 Y130.47 E3.21298
G1 X81.663 Y130 E3.22855
G1 X81.216 Y129.439 E3.24644
G1 X80.678 Y128.681 E3.26963
G1 X80.316 Y128.106 E3.28658
G1 X79.998 Y127.551 E3.30254
G1 X79.765 Y127.102 E3.31515
G1 X79.49 Y126.518 E3.33126
G1 X79.24 Y125.927 E3.34726
G1 X79.045 Y125.4 E3.36128
G1 X78.82 Y124.707 E3.37946
G1 X78.746 Y124.444 E3.38627
G1 X78.585 Y123.804 E3.40273
G1 X78.439 Y123.093 E3.42084
G1 X78.338 Y122.444 E3.43722
G1 X78.267 Y121.8 E3.45339
G1 X78.226 Y121.193 E3.46856
G1 X78.21 Y120.572 E3.48406
G1 X78.222 Y119.889 E3.5011
G1 X78.253 Y119.345 E3.51469
G1 X78.317 Y118.724 E3.53026
G1 X78.404 Y118.103 E3.54591
G1 X78.531 Y117.437 E3.56282
G1 X78.586 Y117.192 E3.56908
G1 X78.747 Y116.554 E3.5855
G1 X78.947 Y115.888 E3.60284
G1 X79.268 Y115.003 E3.62633
G1 X79.505 Y114.447 E3.6414
G1 X79.768 Y113.891 E3.65675
G1 X80.059 Y113.338 E3.67233
G1 X80.317 Y112.892 E3.68519
G1 X80.684 Y112.311 E3.70233
G1 X81.032 Y111.809 E3.71757
G1 X81.45 Y111.26 E3.73478
G1 X81.97 Y110.647 E3.75483
G1 X82.386 Y110.197 E3.77012
G1 X82.83 Y109.76 E3.78566
G1 X83.399 Y109.25 E3.80472
G1 X83.851 Y108.877 E3.81934
G0 F3600 X84.099 Y109.191
G1 F1200 X84.593 Y108.821 E3.83473
G1 X85.011 Y108.532 E3.84741
G1 X85.573 Y108.174 E3.86403
G1 X86.039 Y107.905 E3.87745
G1 X86.65 Y107.586 E3.89465
G1 X87.129 Y107.361 E3.90785
G1 X87.777 Y107.09 E3.92537
G1 X88.459 Y106.843 E3.94346
G1 X89.327 Y106.587 E3.96604
G1 X90.01 Y106.422 E3.98357
G1 X90.55 Y106.32 E3.99728
G1 X91.149 Y106.227 E4.0124
G1 X91.928 Y106.15 E4.03192
G1 X92.449 Y106.12 E4.04494
G1 X93.236 Y106.111 E4.06457
G1 X93.95 Y106.142 E4.0824
G1 X94.53 Y106.19 E4.09692
G1 X94.78 Y106.218 E4.10319
G1 X97.649 Y106.574 E4.17531
G1 X100.372 Y106.831 E4.24354
G1 X103.02 Y107.007 E4.30974
G1 X105.737 Y107.11 E4.37756
G1 X108.458 Y107.136 E4.44544
G1 X111.142 Y107.085 E4.51241
G1 X113.827 Y106.959 E4.57946
G1 X116.579 Y106.751 E4.6483
G1 X119.206 Y106.478 E4.71419
G1 X120.909 Y106.256 E4.75703
G1 X121.602 Y106.177 E4.77443
G1 X122.307 Y106.126 E4.79206
G1 X123.025 Y106.11 E4.80997
G1 X123.749 Y106.13 E4.82804
G1 X124.502 Y106.188 E4.84688
G1 X124.998 Y106.248 E4.85934
G1 X125.541 Y106.334 E4.87306
G1 X126.216 Y106.474 E4.89025
G1 X126.844 Y106.631 E4.9064
G1 X127.315 Y106.772 E4.91867
G1 X127.794 Y106.932 E4.93126
G1 X128.032 Y107.019 E4.93758
G1 X128.588 Y107.241 E4.95252
G1 X128.793 Y107.329 E4.95808
G1 X129.322 Y107.572 E4.97261
G1 X129.827 Y107.831 E4.98676
G1 X130.28 Y108.087 E4.99974
G1 X130.717 Y108.352 E5.01249
G1 X131.244 Y108.705 E5.02831
G1 X131.763 Y109.085 E5.04436
G1 X132.259 Y109.484 E5.06024
G1 X132.437 Y109.636 E5.06608
G1 X132.827 Y109.987 E5.07917
G1 X133.01 Y110.161 E5.08547
G1 X133.417 Y110.572 E5.09989
G1 X133.886 Y111.089 E5.11731
G1 X134.36 Y111.663 E5.13588
G1 X134.567 Y111.939 E5.14448
G1 X134.954 Y112.488 E5.16124
G1 X135.227 Y112.909 E5.17375
G1 X135.669 Y113.674 E5.19579
G1 X135.992 Y114.31 E5.21359
G1 X136.231 Y114.838 E5.22804
G1 X136.467 Y115.426 E5.24385
G1 X136.75 Y116.252 E5.26563
G1 X136.896 Y116.759 E5.27879
G1 X136.944 Y116.941 E5.28349
G1 X137.069 Y117.469 E5.29702
G1 X137.191 Y118.11 E5.3133
G1 X137.315 Y119.019 E5.33618
G1 X137.369 Y119.712 E5.35352
G1 X137.391 Y120.442 E5.37174
G1 X137.383 Y120.981 E5.38519
G1 X137.373 Y121.214 E5.39101
G1 X137.327 Y121.863 E5.40724
G1 X137.262 Y122.423 E5.4213
G1 X137.186 Y122.918 E5.43379
G1 X137.071 Y123.518 E5.44903
G1 X136.927 Y124.122 E5.46452
G1 X136.779 Y124.658 E5.47839
G1 X136.586 Y125.247 E5.49385
G1 X136.354 Y125.865 E5.51032
G1 X136.009 Y126.656 E5.53185
G1 X135.739 Y127.196 E5.54691
G1 X135.441 Y127.735 E5.56227
G1 X135.035 Y128.394 E5.58158
G1 X134.903 Y128.59 E5.58747
G1 X134.517 Y129.13 E5.60403
G1 X134.189 Y129.552 E5.61736
G1 X133.919 Y129.872 E5.62781
G1 X133.575 Y130.258 E5.6407
G1 X133.412 Y130.431 E5.64663
G1 X132.98 Y130.866 E5.66193
G1 X132.457 Y131.348 E5.67967
G1 X132.28 Y131.499 E5.68547
G1 X131.861 Y131.839 E5.69893
G1 X131.339 Y132.227 E5.71516
G1 X130.78 Y132.606 E5.732
G1 X130.358 Y132.867 E5.74438
G1 X129.728 Y133.222 E5.76242
G1 X129.368 Y133.405 E5.77249
G1 X128.693 Y133.714 E5.79101
G1 X128.067 Y133.97 E5.80788
G1 X127.38 Y134.206 E5.826
G1 X126.767 Y134.389 E5.84196
G1 X126.282 Y134.511 E5.85444
G1 X125.759 Y134.624 E5.86778
G1 X125.105 Y134.735 E5.88433
G1 X124.41 Y134.821 E5.9018
G1 X123.759 Y134.87 E5.91809
G1 X123.129 Y134.889 E5.93381
G1 X122.573 Y134.885 E5.94768
G1 X121.995 Y134.856 E5.96211
G1 X121.489 Y134.811 E5.97479
G1 X121.374 Y134.799 E5.97767
G1 X120.322 Y134.674 E6.0041
G1 X119.083 Y134.511 E6.03527
G1 X116.406 Y134.236 E6.1024
G1 X113.696 Y134.035 E6.17019
G1 X111.012 Y133.913 E6.23721
G1 X108.327 Y133.866 E6.3042
G1 X105.609 Y133.895 E6.372
G1 X102.885 Y134.002 E6.44
G1 X100.212 Y134.182 E6.50683
G1 X97.512 Y134.442 E6.5745
G1 X94.575 Y134.805 E6.64832
G1 X94.072 Y134.85 E6.66092
G1 X93.549 Y134.88 E6.67398
G1 X92.768 Y134.889 E6.69347
G1 X92.05 Y134.858 E6.71139
G1 X91.485 Y134.812 E6.72553
G1 X90.953 Y134.746 E6.73891
G1 X90.434 Y134.659 E6.75203
G1 X89.806 Y134.532 E6.76802
G1 X88.865 Y134.283 E6.7923
G1 X88.173 Y134.059 E6.81044
G1 X87.431 Y133.77 E6.83031
G1 X86.749 Y133.462 E6.84897
G1 X86.26 Y133.214 E6.86265
G1 X85.542 Y132.807 E6.88324
G1 X85.009 Y132.467 E6.89901
G1 X84.593 Y132.178 E6.91164
G1 X84.17 Y131.865 E6.92477
G1 X83.747 Y131.52 E6.93839
G1 X83.299 Y131.13 E6.9532
G1 X82.823 Y130.676 E6.96961
G1 X82.367 Y130.197 E6.98611
G1 X81.965 Y129.738 E7.00133
G1 X81.532 Y129.194 E7.01867
G1 X81.008 Y128.454 E7.04129
G1 X80.656 Y127.895 E7.05777
G1 X80.346 Y127.354 E7.07333
G1 X80.074 Y126.823 E7.08821
G1 X79.857 Y126.359 E7.10099
G1 X79.615 Y125.787 E7.11648
G1 X79.422 Y125.269 E7.13027
G1 X79.202 Y124.587 E7.14814
G1 X79.134 Y124.346 E7.15439
G1 X78.973 Y123.706 E7.17085
G1 X78.831 Y123.016 E7.18843
G1 X78.735 Y122.389 E7.20425
G1 X78.664 Y121.757 E7.22011
G1 X78.626 Y121.18 E7.23454
G1 X78.61 Y120.574 E7.24966
G1 X78.622 Y119.9 E7.26647
G1 X78.651 Y119.378 E7.27952
G1 X78.714 Y118.768 E7.29481
G1 X78.798 Y118.17 E7.30988
G1 X78.923 Y117.514 E7.32654
G1 X78.974 Y117.289 E7.33229
G1 X79.135 Y116.651 E7.3487
G1 X79.329 Y116.007 E7.36548
G1 X79.642 Y115.145 E7.38836
G1 X79.872 Y114.608 E7.40293
G1 X80.125 Y114.072 E7.41772
G1 X80.405 Y113.537 E7.43278
G1 X80.658 Y113.102 E7.44533
G1 X81.013 Y112.537 E7.46198
G1 X81.354 Y112.046 E7.47689
G1 X81.766 Y111.506 E7.49383
G1 X82.272 Y110.909 E7.51335
G1 X82.671 Y110.478 E7.52801
G1 X83.109 Y110.047 E7.54333
G1 X83.661 Y109.552 E7.56183
G1 X84.099 Y109.191 E7.57599
G0 F3600 X84.347 Y109.505
G1 F1200 X84.83 Y109.143 E7.59105
G1 X85.6 Y108.627 E7.61417
G1 X86.144 Y108.305 E7.62994
G1 X86.83 Y107.944 E7.64927
G1 X87.29 Y107.727 E7.66196
G1 X87.927 Y107.461 E7.67918
G1 X88.589 Y107.222 E7.69674
G1 X89.435 Y106.972 E7.71874
G1 X90.086 Y106.815 E7.73545
G1 X90.615 Y106.714 E7.74888
G1 X91.204 Y106.623 E7.76375
G1 X91.961 Y106.549 E7.78272
G1 X92.471 Y106.519 E7.79547
G1 X93.236 Y106.511 E7.81455
G1 X93.928 Y106.541 E7.83183
G1 X94.485 Y106.587 E7.84577
G1 X94.731 Y106.615 E7.85195
G1 X97.632 Y106.975 E7.92487
G1 X100.306 Y107.227 E7.99187
G1 X103.015 Y107.407 E8.05959
G1 X105.718 Y107.509 E8.12707
G1 X108.462 Y107.536 E8.19552
G1 X111.133 Y107.486 E8.26216
G1 X113.875 Y107.357 E8.33063
G1 X116.578 Y107.152 E8.39825
G1 X119.299 Y106.87 E8.46649
G1 X120.955 Y106.653 E8.50816
G1 X121.639 Y106.575 E8.52533
G1 X122.331 Y106.525 E8.54264
G1 X123.027 Y106.51 E8.56
G1 X123.718 Y106.529 E8.57725
G1 X124.471 Y106.587 E8.59608
G1 X124.936 Y106.643 E8.60777
G1 X125.479 Y106.729 E8.62148
G1 X126.131 Y106.865 E8.6381
G1 X126.732 Y107.015 E8.65355
G1 X127.188 Y107.151 E8.66542
G1 X127.667 Y107.311 E8.67802
G1 X127.883 Y107.39 E8.68375
G1 X128.439 Y107.612 E8.69869
G1 X128.626 Y107.692 E8.70376
G1 X129.155 Y107.935 E8.71828
G1 X129.63 Y108.18 E8.73161
G1 X130.184 Y108.495 E8.74751
G1 X130.688 Y108.81 E8.76234
G1 X131.278 Y109.22 E8.78026
G1 X131.612 Y109.475 E8.79074
G1 X132.008 Y109.795 E8.80344
G1 X132.17 Y109.933 E8.80875
G1 X132.56 Y110.284 E8.82184
G1 X132.726 Y110.442 E8.82756
G1 X133.133 Y110.853 E8.84199
G1 X133.587 Y111.355 E8.85887
G1 X134.047 Y111.913 E8.87691
G1 X134.24 Y112.169 E8.88491
G1 X134.627 Y112.718 E8.90166
G1 X134.951 Y113.223 E8.91663
G1 X135.32 Y113.869 E8.93519
G1 X135.631 Y114.484 E8.95238
G1 X135.866 Y115.002 E8.96657
G1 X136.095 Y115.572 E8.98189
G1 X136.369 Y116.375 E9.00306
G1 X136.511 Y116.868 E9.01585
G1 X136.554 Y117.034 E9.02013
G1 X136.679 Y117.562 E9.03367
G1 X136.797 Y118.181 E9.04939
G1 X136.918 Y119.067 E9.07169
G1 X136.97 Y119.74 E9.08853
G1 X136.991 Y120.448 E9.1062
G1 X136.983 Y120.974 E9.11932
G1 X136.974 Y121.186 E9.12461
G1 X136.928 Y121.835 E9.14084
G1 X136.867 Y122.363 E9.1541
G1 X136.729 Y123.201 E9.17529
G1 X136.682 Y123.426 E9.18102
G1 X136.538 Y124.03 E9.19651
G1 X136.398 Y124.535 E9.20958
G1 X136.209 Y125.113 E9.22475
G1 X135.982 Y125.719 E9.2409
G1 X135.644 Y126.492 E9.26194
G1 X135.384 Y127.012 E9.27644
G1 X135.097 Y127.53 E9.29122
G1 X134.697 Y128.18 E9.31025
G1 X134.577 Y128.358 E9.31561
G1 X134.197 Y128.89 E9.33192
G1 X133.876 Y129.302 E9.34495
G1 X133.62 Y129.606 E9.35486
G1 X133.276 Y129.992 E9.36776
G1 X133.128 Y130.15 E9.37316
G1 X132.696 Y130.585 E9.38845
G1 X132.189 Y131.051 E9.40563
G1 X132.028 Y131.188 E9.4109
G1 X131.609 Y131.528 E9.42436
G1 X131.115 Y131.896 E9.43973
G1 X130.556 Y132.275 E9.45658
G1 X130.161 Y132.519 E9.46816
G1 X129.539 Y132.869 E9.48596
G1 X129.202 Y133.041 E9.4954
G1 X128.527 Y133.35 E9.51392
G1 X127.919 Y133.598 E9.5303
G1 X127.254 Y133.827 E9.54784
G1 X126.668 Y134.002 E9.5631
G1 X126.198 Y134.12 E9.57519
G1 X125.675 Y134.233 E9.58853
G1 X125.042 Y134.34 E9.60455
G1 X124.38 Y134.422 E9.62119
G1 X123.729 Y134.471 E9.63747
G1 X123.121 Y134.489 E9.65265
G1 X122.587 Y134.486 E9.66597
G1 X122.019 Y134.457 E9.68015
G1 X121.421 Y134.402 E9.69513
G1 X120.374 Y134.277 E9.72144
G1 X119.139 Y134.115 E9.75251
G1 X116.443 Y133.838 E9.82011
G1 X113.741 Y133.638 E9.8877
G1 X111.003 Y133.513 E9.95607
G1 X108.33 Y133.466 E10.02276
G1 X105.589 Y133.495 E10.09114
G1 X102.878 Y133.602 E10.15882
G1 X100.183 Y133.783 E10.2262
G1 X97.461 Y134.045 E10.29441
G1 X94.526 Y134.408 E10.36818
G1 X93.928 Y134.459 E10.38315
G1 X93.421 Y134.485 E10.39582
G1 X92.768 Y134.489 E10.41211
G1 X92.072 Y134.459 E10.42948
G1 X91.528 Y134.414 E10.4431
G1 X91.007 Y134.349 E10.4562
G1 X90.511 Y134.266 E10.46874
G1 X89.9 Y134.143 E10.48429
G1 X88.974 Y133.898 E10.50818
G1 X88.303 Y133.68 E10.52578
G1 X87.58 Y133.399 E10.54513
G1 X86.92 Y133.1 E10.56321
G1 X86.45 Y132.862 E10.57635
G1 X85.743 Y132.461 E10.59662
G1 X85.227 Y132.132 E10.61189
G1 X84.53 Y131.636 E10.63323
G1 X84.001 Y131.211 E10.65016
G1 X83.57 Y130.835 E10.66442
G1 X83.101 Y130.388 E10.68059
G1 X82.66 Y129.925 E10.69654
G1 X82.268 Y129.476 E10.7114
G1 X81.849 Y128.949 E10.7282
G1 X81.337 Y128.227 E10.75028
G1 X80.997 Y127.685 E10.76624
G1 X80.694 Y127.156 E10.78145
G1 X80.435 Y126.652 E10.79558
G1 X80.223 Y126.199 E10.80806
G1 X79.989 Y125.647 E10.82301
G1 X79.8 Y125.138 E10.83656
G1 X79.584 Y124.468 E10.85412
G1 X79.522 Y124.249 E10.8598
G1 X79.361 Y123.609 E10.87626
G1 X79.224 Y122.939 E10.89332
G1 X79.131 Y122.333 E10.90861
G1 X79.062 Y121.714 E10.92415
G1 X79.026 Y121.168 E10.9378
G1 X79.01 Y120.575 E10.95259
G1 X79.021 Y119.911 E10.96916
G1 X79.059 Y119.305 E10.98431
G1 X79.127 Y118.693 E10.99967
