;FLAVOR:Marlin
;TIME:1037
;Filament used: 0.651443m
;Layer height: 0.2
;MINX:32.061
;MINY:104.026
;MINZ:0.15
;MAXX:180.936
;MAXY:136.948
;MAXZ:1.95
;Generated with Cura_SteamEngine 4.8.0
M140 S60
M105
M190 S60
M104 S200
M105
M109 S200
M82 ;absolute extrusion mode
 G92 E0 ;
 M565 Z-1 ;
 G1 Z5 F5000 ;
 G29 ;

G92 E0
G92 E0
G1 F3000 E-3
;LAYER_COUNT:10
;LAYER:0
M107
G0 F3600 X37.305 Y105.831 Z0.15
;TYPE:SKIRT
G1 F3000 E0
G1 F1200 X37.561 Y105.743 E0.00675
G1 X38.203 Y105.58 E0.02328
G1 X38.963 Y105.476 E0.04241
G1 X39.609 Y105.446 E0.05854
G1 X42.413 Y105.465 E0.12849
G1 X43.439 Y105.455 E0.15408
G1 X44.378 Y105.53 E0.17758
G1 X44.817 Y105.597 E0.18866
G1 X45.502 Y105.733 E0.20608
G1 X46.947 Y106.044 E0.24295
G1 X49.61 Y106.538 E0.31051
G1 X52.284 Y106.956 E0.37803
G1 X54.978 Y107.3 E0.44578
G1 X57.706 Y107.57 E0.51416
G1 X60.41 Y107.761 E0.58178
G1 X63.078 Y107.873 E0.64839
G1 X65.821 Y107.911 E0.71682
G1 X68.563 Y107.871 E0.78523
G1 X71.235 Y107.757 E0.85194
G1 X73.974 Y107.562 E0.92044
G1 X76.666 Y107.294 E0.98792
G1 X79.32 Y106.954 E1.05467
G1 X82.069 Y106.522 E1.12408
G1 X84.688 Y106.034 E1.19054
G1 X87.364 Y105.456 E1.25883
G1 X89.981 Y104.815 E1.32604
G1 X91.918 Y104.279 E1.37618
G1 X92.376 Y104.161 E1.38798
G1 X92.932 Y104.059 E1.40208
G1 X93.582 Y104.028 E1.41831
G1 X93.694 Y104.026 E1.4211
G1 X95.488 Y104.026 E1.46586
G1 X96.195 Y104.037 E1.48349
G1 X96.758 Y104.086 E1.49759
G1 X97.411 Y104.247 E1.51437
G1 X100.173 Y105.138 E1.58676
G1 X102.804 Y105.903 E1.65511
G1 X105.407 Y106.582 E1.72222
G1 X108.065 Y107.196 E1.79027
G1 X110.713 Y107.726 E1.85763
G1 X113.371 Y108.182 E1.9249
G1 X116.088 Y108.571 E1.99337
G1 X119.207 Y108.929 E2.07169
G1 X120.495 Y109.113 E2.10414
G1 X120.593 Y109.118 E2.10659
G1 X121.969 Y109.315 E2.14126
G1 X124.659 Y109.623 E2.2088
G1 X127.365 Y109.857 E2.27656
G1 X130.067 Y110.013 E2.34407
G1 X132.771 Y110.091 E2.41155
G1 X135.48 Y110.094 E2.47913
G1 X138.224 Y110.019 E2.5476
G1 X140.93 Y109.869 E2.61521
G1 X143.622 Y109.643 E2.6826
G1 X146.318 Y109.339 E2.75027
G1 X149.025 Y108.956 E2.81847
G1 X151.099 Y108.611 E2.87092
G1 X151.929 Y108.463 E2.89195
G1 X152.663 Y108.373 E2.9104
G1 X155.387 Y108.205 E2.97848
G1 X158.121 Y107.958 E3.04695
G1 X160.787 Y107.642 E3.11392
G1 X161.993 Y107.465 E3.14433
G1 X162.085 Y107.458 E3.14663
G1 X163.408 Y107.267 E3.17998
G1 X164.08 Y107.218 E3.19678
G1 X164.428 Y107.216 E3.20546
G1 X164.992 Y107.253 E3.21956
G1 X165.572 Y107.376 E3.23435
G1 X165.853 Y107.458 E3.24166
G1 X166.335 Y107.633 E3.25445
G1 X167.299 Y108.055 E3.2807
G1 X169.83 Y109.122 E3.34921
G1 X172.363 Y110.107 E3.41701
G1 X174.927 Y111.02 E3.4849
G1 X176.356 Y111.505 E3.52255
G1 X177.095 Y111.843 E3.54282
G1 X177.453 Y112.053 E3.55317
G1 X177.919 Y112.373 E3.56727
G1 X178.394 Y112.81 E3.58337
G1 X178.93 Y113.402 E3.60329
G1 X179.215 Y113.771 E3.61493
G1 X179.54 Y114.224 E3.62883
G1 X180.014 Y115.025 E3.65205
G1 X180.177 Y115.336 E3.66081
G1 X180.403 Y115.865 E3.67516
G1 X180.579 Y116.374 E3.68859
G1 X180.687 Y116.717 E3.69756
G1 X180.811 Y117.247 E3.71114
G1 X180.912 Y118.029 E3.73081
G1 X180.936 Y118.598 E3.74502
G1 X180.893 Y119.298 E3.76251
G1 X180.748 Y120.096 E3.78274
G1 X180.552 Y120.706 E3.79873
G1 X180.333 Y121.228 E3.81285
G1 X179.975 Y121.815 E3.83
G1 X179.797 Y122.073 E3.83782
G1 X179.356 Y122.603 E3.85502
G1 X178.482 Y123.486 E3.88601
G1 X176.567 Y125.478 E3.95494
G1 X175.837 Y126.271 E3.98182
G1 X175.316 Y126.79 E4.00017
G1 X174.847 Y127.174 E4.01529
G1 X174.443 Y127.427 E4.02718
G1 X173.168 Y128.125 E4.06344
G1 X172.527 Y128.468 E4.08157
G1 X170.166 Y129.816 E4.14939
G1 X167.866 Y131.215 E4.21655
G1 X165.574 Y132.7 E4.28467
G1 X163.032 Y134.459 E4.36178
G1 X162.494 Y134.773 E4.37732
G1 X161.975 Y135.021 E4.39167
G1 X161.907 Y135.051 E4.39352
G1 X161.246 Y135.276 E4.41094
G1 X160.733 Y135.402 E4.42412
G1 X160.176 Y135.497 E4.43822
G1 X159.357 Y135.495 E4.45865
G1 X158.833 Y135.431 E4.47181
G1 X158.72 Y135.415 E4.47466
G1 X157.863 Y135.275 E4.49632
G1 X155.174 Y134.874 E4.56414
G1 X152.482 Y134.55 E4.63178
G1 X149.787 Y134.303 E4.69929
G1 X147.085 Y134.133 E4.76682
G1 X144.341 Y134.037 E4.83531
G1 X141.634 Y134.019 E4.90284
G1 X138.929 Y134.078 E4.97033
G1 X136.218 Y134.214 E5.03804
G1 X133.49 Y134.428 E5.1063
G1 X130.823 Y134.713 E5.17321
G1 X128.12 Y135.08 E5.24126
G1 X125.428 Y135.524 E5.30932
G1 X122.789 Y136.035 E5.37637
G1 X119.791 Y136.709 E5.45302
G1 X119.305 Y136.826 E5.46549
G1 X118.597 Y136.931 E5.48334
G1 X118.299 Y136.948 E5.49079
G1 X117.54 Y136.919 E5.50974
G1 X117.032 Y136.851 E5.52252
G1 X114.345 Y136.532 E5.59002
G1 X111.617 Y136.286 E5.65835
G1 X108.942 Y136.12 E5.7252
G1 X106.204 Y136.029 E5.79354
G1 X103.494 Y136.014 E5.86114
G1 X100.802 Y136.076 E5.92831
G1 X96.954 Y136.295 E6.02446
G1 X95.742 Y136.387 E6.05478
G1 X95.512 Y136.398 E6.06052
G1 X94.798 Y136.411 E6.07834
G1 X94.183 Y136.403 E6.09368
G1 X93.521 Y136.337 E6.11027
G1 X92.68 Y136.181 E6.13161
G1 X90.017 Y135.724 E6.19901
G1 X87.297 Y135.337 E6.26754
G1 X84.648 Y135.036 E6.33405
G1 X81.911 Y134.803 E6.40257
G1 X79.172 Y134.648 E6.471
G1 X76.501 Y134.572 E6.53766
G1 X74.908 Y134.572 E6.5774
G1 X73.183 Y134.564 E6.62043
G1 X70.801 Y134.516 E6.67986
G1 X70.206 Y134.505 E6.6947
G1 X69.521 Y134.457 E6.71183
G1 X66.412 Y134.061 E6.79001
G1 X63.734 Y133.794 E6.85715
G1 X61.009 Y133.602 E6.92529
G1 X58.333 Y133.489 E6.99211
G1 X55.59 Y133.45 E7.06054
G1 X52.847 Y133.489 E7.12897
G1 X50.177 Y133.602 E7.19563
G1 X47.441 Y133.796 E7.26405
G1 X44.757 Y134.063 E7.33134
G1 X43.36 Y134.235 E7.36645
G1 X42.687 Y134.279 E7.38327
G1 X42.14 Y134.272 E7.39692
G1 X41.322 Y134.247 E7.41733
G1 X39.703 Y134.254 E7.45772
G1 X39.505 Y134.241 E7.46267
G1 X38.265 Y134.238 E7.4936
G1 X37.681 Y134.196 E7.50821
G1 X37.163 Y134.112 E7.5213
G1 X36.614 Y133.977 E7.5354
G1 X35.833 Y133.652 E7.5565
G1 X35.484 Y133.481 E7.56619
G1 X34.831 Y133.067 E7.58548
G1 X34.119 Y132.457 E7.60887
G1 X33.56 Y131.824 E7.62994
G1 X33.227 Y131.354 E7.6443
G1 X32.886 Y130.769 E7.6612
G1 X32.577 Y130.094 E7.67971
G1 X32.328 Y129.343 E7.69945
G1 X32.192 Y128.77 E7.71414
G1 X32.079 Y127.927 E7.73536
G1 X32.061 Y127.275 E7.75163
G1 X32.1 Y126.624 E7.7679
G1 X32.154 Y126.194 E7.77871
G1 X32.244 Y125.6 E7.79369
G1 X32.61 Y122.921 E7.86114
G1 X32.905 Y120.191 E7.92964
G1 X33.117 Y117.528 E7.99628
G1 X33.258 Y114.784 E8.06482
G1 X33.277 Y113.784 E8.08977
G1 X33.284 Y113.704 E8.09177
G1 X33.341 Y111.755 E8.14041
G1 X33.373 Y111.175 E8.1549
G1 X33.447 Y110.607 E8.16919
G1 X33.532 Y110.208 E8.17936
G1 X33.67 Y109.656 E8.19356
G1 X33.846 Y109.118 E8.20768
G1 X34.137 Y108.53 E8.22404
G1 X34.32 Y108.212 E8.2332
G1 X34.636 Y107.744 E8.24728
G1 X35.037 Y107.305 E8.26211
G1 X35.378 Y106.983 E8.27381
G1 X35.884 Y106.577 E8.29
G1 X36.1 Y106.431 E8.2965
G1 X36.567 Y106.159 E8.30998
G1 X36.832 Y106.028 E8.31736
G1 X37.305 Y105.831 E8.33014
G0 F3600 X37.435 Y106.21
G1 F1200 X37.691 Y106.122 E8.33689
G1 X38.269 Y105.975 E8.35177
G1 X39.011 Y105.873 E8.37045
G1 X39.611 Y105.846 E8.38543
G1 X42.414 Y105.865 E8.45536
G1 X43.443 Y105.855 E8.48102
G1 X44.334 Y105.928 E8.50333
G1 X44.739 Y105.989 E8.51354
G1 X45.418 Y106.125 E8.53082
G1 X46.827 Y106.428 E8.56677
G1 X49.549 Y106.933 E8.63583
G1 X52.243 Y107.354 E8.70384
G1 X54.955 Y107.701 E8.77205
G1 X57.642 Y107.967 E8.8394
G1 X60.363 Y108.159 E8.90745
G1 X63.09 Y108.274 E8.97553
G1 X65.822 Y108.311 E9.04369
G1 X68.551 Y108.272 E9.11177
G1 X71.279 Y108.155 E9.17988
G1 X74.009 Y107.96 E9.24816
G1 X76.686 Y107.694 E9.31526
G1 X79.431 Y107.342 E9.3843
G1 X82.098 Y106.923 E9.45164
G1 X84.774 Y106.424 E9.51955
G1 X87.437 Y105.849 E9.58751
G1 X90.086 Y105.2 E9.65554
G1 X92.018 Y104.667 E9.70554
G1 X92.476 Y104.549 E9.71733
G1 X93.004 Y104.454 E9.73072
G1 X93.593 Y104.427 E9.74542
G1 X95.482 Y104.426 E9.79255
G1 X96.189 Y104.437 E9.81018
G1 X96.723 Y104.486 E9.82356
G1 X97.283 Y104.626 E9.83796
G1 X97.408 Y104.668 E9.84125
G1 X100.044 Y105.517 E9.91033
G1 X102.696 Y106.288 E9.97922
G1 X105.288 Y106.964 E10.04604
G1 X108.001 Y107.591 E10.1155
G1 X110.638 Y108.119 E10.18259
G1 X113.318 Y108.579 E10.25042
G1 X116.017 Y108.965 E10.31843
G1 X119.051 Y109.312 E10.39461
G1 X120.377 Y109.5 E10.42802
G1 X120.537 Y109.514 E10.43202
G1 X121.904 Y109.71 E10.46647
G1 X124.618 Y110.021 E10.53462
G1 X127.341 Y110.256 E10.60279
G1 X130.068 Y110.413 E10.67093
G1 X132.758 Y110.491 E10.73806
G1 X135.49 Y110.494 E10.80621
G1 X138.256 Y110.419 E10.87524
G1 X140.952 Y110.269 E10.94259
G1 X143.66 Y110.042 E11.01038
G1 X146.351 Y109.738 E11.07794
G1 X149.101 Y109.35 E11.14721
G1 X151.153 Y109.008 E11.19911
G1 X151.999 Y108.857 E11.22054
G1 X152.688 Y108.772 E11.23786
G1 X155.447 Y108.601 E11.30682
G1 X158.132 Y108.359 E11.37407
G1 X160.856 Y108.036 E11.44249
G1 X162.051 Y107.861 E11.47262
G1 X162.137 Y107.855 E11.47477
G1 X163.465 Y107.663 E11.50824
G1 X164.082 Y107.618 E11.52367
G1 X164.43 Y107.616 E11.53236
G1 X164.965 Y107.653 E11.54573
G1 X165.459 Y107.76 E11.55834
G1 X166.175 Y108 E11.57718
G1 X167.158 Y108.43 E11.60394
G1 X169.666 Y109.487 E11.67183
G1 X172.221 Y110.481 E11.74022
G1 X174.781 Y111.393 E11.80801
G1 X176.228 Y111.884 E11.84613
G1 X176.892 Y112.188 E11.86435
G1 X177.25 Y112.398 E11.8747
G1 X177.692 Y112.703 E11.8881
G1 X178.112 Y113.094 E11.90241
G1 X178.615 Y113.649 E11.9211
G1 X178.89 Y114.004 E11.9323
G1 X179.215 Y114.457 E11.9462
G1 X179.664 Y115.219 E11.96827
G1 X179.821 Y115.52 E11.97674
G1 X180.025 Y115.996 E11.98965
G1 X180.242 Y116.628 E12.00632
G1 X180.416 Y117.311 E12.0239
G1 X180.515 Y118.074 E12.0431
G1 X180.536 Y118.587 E12.0559
G1 X180.494 Y119.266 E12.07287
G1 X180.363 Y119.985 E12.09111
G1 X180.173 Y120.578 E12.10664
G1 X179.963 Y121.072 E12.12003
G1 X179.643 Y121.593 E12.13528
G1 X179.469 Y121.844 E12.1429
G1 X179.071 Y122.322 E12.15842
G1 X178.175 Y123.227 E12.19018
G1 X176.288 Y125.19 E12.25811
G1 X175.547 Y125.994 E12.28538
G1 X175.04 Y126.5 E12.30325
G1 X174.617 Y126.846 E12.31688
G1 X174.251 Y127.076 E12.32766
G1 X172.979 Y127.772 E12.36383
G1 X172.362 Y128.102 E12.38129
G1 X169.939 Y129.485 E12.45088
G1 X167.662 Y130.87 E12.51736
G1 X165.343 Y132.373 E12.5863
G1 X162.804 Y134.13 E12.66332
G1 X162.32 Y134.413 E12.67731
G1 X161.813 Y134.655 E12.69132
G1 X161.745 Y134.685 E12.69318
G1 X161.151 Y134.887 E12.70883
G1 X160.638 Y135.013 E12.722
G1 X160.109 Y135.102 E12.73538
G1 X159.399 Y135.097 E12.7531
G1 X158.886 Y135.035 E12.76599
G1 X157.977 Y134.888 E12.78896
G1 X155.209 Y134.475 E12.85877
G1 X152.531 Y134.153 E12.92605
G1 X149.815 Y133.904 E12.99409
G1 X147.088 Y133.732 E13.06225
G1 X144.358 Y133.637 E13.13039
G1 X141.628 Y133.619 E13.19849
G1 X138.9 Y133.678 E13.26656
G1 X136.203 Y133.814 E13.33392
G1 X133.484 Y134.027 E13.40195
G1 X130.732 Y134.321 E13.47099
G1 X128.068 Y134.683 E13.53806
G1 X125.352 Y135.13 E13.60672
G1 X122.697 Y135.645 E13.67418
G1 X119.756 Y136.306 E13.74938
G1 X119.212 Y136.437 E13.76333
G1 X118.574 Y136.531 E13.77942
G1 X118.276 Y136.548 E13.78687
G1 X117.593 Y136.522 E13.80392
G1 X117.132 Y136.46 E13.81552
G1 X114.357 Y136.13 E13.88523
G1 X111.677 Y135.889 E13.95235
G1 X108.946 Y135.719 E14.02061
G1 X106.219 Y135.629 E14.08867
G1 X103.488 Y135.614 E14.1568
G1 X100.77 Y135.677 E14.22462
G1 X96.996 Y135.891 E14.31891
G1 X95.712 Y135.989 E14.35103
G1 X95.505 Y135.998 E14.3562
G1 X94.791 Y136.011 E14.37402
G1 X94.19 Y136.003 E14.38901
G1 X93.594 Y135.944 E14.40395
G1 X92.753 Y135.788 E14.42529
G1 X90.075 Y135.328 E14.49307
G1 X87.362 Y134.942 E14.56143
G1 X84.655 Y134.635 E14.62938
G1 X81.934 Y134.403 E14.69751
G1 X79.241 Y134.25 E14.76479
G1 X76.476 Y134.172 E14.83379
G1 X74.91 Y134.172 E14.87286
G1 X73.191 Y134.164 E14.91574
G1 X70.81 Y134.116 E14.97514
G1 X70.218 Y134.106 E14.98991
G1 X69.554 Y134.058 E15.00652
G1 X66.461 Y133.664 E15.0843
G1 X63.769 Y133.396 E15.15178
G1 X61.053 Y133.204 E15.2197
G1 X58.32 Y133.088 E15.28794
G1 X55.59 Y133.05 E15.35605
G1 X52.86 Y133.088 E15.42415
G1 X50.132 Y133.204 E15.49226
G1 X47.407 Y133.397 E15.56041
G1 X44.713 Y133.665 E15.62794
G1 X43.227 Y133.847 E15.66529
G1 X42.692 Y133.879 E15.67866
G1 X42.152 Y133.872 E15.69213
G1 X41.332 Y133.847 E15.7126
G1 X39.701 Y133.854 E15.75328
G1 X39.513 Y133.841 E15.75798
G1 X38.265 Y133.838 E15.78911
G1 X37.728 Y133.799 E15.80254
G1 X37.231 Y133.718 E15.81511
G1 X36.711 Y133.587 E15.82848
G1 X35.997 Y133.287 E15.8478
G1 X35.665 Y133.124 E15.85703
G1 X35.077 Y132.751 E15.8744
G1 X34.406 Y132.179 E15.89639
G1 X33.879 Y131.583 E15.91624
G1 X33.557 Y131.128 E15.93014
G1 X33.244 Y130.592 E15.94563
G1 X32.952 Y129.956 E15.96308
G1 X32.71 Y129.224 E15.98232
G1 X32.584 Y128.692 E15.99595
G1 X32.478 Y127.904 E16.01579
G1 X32.461 Y127.272 E16.03156
G1 X32.497 Y126.673 E16.04653
G1 X32.55 Y126.254 E16.05706
G1 X32.632 Y125.711 E16.07076
G1 X33.01 Y122.947 E16.14035
G1 X33.3 Y120.264 E16.20767
G1 X33.52 Y117.49 E16.27708
G1 X33.657 Y114.811 E16.344
G1 X33.677 Y113.792 E16.36942
G1 X33.684 Y113.715 E16.37135
G1 X33.745 Y111.661 E16.42261
G1 X33.772 Y111.198 E16.43418
G1 X33.839 Y110.687 E16.44704
G1 X33.92 Y110.305 E16.45678
G1 X34.058 Y109.753 E16.47097
G1 X34.227 Y109.244 E16.48435
G1 X34.489 Y108.721 E16.49894
G1 X34.666 Y108.412 E16.50782
G1 X34.968 Y107.969 E16.5212
G1 X35.311 Y107.596 E16.53384
G1 X35.652 Y107.274 E16.54554
G1 X36.108 Y106.908 E16.56012
G1 X36.745 Y106.518 E16.57876
G1 X37.435 Y106.21 E16.5976
G0 F3600 X37.565 Y106.588
G1 F1200 X37.821 Y106.5 E16.60436
G1 X38.335 Y106.37 E16.61758
G1 X39.059 Y106.271 E16.63581
G1 X39.614 Y106.246 E16.64967
G1 X42.416 Y106.265 E16.71957
G1 X43.447 Y106.255 E16.74529
G1 X44.29 Y106.325 E16.76639
G1 X44.661 Y106.381 E16.77575
G1 X45.334 Y106.516 E16.79287
G1 X46.776 Y106.826 E16.82966
G1 X49.452 Y107.323 E16.89756
G1 X52.202 Y107.753 E16.96699
G1 X54.898 Y108.097 E17.03479
G1 X57.611 Y108.366 E17.1028
G1 X60.352 Y108.559 E17.17134
G1 X63.069 Y108.673 E17.23917
G1 X65.822 Y108.711 E17.30786
G1 X68.573 Y108.671 E17.37649
G1 X71.289 Y108.555 E17.4443
G1 X74.04 Y108.359 E17.5131
G1 X76.743 Y108.09 E17.58086
G1 X79.472 Y107.74 E17.64949
G1 X82.162 Y107.318 E17.71741
G1 X84.86 Y106.815 E17.78587
G1 X87.554 Y106.233 E17.85463
G1 X90.174 Y105.591 E17.92192
G1 X92.118 Y105.054 E17.97223
G1 X92.576 Y104.936 E17.98402
G1 X93.284 Y104.836 E18.00186
G1 X93.694 Y104.826 E18.01209
G1 X95.476 Y104.826 E18.05654
G1 X96.183 Y104.837 E18.07418
G1 X96.686 Y104.885 E18.08679
G1 X97.286 Y105.049 E18.1023
G1 X99.925 Y105.898 E18.17145
G1 X102.588 Y106.674 E18.24065
G1 X105.202 Y107.355 E18.30803
G1 X107.898 Y107.978 E18.37705
G1 X110.564 Y108.511 E18.44487
G1 X113.266 Y108.975 E18.51326
G1 X115.992 Y109.365 E18.58195
G1 X119.094 Y109.721 E18.65984
G1 X120.378 Y109.905 E18.6922
G1 X120.48 Y109.91 E18.69475
G1 X121.873 Y110.11 E18.72985
G1 X124.571 Y110.419 E18.79759
G1 X127.285 Y110.653 E18.86554
G1 X130.033 Y110.811 E18.93421
G1 X132.783 Y110.891 E19.00283
G1 X135.501 Y110.894 E19.07064
G1 X138.254 Y110.819 E19.13934
G1 X140.971 Y110.668 E19.20722
G1 X143.706 Y110.439 E19.27568
G1 X146.451 Y110.129 E19.34459
G1 X149.104 Y109.754 E19.41143
G1 X151.23 Y109.401 E19.46519
G1 X152.069 Y109.251 E19.48645
G1 X152.713 Y109.171 E19.50263
G1 X155.472 Y109 E19.57159
G1 X158.179 Y108.756 E19.63939
G1 X160.925 Y108.431 E19.70837
G1 X162.109 Y108.257 E19.73822
G1 X162.189 Y108.252 E19.74022
G1 X163.522 Y108.059 E19.77382
G1 X164.085 Y108.018 E19.7879
G1 X164.433 Y108.016 E19.79658
G1 X164.937 Y108.053 E19.80919
G1 X165.628 Y108.226 E19.82696
G1 X166.015 Y108.366 E19.83722
G1 X166.991 Y108.793 E19.8638
G1 X169.545 Y109.87 E19.93294
G1 X172.078 Y110.855 E20.00073
G1 X174.67 Y111.778 E20.06937
G1 X176.099 Y112.263 E20.10701
G1 X176.69 Y112.533 E20.12322
G1 X177.048 Y112.743 E20.13357
G1 X177.463 Y113.032 E20.14619
G1 X177.83 Y113.377 E20.15875
G1 X178.301 Y113.896 E20.17624
G1 X178.565 Y114.238 E20.18701
G1 X178.89 Y114.691 E20.20092
G1 X179.314 Y115.412 E20.22179
G1 X179.647 Y116.126 E20.24144
G1 X179.823 Y116.635 E20.25487
G1 X180.021 Y117.375 E20.27398
G1 X180.118 Y118.119 E20.2927
G1 X180.133 Y118.71 E20.30745
G1 X180.095 Y119.235 E20.32058
G1 X179.979 Y119.874 E20.33678
