;FLAVOR:Marlin
;TIME:1954
;Filament used: 1.30447m
;Layer height: 0.2
;MINX:71.71
;MINY:86.81
;MINZ:0.15
;MAXX:129.989
;MAXY:153.19
;MAXZ:9.35
;Generated with Cura_SteamEngine 4.8.0
M140 S60
M105
M190 S60
M104 S200
M105
M109 S200
M82 ;absolute extrusion mode
G92 E0 ;
G28 ;
G1 Z5 F5000 ;
G29 ;
G92 E0
G92 E0
G1 F3000 E-3
;LAYER_COUNT:47
;LAYER:0
M107
G0 F3600 X77.415 Y102.11 Z0.15
;TYPE:SKIRT
G1 F3000 E0
G1 F1200 X77.972 Y101.736 E0.01674
G1 X78.749 Y101.262 E0.03944
G1 X80.385 Y100.318 E0.08656
G1 X82.631 Y98.936 E0.15234
G1 X84.825 Y97.499 E0.21776
G1 X87.006 Y95.982 E0.28404
G1 X89.107 Y94.429 E0.34921
G1 X91.195 Y92.794 E0.41536
G1 X93.258 Y91.08 E0.48227
G1 X94.043 Y90.401 E0.50816
G1 X94.13 Y90.329 E0.51098
G1 X94.59 Y89.98 E0.52538
G1 X95.164 Y89.586 E0.54275
G1 X95.417 Y89.422 E0.55027
G1 X96.075 Y89.046 E0.56917
G1 X96.634 Y88.77 E0.58472
G1 X97.331 Y88.461 E0.60374
G1 X97.829 Y88.272 E0.61703
G1 X98.322 Y88.103 E0.63003
G1 X99.023 Y87.894 E0.64828
G1 X99.53 Y87.763 E0.66134
G1 X99.72 Y87.718 E0.66621
G1 X100.339 Y87.582 E0.68202
G1 X100.546 Y87.54 E0.68729
G1 X101.16 Y87.425 E0.70287
G1 X101.456 Y87.376 E0.71036
G1 X102.541 Y87.222 E0.73769
G1 X103.426 Y87.12 E0.75992
G1 X104.395 Y87.023 E0.78421
G1 X104.803 Y86.991 E0.79442
G1 X105.517 Y86.944 E0.81227
G1 X105.975 Y86.91 E0.82372
G1 X106.591 Y86.878 E0.83911
G1 X106.764 Y86.871 E0.84343
G1 X107.292 Y86.857 E0.8566
G1 X107.854 Y86.835 E0.87063
G1 X108.447 Y86.821 E0.88543
G1 X109.214 Y86.813 E0.90456
G1 X110.336 Y86.81 E0.93255
G1 X111.147 Y86.816 E0.95278
G1 X112.141 Y86.833 E0.97758
G1 X112.966 Y86.859 E0.99817
G1 X113.667 Y86.89 E1.01568
G1 X114.382 Y86.931 E1.03354
G1 X115.156 Y86.985 E1.0529
G1 X115.768 Y87.037 E1.06822
G1 X116.487 Y87.107 E1.08624
G1 X116.886 Y87.152 E1.09625
G1 X117.513 Y87.232 E1.11202
G1 X117.704 Y87.259 E1.11683
G1 X119.077 Y87.474 E1.1515
G1 X119.695 Y87.588 E1.16718
G1 X120.197 Y87.696 E1.17999
G1 X120.738 Y87.83 E1.19389
G1 X121.415 Y88.022 E1.21144
G1 X122.241 Y88.304 E1.23321
G1 X122.772 Y88.513 E1.24745
G1 X123.21 Y88.7 E1.25933
G1 X123.711 Y88.943 E1.27322
G1 X124.194 Y89.203 E1.2869
G1 X124.588 Y89.427 E1.29821
G1 X125.363 Y89.946 E1.32148
G1 X125.792 Y90.284 E1.3351
G1 X126.135 Y90.569 E1.34622
G1 X126.693 Y91.088 E1.36523
G1 X127.146 Y91.583 E1.38197
G1 X127.407 Y91.885 E1.39193
G1 X127.887 Y92.511 E1.41161
G1 X128.262 Y93.069 E1.42838
G1 X128.405 Y93.295 E1.43505
G1 X128.789 Y93.988 E1.45481
G1 X129.138 Y94.766 E1.47608
G1 X129.416 Y95.535 E1.49648
G1 X129.573 Y96.069 E1.51036
G1 X129.611 Y96.207 E1.51393
G1 X129.759 Y96.873 E1.53095
G1 X129.857 Y97.45 E1.54555
G1 X129.908 Y97.8 E1.55438
G1 X129.963 Y98.381 E1.56893
G1 X129.983 Y98.895 E1.58177
G1 X129.986 Y99.32 E1.59237
G1 X129.966 Y99.89 E1.60659
G1 X129.9 Y100.734 E1.62771
G1 X129.757 Y102.345 E1.66806
G1 X129.594 Y105.042 E1.73546
G1 X129.511 Y107.627 E1.79997
G1 X129.5 Y110.282 E1.8662
G1 X129.565 Y112.93 E1.93228
G1 X129.703 Y115.526 E1.99713
G1 X129.843 Y117.134 E2.03739
G1 X129.848 Y117.29 E2.04128
G1 X129.95 Y118.577 E2.07349
G1 X129.983 Y119.294 E2.09139
G1 X129.986 Y119.721 E2.10204
G1 X129.967 Y120.283 E2.11607
G1 X129.943 Y120.58 E2.1235
G1 X129.711 Y123.2 E2.18912
G1 X129.551 Y125.854 E2.25544
G1 X129.467 Y128.508 E2.32168
G1 X129.457 Y131.131 E2.38711
G1 X129.522 Y133.781 E2.45323
G1 X129.659 Y136.364 E2.51776
G1 X129.827 Y138.277 E2.56566
G1 X129.83 Y138.377 E2.56816
G1 X129.95 Y139.855 E2.60515
G1 X129.989 Y140.736 E2.62715
G1 X129.976 Y141.408 E2.64391
G1 X129.899 Y142.259 E2.66523
G1 X129.813 Y142.83 E2.67963
G1 X129.711 Y143.354 E2.69295
G1 X129.594 Y143.852 E2.70571
G1 X129.479 Y144.239 E2.71578
G1 X129.248 Y144.936 E2.7341
G1 X128.883 Y145.823 E2.75802
G1 X128.64 Y146.292 E2.7712
G1 X128.459 Y146.614 E2.78041
G1 X128.032 Y147.28 E2.80015
G1 X127.641 Y147.818 E2.81674
G1 X127.411 Y148.119 E2.82619
G1 X126.901 Y148.7 E2.84547
G1 X126.524 Y149.075 E2.85874
G1 X126.17 Y149.406 E2.87083
G1 X125.394 Y150.032 E2.8957
G1 X124.836 Y150.414 E2.91257
G1 X124.583 Y150.578 E2.92009
G1 X123.932 Y150.951 E2.9388
G1 X123.366 Y151.23 E2.95454
G1 X122.673 Y151.537 E2.97345
G1 X122.158 Y151.732 E2.98719
G1 X121.618 Y151.916 E3.00142
G1 X120.946 Y152.115 E3.0189
G1 X120.271 Y152.284 E3.03626
G1 X119.653 Y152.419 E3.05204
G1 X119.454 Y152.46 E3.05711
G1 X118.84 Y152.575 E3.07269
G1 X118.543 Y152.624 E3.0802
G1 X117.457 Y152.778 E3.10756
G1 X116.575 Y152.88 E3.12971
G1 X115.605 Y152.977 E3.15403
G1 X115.197 Y153.009 E3.16424
G1 X114.483 Y153.056 E3.18208
G1 X114.025 Y153.09 E3.19354
G1 X113.41 Y153.122 E3.2089
G1 X113.237 Y153.129 E3.21322
G1 X112.708 Y153.143 E3.22642
G1 X112.262 Y153.161 E3.23756
G1 X111.553 Y153.179 E3.25525
G1 X110.786 Y153.187 E3.27438
G1 X109.665 Y153.19 E3.30235
G1 X108.853 Y153.184 E3.3226
G1 X107.859 Y153.167 E3.3474
G1 X107.034 Y153.141 E3.36799
G1 X106.333 Y153.11 E3.38549
G1 X105.618 Y153.069 E3.40336
G1 X104.844 Y153.015 E3.42271
G1 X104.232 Y152.963 E3.43804
G1 X103.513 Y152.893 E3.45606
G1 X103.114 Y152.848 E3.46607
G1 X102.487 Y152.768 E3.48184
G1 X102.296 Y152.741 E3.48665
G1 X100.923 Y152.526 E3.52132
G1 X100.305 Y152.412 E3.53699
G1 X99.803 Y152.304 E3.5498
G1 X99.262 Y152.17 E3.56371
G1 X98.585 Y151.978 E3.58126
G1 X97.759 Y151.696 E3.60303
G1 X97.228 Y151.487 E3.61727
G1 X96.784 Y151.298 E3.62931
G1 X96.286 Y151.055 E3.64313
G1 X95.805 Y150.796 E3.65676
G1 X95.395 Y150.563 E3.66852
G1 X94.624 Y150.044 E3.6917
G1 X94.195 Y149.706 E3.70533
G1 X93.333 Y148.989 E3.7333
G1 X92.136 Y147.969 E3.77253
G1 X90.086 Y146.319 E3.83817
G1 X87.967 Y144.71 E3.90454
G1 X85.842 Y143.19 E3.96971
G1 X83.635 Y141.704 E4.03608
G1 X81.442 Y140.314 E4.10085
G1 X78.191 Y138.407 E4.19487
G1 X77.628 Y138.038 E4.21166
G1 X77.072 Y137.633 E4.22882
G1 X76.748 Y137.384 E4.23901
G1 X76.197 Y136.898 E4.25734
G1 X75.825 Y136.524 E4.2705
G1 X75.494 Y136.17 E4.28259
G1 X74.868 Y135.394 E4.30746
G1 X74.486 Y134.836 E4.32433
G1 X74.322 Y134.583 E4.33185
G1 X73.946 Y133.925 E4.35075
G1 X73.667 Y133.361 E4.36645
G1 X73.369 Y132.688 E4.38481
G1 X73.168 Y132.158 E4.39895
G1 X72.984 Y131.618 E4.41318
G1 X72.787 Y130.952 E4.43051
G1 X72.619 Y130.284 E4.44769
G1 X72.482 Y129.662 E4.46358
G1 X72.438 Y129.446 E4.46908
G1 X72.324 Y128.835 E4.48458
G1 X72.276 Y128.544 E4.49194
G1 X72.122 Y127.459 E4.51927
G1 X72.02 Y126.567 E4.54167
G1 X71.923 Y125.605 E4.56579
G1 X71.891 Y125.197 E4.576
G1 X71.844 Y124.483 E4.59385
G1 X71.79 Y123.659 E4.61445
G1 X71.771 Y123.236 E4.62501
G1 X71.757 Y122.708 E4.63818
G1 X71.735 Y122.146 E4.65221
G1 X71.721 Y121.554 E4.66699
G1 X71.712 Y120.709 E4.68807
G1 X71.71 Y119.655 E4.71436
G1 X71.716 Y118.857 E4.73426
G1 X71.73 Y117.982 E4.75609
G1 X71.742 Y117.529 E4.7674
G1 X71.766 Y116.853 E4.78427
G1 X71.796 Y116.21 E4.80033
G1 X71.831 Y115.618 E4.81512
G1 X71.885 Y114.845 E4.83445
G1 X71.937 Y114.235 E4.84972
G1 X72.007 Y113.512 E4.86784
G1 X72.052 Y113.112 E4.87788
G1 X72.132 Y112.486 E4.89363
G1 X72.159 Y112.297 E4.89839
G1 X72.374 Y110.923 E4.93308
G1 X72.489 Y110.302 E4.94883
G1 X72.594 Y109.817 E4.96121
G1 X72.727 Y109.275 E4.97513
G1 X72.924 Y108.579 E4.99318
G1 X73.204 Y107.759 E5.01479
G1 X73.413 Y107.228 E5.02903
G1 X73.595 Y106.8 E5.04063
G1 X73.843 Y106.288 E5.05482
G1 X74.103 Y105.805 E5.0685
G1 X74.344 Y105.384 E5.08061
G1 X74.856 Y104.624 E5.10346
G1 X75.195 Y104.195 E5.1171
G1 X75.479 Y103.854 E5.12817
G1 X75.995 Y103.301 E5.14704
G1 X76.371 Y102.954 E5.1598
G1 X76.779 Y102.598 E5.17331
G1 X77.415 Y102.11 E5.19331
G0 F3600 X77.639 Y102.441
G1 F1200 X78.186 Y102.074 E5.20974
G1 X78.954 Y101.606 E5.23217
G1 X80.589 Y100.662 E5.27927
G1 X82.839 Y99.279 E5.34515
G1 X85.068 Y97.819 E5.41162
G1 X87.227 Y96.316 E5.47724
G1 X89.346 Y94.75 E5.54297
G1 X91.452 Y93.101 E5.60969
G1 X93.492 Y91.406 E5.67585
G1 X94.298 Y90.709 E5.70243
G1 X94.385 Y90.637 E5.70525
G1 X94.818 Y90.309 E5.7188
G1 X95.382 Y89.922 E5.73586
G1 X95.635 Y89.758 E5.74338
G1 X96.254 Y89.404 E5.76117
G1 X96.802 Y89.133 E5.77642
G1 X97.477 Y88.833 E5.79485
G1 X97.959 Y88.651 E5.8077
G1 X98.452 Y88.482 E5.8207
G1 X99.133 Y88.278 E5.83843
G1 X99.627 Y88.151 E5.85116
G1 X99.806 Y88.109 E5.85574
G1 X100.425 Y87.973 E5.87155
G1 X100.62 Y87.933 E5.87652
G1 X101.234 Y87.818 E5.8921
G1 X101.513 Y87.773 E5.89915
G1 X102.598 Y87.619 E5.92649
G1 X103.474 Y87.517 E5.94849
G1 X104.427 Y87.422 E5.97238
G1 X104.829 Y87.391 E5.98244
G1 X105.509 Y87.347 E5.99943
G1 X105.996 Y87.31 E6.01162
G1 X106.774 Y87.271 E6.03105
G1 X107.754 Y87.238 E6.05551
G1 X108.452 Y87.221 E6.07293
G1 X109.215 Y87.213 E6.09196
G1 X110.333 Y87.21 E6.11985
G1 X111.14 Y87.216 E6.13998
G1 X112.128 Y87.233 E6.16463
G1 X112.949 Y87.259 E6.18512
G1 X113.645 Y87.289 E6.2025
G1 X114.354 Y87.33 E6.22021
G1 X115.122 Y87.384 E6.23942
G1 X115.729 Y87.435 E6.25461
G1 X116.444 Y87.505 E6.27253
G1 X116.835 Y87.548 E6.28235
G1 X117.462 Y87.628 E6.29811
G1 X117.642 Y87.654 E6.30265
G1 X119.015 Y87.869 E6.33732
G1 X119.62 Y87.981 E6.35267
G1 X120.101 Y88.085 E6.36494
G1 X120.642 Y88.219 E6.37885
G1 X121.292 Y88.403 E6.3957
G1 X122.095 Y88.677 E6.41686
G1 X122.626 Y88.886 E6.4311
G1 X123.05 Y89.066 E6.44259
G1 X123.522 Y89.296 E6.45568
G1 X124.005 Y89.556 E6.46937
G1 X124.388 Y89.773 E6.48035
G1 X125.118 Y90.263 E6.50228
G1 X125.536 Y90.592 E6.51555
G1 X125.879 Y90.877 E6.52667
G1 X126.404 Y91.365 E6.54455
G1 X126.843 Y91.844 E6.56076
G1 X127.104 Y92.146 E6.57072
G1 X127.556 Y92.735 E6.58924
G1 X127.924 Y93.283 E6.60571
G1 X128.067 Y93.509 E6.61238
G1 X128.429 Y94.162 E6.631
G1 X128.771 Y94.925 E6.65186
G1 X129.033 Y95.648 E6.67104
G1 X129.187 Y96.175 E6.68474
G1 X129.225 Y96.313 E6.68831
G1 X129.365 Y96.94 E6.70433
G1 X129.463 Y97.517 E6.71893
G1 X129.512 Y97.854 E6.72743
G1 X129.564 Y98.401 E6.74114
G1 X129.586 Y99.323 E6.76414
G1 X129.567 Y99.859 E6.77752
G1 X129.502 Y100.699 E6.79854
G1 X129.355 Y102.358 E6.84008
G1 X129.197 Y104.97 E6.90536
G1 X129.111 Y107.648 E6.9722
G1 X129.1 Y110.291 E7.03813
G1 X129.165 Y112.927 E7.1039
G1 X129.304 Y115.549 E7.1694
G1 X129.445 Y117.168 E7.20994
G1 X129.45 Y117.336 E7.21413
G1 X129.551 Y118.609 E7.24599
G1 X129.583 Y119.297 E7.26317
G1 X129.586 Y119.724 E7.27382
G1 X129.568 Y120.253 E7.28702
G1 X129.545 Y120.545 E7.29433
G1 X129.309 Y123.212 E7.36112
G1 X129.152 Y125.817 E7.42622
G1 X129.067 Y128.487 E7.49285
G1 X129.057 Y131.139 E7.55901
G1 X129.122 Y133.778 E7.62486
G1 X129.26 Y136.39 E7.69011
G1 X129.429 Y138.312 E7.73824
G1 X129.432 Y138.423 E7.74101
G1 X129.551 Y139.888 E7.77767
G1 X129.589 Y140.749 E7.79917
G1 X129.577 Y141.381 E7.81494
G1 X129.501 Y142.217 E7.83588
G1 X129.42 Y142.754 E7.84943
G1 X129.318 Y143.278 E7.86274
G1 X129.099 Y144.113 E7.88428
G1 X128.868 Y144.81 E7.90259
G1 X128.524 Y145.645 E7.92512
G1 X128.291 Y146.096 E7.93778
G1 X128.11 Y146.418 E7.947
G1 X127.708 Y147.045 E7.96558
G1 X127.317 Y147.583 E7.98217
G1 X127.096 Y147.872 E7.99124
G1 X126.616 Y148.42 E8.00941
G1 X126.251 Y148.783 E8.02226
G1 X125.897 Y149.114 E8.03434
G1 X125.166 Y149.703 E8.05776
G1 X124.618 Y150.078 E8.07433
G1 X124.365 Y150.242 E8.08185
G1 X123.752 Y150.593 E8.09947
G1 X123.198 Y150.867 E8.11489
G1 X122.527 Y151.165 E8.1332
G1 X122.029 Y151.353 E8.14648
G1 X121.489 Y151.537 E8.16071
G1 X120.838 Y151.73 E8.17765
G1 X120.186 Y151.894 E8.19442
G1 X119.568 Y152.029 E8.2102
G1 X119.38 Y152.067 E8.21498
G1 X118.766 Y152.182 E8.23057
G1 X118.487 Y152.228 E8.23762
G1 X117.401 Y152.382 E8.26498
G1 X116.527 Y152.483 E8.28693
G1 X115.573 Y152.578 E8.31084
G1 X115.171 Y152.609 E8.3209
G1 X114.491 Y152.653 E8.3379
G1 X114.005 Y152.69 E8.35006
G1 X113.226 Y152.729 E8.36951
G1 X112.746 Y152.742 E8.38149
G1 X112.137 Y152.765 E8.39669
G1 X111.548 Y152.779 E8.41139
G1 X110.785 Y152.787 E8.43042
G1 X109.668 Y152.79 E8.45829
G1 X108.86 Y152.784 E8.47844
G1 X107.872 Y152.767 E8.50309
G1 X107.051 Y152.741 E8.52358
G1 X106.355 Y152.711 E8.54096
G1 X105.646 Y152.67 E8.55868
G1 X104.878 Y152.616 E8.57788
G1 X104.271 Y152.565 E8.59308
G1 X103.556 Y152.495 E8.611
G1 X103.165 Y152.452 E8.62081
G1 X102.538 Y152.372 E8.63658
G1 X102.358 Y152.346 E8.64112
G1 X100.985 Y152.131 E8.67578
G1 X100.38 Y152.019 E8.69113
G1 X99.899 Y151.915 E8.70341
G1 X99.358 Y151.781 E8.71731
G1 X98.708 Y151.597 E8.73416
G1 X97.905 Y151.323 E8.75533
G1 X97.374 Y151.114 E8.76956
G1 X96.945 Y150.931 E8.7812
G1 X96.476 Y150.703 E8.7942
G1 X95.995 Y150.444 E8.80783
G1 X95.595 Y150.216 E8.81932
G1 X94.87 Y149.728 E8.84112
G1 X94.451 Y149.398 E8.85442
G1 X93.592 Y148.685 E8.88227
G1 X92.384 Y147.655 E8.92187
G1 X90.312 Y145.987 E8.98822
G1 X88.219 Y144.399 E9.05376
G1 X86.053 Y142.849 E9.1202
G1 X83.892 Y141.394 E9.18519
G1 X81.636 Y139.965 E9.2518
G1 X78.393 Y138.062 E9.3456
G1 X77.864 Y137.715 E9.36138
G1 X77.308 Y137.31 E9.37854
G1 X76.996 Y137.07 E9.38836
G1 X76.477 Y136.613 E9.40561
G1 X76.117 Y136.251 E9.41834
G1 X75.786 Y135.897 E9.43043
G1 X75.197 Y135.166 E9.45385
G1 X74.822 Y134.618 E9.47041
G1 X74.658 Y134.365 E9.47794
G1 X74.304 Y133.746 E9.49572
G1 X74.031 Y133.193 E9.51111
G1 X73.741 Y132.542 E9.52889
G1 X73.547 Y132.029 E9.54257
G1 X73.363 Y131.489 E9.5568
G1 X73.172 Y130.844 E9.57358
G1 X73.01 Y130.198 E9.59019
G1 X72.873 Y129.576 E9.60608
G1 X72.832 Y129.373 E9.61125
G1 X72.718 Y128.762 E9.62675
G1 X72.673 Y128.487 E9.6337
G1 X72.519 Y127.402 E9.66104
G1 X72.417 Y126.52 E9.68319
G1 X72.322 Y125.573 E9.70693
G1 X72.291 Y125.171 E9.71698
G1 X72.247 Y124.491 E9.73398
G1 X72.19 Y123.637 E9.75533
G1 X72.158 Y122.744 E9.77762
G1 X72.135 Y122.137 E9.79278
G1 X72.121 Y121.55 E9.80742
G1 X72.112 Y120.708 E9.82843
G1 X72.11 Y119.657 E9.85465
G1 X72.116 Y118.863 E9.87445
G1 X72.13 Y117.992 E9.89618
G1 X72.142 Y117.543 E9.90739
G1 X72.166 Y116.871 E9.92416
G1 X72.195 Y116.233 E9.94009
G1 X72.23 Y115.646 E9.95476
G1 X72.284 Y114.879 E9.97394
G1 X72.335 Y114.274 E9.98909
G1 X72.405 Y113.555 E10.00711
G1 X72.449 Y113.163 E10.01695
G1 X72.529 Y112.537 E10.03269
G1 X72.554 Y112.359 E10.03717
G1 X72.769 Y110.985 E10.07186
G1 X72.882 Y110.377 E10.08729
G1 X72.982 Y109.913 E10.09913
G1 X73.115 Y109.371 E10.11305
G1 X73.304 Y108.703 E10.13037
G1 X73.577 Y107.905 E10.15141
G1 X73.786 Y107.374 E10.16564
G1 X73.962 Y106.959 E10.17689
G1 X74.196 Y106.477 E10.19025
G1 X74.456 Y105.994 E10.20394
G1 X74.69 Y105.585 E10.21569
G1 X75.172 Y104.87 E10.2372
G1 X75.502 Y104.451 E10.25051
G1 X75.786 Y104.11 E10.26158
G1 X76.272 Y103.589 E10.27935
G1 X76.742 Y103.16 E10.29522
G1 X77.041 Y102.901 E10.30509
G1 X77.639 Y102.441 E10.32391
G0 F3600 X77.864 Y102.772
G1 F1200 X78.4 Y102.412 E10.34002
G1 X79.159 Y101.949 E10.3622
G1 X80.803 Y101 E10.40955
G1 X83.036 Y99.627 E10.47494
G1 X85.293 Y98.149 E10.54224
G1 X87.447 Y96.65 E10.6077
G1 X89.624 Y95.041 E10.67523
G1 X91.688 Y93.425 E10.74062
G1 X93.772 Y91.693 E10.80821
G1 X94.446 Y91.108 E10.83047
G1 X94.64 Y90.946 E10.83678
G1 X95.046 Y90.638 E10.84949
G1 X95.599 Y90.257 E10.86624
G1 X95.852 Y90.093 E10.87376
G1 X96.433 Y89.761 E10.89046
G1 X96.97 Y89.496 E10.90539
G1 X97.623 Y89.206 E10.92322
G1 X98.088 Y89.029 E10.93563
G1 X98.581 Y88.86 E10.94863
G1 X99.243 Y88.663 E10.96586
G1 X99.891 Y88.5 E10.98253
G1 X100.51 Y88.364 E10.99834
G1 X100.693 Y88.327 E11.00299
G1 X101.307 Y88.212 E11.01858
G1 X101.569 Y88.169 E11.0252
G1 X102.654 Y88.015 E11.05254
G1 X103.522 Y87.914 E11.07433
G1 X104.307 Y87.834 E11.09402
G1 X104.855 Y87.79 E11.10773
G1 X105.501 Y87.748 E11.12388
G1 X106.017 Y87.709 E11.13679
G1 X106.633 Y87.677 E11.15218
G1 X107.284 Y87.658 E11.16842
G1 X107.873 Y87.635 E11.18313
G1 X108.456 Y87.621 E11.19767
G1 X109.216 Y87.613 E11.21663
G1 X110.33 Y87.61 E11.24442
G1 X111.133 Y87.616 E11.26445
G1 X112.116 Y87.633 E11.28898
G1 X112.932 Y87.658 E11.30934
G1 X113.622 Y87.688 E11.32657
G1 X114.326 Y87.729 E11.34416
G1 X115.089 Y87.783 E11.36324
G1 X115.69 Y87.833 E11.37829
G1 X116.401 Y87.902 E11.39611
G1 X116.784 Y87.945 E11.40572
G1 X117.411 Y88.025 E11.42149
G1 X117.58 Y88.049 E11.42574
G1 X118.953 Y88.264 E11.46041
G1 X119.545 Y88.374 E11.47543
G1 X120.005 Y88.473 E11.48717
G1 X120.546 Y88.607 E11.50107
G1 X121.168 Y88.783 E11.5172
G1 X121.948 Y89.049 E11.53775
G1 X122.479 Y89.258 E11.55199
