;FLAVOR:Marlin
;TIME:2292
;Filament used: 1.75583m
;Layer height: 0.2
;MINX:76.975
;MINY:92.575
;MINZ:0.15
;MAXX:128.148
;MAXY:147.425
;MAXZ:11.55
;Generated with Cura_SteamEngine 4.8.0
M140 S60
M105
M190 S60
M104 S200
M105
M109 S200
M82 ;absolute extrusion mode
G92 E0 ;
G28 ;
G1 Z5 F5000 ;
G29 ;
G92 E0
G92 E0
G1 F3000 E-3
;LAYER_COUNT:58
;LAYER:0
M107
G0 F3600 X81.492 Y104.04 Z0.15
;TYPE:SKIRT
G1 F3000 E0
G1 F1200 X81.91 Y103.717 E0.01318
G1 X82.517 Y103.299 E0.03156
G1 X83.186 Y102.931 E0.05061
G1 X85.111 Y101.95 E0.1045
G1 X87.466 Y100.666 E0.17141
G1 X89.715 Y99.356 E0.23634
G1 X91.943 Y97.973 E0.30175
G1 X95.014 Y95.921 E0.39389
G1 X96.072 Y95.184 E0.42605
G1 X96.495 Y94.91 E0.43862
G1 X97.024 Y94.61 E0.45379
G1 X97.555 Y94.347 E0.46857
G1 X98.087 Y94.112 E0.48308
G1 X98.676 Y93.884 E0.49884
G1 X99.32 Y93.672 E0.51575
G1 X99.873 Y93.513 E0.5301
G1 X100.665 Y93.33 E0.55038
G1 X101.162 Y93.233 E0.56301
G1 X102.397 Y93.033 E0.59422
G1 X102.615 Y93.002 E0.59971
G1 X103.427 Y92.899 E0.62013
G1 X104.247 Y92.812 E0.6407
G1 X105.423 Y92.715 E0.67014
G1 X106.081 Y92.672 E0.68659
G1 X106.587 Y92.646 E0.69922
G1 X107.229 Y92.619 E0.71525
G1 X107.912 Y92.599 E0.7323
G1 X108.484 Y92.587 E0.74657
G1 X109.09 Y92.579 E0.76169
G1 X110.295 Y92.575 E0.79175
G1 X111.056 Y92.58 E0.81073
G1 X112.391 Y92.606 E0.84404
G1 X112.712 Y92.617 E0.85205
G1 X113.533 Y92.651 E0.87255
G1 X114.112 Y92.683 E0.88701
G1 X114.757 Y92.726 E0.90314
G1 X115.301 Y92.77 E0.91675
G1 X116.028 Y92.839 E0.93497
G1 X116.979 Y92.948 E0.95885
G1 X117.169 Y92.973 E0.96363
G1 X118.244 Y93.128 E0.99072
G1 X118.911 Y93.241 E1.0076
G1 X119.577 Y93.382 E1.02458
G1 X119.794 Y93.434 E1.03015
G1 X120.34 Y93.575 E1.04421
G1 X120.975 Y93.76 E1.06071
G1 X121.792 Y94.056 E1.08239
G1 X122.286 Y94.263 E1.09575
G1 X122.886 Y94.555 E1.11239
G1 X123.752 Y95.072 E1.13755
G1 X124.305 Y95.47 E1.15455
G1 X124.865 Y95.934 E1.17269
G1 X125.424 Y96.478 E1.19215
G1 X125.966 Y97.1 E1.21273
G1 X126.288 Y97.518 E1.22589
G1 X126.706 Y98.126 E1.24429
G1 X127.037 Y98.737 E1.26163
G1 X127.251 Y99.198 E1.27431
G1 X127.396 Y99.534 E1.28344
G1 X127.71 Y100.427 E1.30705
G1 X127.846 Y100.952 E1.32058
G1 X127.965 Y101.49 E1.33432
G1 X128.084 Y102.218 E1.35272
G1 X128.131 Y102.881 E1.3693
G1 X128.148 Y103.524 E1.38535
G1 X128.135 Y104.089 E1.39945
G1 X128.043 Y105.524 E1.43532
G1 X128.027 Y105.73 E1.44047
G1 X127.897 Y108.378 E1.5066
G1 X127.843 Y111.031 E1.5728
G1 X127.863 Y113.653 E1.63821
G1 X127.96 Y116.323 E1.70485
G1 X128.092 Y118.47 E1.75851
G1 X128.131 Y119.084 E1.77386
G1 X128.148 Y119.716 E1.78963
G1 X128.135 Y120.291 E1.80398
G1 X128.072 Y121.264 E1.8283
G1 X127.998 Y122.218 E1.85217
G1 X127.864 Y124.91 E1.9194
G1 X127.809 Y127.495 E1.9839
G1 X127.827 Y130.15 E2.05013
G1 X127.922 Y132.814 E2.11663
G1 X128.086 Y135.424 E2.18186
G1 X128.127 Y136.075 E2.19813
G1 X128.141 Y136.605 E2.21136
G1 X128.118 Y137.342 E2.22975
G1 X128.064 Y137.796 E2.24116
G1 X127.973 Y138.387 E2.25607
G1 X127.912 Y138.735 E2.26489
G1 X127.662 Y139.689 E2.28949
G1 X127.454 Y140.292 E2.3054
G1 X127.393 Y140.456 E2.30977
G1 X127.061 Y141.207 E2.33025
G1 X126.953 Y141.416 E2.33612
G1 X126.58 Y142.051 E2.35449
G1 X126.293 Y142.452 E2.36679
G1 X125.895 Y142.967 E2.38302
G1 X125.37 Y143.569 E2.40295
G1 X125.17 Y143.773 E2.41008
G1 X124.653 Y144.249 E2.42761
G1 X124.396 Y144.462 E2.43593
G1 X123.652 Y144.998 E2.45881
G1 X123.214 Y145.259 E2.47153
G1 X122.976 Y145.39 E2.4783
G1 X122.445 Y145.653 E2.49308
G1 X121.913 Y145.888 E2.50759
G1 X121.324 Y146.116 E2.52335
G1 X120.68 Y146.328 E2.54026
G1 X120.127 Y146.487 E2.55461
G1 X119.335 Y146.67 E2.57489
G1 X118.838 Y146.767 E2.58752
G1 X117.603 Y146.967 E2.61873
G1 X117.385 Y146.998 E2.62422
G1 X116.573 Y147.101 E2.64464
G1 X115.753 Y147.188 E2.66521
G1 X114.577 Y147.285 E2.69465
G1 X113.919 Y147.328 E2.71109
G1 X113.413 Y147.354 E2.72373
G1 X112.771 Y147.381 E2.73976
G1 X112.088 Y147.401 E2.75681
G1 X111.514 Y147.413 E2.77113
G1 X110.898 Y147.421 E2.7865
G1 X109.705 Y147.425 E2.81626
G1 X108.944 Y147.42 E2.83524
G1 X107.611 Y147.394 E2.8685
G1 X107.288 Y147.383 E2.87656
G1 X106.467 Y147.349 E2.89706
G1 X105.888 Y147.317 E2.91152
G1 X105.242 Y147.274 E2.92767
G1 X104.701 Y147.23 E2.94121
G1 X103.973 Y147.161 E2.95945
G1 X103.021 Y147.052 E2.98336
G1 X102.829 Y147.027 E2.98819
G1 X101.755 Y146.872 E3.01526
G1 X101.089 Y146.759 E3.03211
G1 X100.426 Y146.619 E3.04901
G1 X100.21 Y146.567 E3.05455
G1 X99.666 Y146.427 E3.06856
G1 X99.025 Y146.24 E3.08522
G1 X98.212 Y145.947 E3.10678
G1 X97.7 Y145.73 E3.12065
G1 X97.114 Y145.445 E3.1369
G1 X96.27 Y144.944 E3.16139
G1 X95.168 Y144.177 E3.19488
G1 X95.011 Y144.079 E3.1995
G1 X93.996 Y143.371 E3.23037
G1 X91.796 Y141.927 E3.29601
G1 X89.515 Y140.522 E3.36284
G1 X87.283 Y139.233 E3.42713
G1 X84.526 Y137.75 E3.50523
G1 X82.979 Y136.95 E3.54867
G1 X82.344 Y136.576 E3.56705
G1 X81.943 Y136.289 E3.57936
G1 X81.431 Y135.893 E3.5955
G1 X80.831 Y135.37 E3.61536
G1 X80.627 Y135.17 E3.62248
G1 X80.143 Y134.643 E3.64033
G1 X79.93 Y134.385 E3.64868
G1 X79.402 Y133.651 E3.67123
G1 X79.014 Y132.983 E3.6905
G1 X78.746 Y132.443 E3.70554
G1 X78.511 Y131.911 E3.72005
G1 X78.281 Y131.318 E3.73592
G1 X78.074 Y130.686 E3.7525
G1 X77.91 Y130.116 E3.7673
G1 X77.73 Y129.335 E3.78729
G1 X77.633 Y128.838 E3.79992
G1 X77.433 Y127.603 E3.83113
G1 X77.402 Y127.385 E3.83663
G1 X77.299 Y126.573 E3.85704
G1 X77.212 Y125.753 E3.87761
G1 X77.115 Y124.577 E3.90705
G1 X77.072 Y123.919 E3.9235
G1 X77.046 Y123.413 E3.93614
G1 X77.019 Y122.771 E3.95216
G1 X76.999 Y122.089 E3.96918
G1 X76.986 Y121.508 E3.98368
G1 X76.978 Y120.767 E4.00217
G1 X76.975 Y119.688 E4.02908
G1 X76.984 Y118.647 E4.05505
G1 X77.008 Y117.53 E4.08292
G1 X77.051 Y116.467 E4.10946
G1 X77.083 Y115.888 E4.12393
G1 X77.126 Y115.242 E4.14008
G1 X77.17 Y114.701 E4.15362
G1 X77.239 Y113.973 E4.17186
G1 X77.348 Y113.021 E4.19576
G1 X77.373 Y112.829 E4.20059
G1 X77.528 Y111.755 E4.22766
G1 X77.641 Y111.089 E4.24451
G1 X77.781 Y110.426 E4.26141
G1 X77.833 Y110.209 E4.26698
G1 X77.977 Y109.65 E4.28138
G1 X78.144 Y109.077 E4.29627
G1 X78.445 Y108.235 E4.31857
G1 X78.676 Y107.685 E4.33345
G1 X78.963 Y107.1 E4.34971
G1 X79.464 Y106.261 E4.37408
G1 X79.842 Y105.73 E4.39034
G1 X80.352 Y105.115 E4.41027
G1 X80.878 Y104.576 E4.42906
G1 X81.492 Y104.04 E4.44939
G0 F3600 X81.737 Y104.357
G1 F1200 X82.155 Y104.034 E4.46257
G1 X82.744 Y103.629 E4.4804
G1 X83.372 Y103.285 E4.49826
G1 X85.334 Y102.285 E4.55319
G1 X87.638 Y101.029 E4.61865
G1 X89.922 Y99.699 E4.68458
G1 X92.161 Y98.308 E4.75034
G1 X95.232 Y96.257 E4.84246
G1 X96.301 Y95.512 E4.87496
G1 X96.979 Y95.091 E4.89487
G1 X97.217 Y94.96 E4.90164
G1 X97.717 Y94.713 E4.91556
G1 X98.249 Y94.478 E4.93006
G1 X98.803 Y94.263 E4.94489
G1 X99.435 Y94.055 E4.96148
G1 X99.979 Y93.899 E4.9756
G1 X100.751 Y93.721 E4.99536
G1 X101.226 Y93.628 E5.00744
G1 X102.461 Y93.428 E5.03865
G1 X102.667 Y93.398 E5.04384
G1 X103.327 Y93.313 E5.06044
G1 X104.289 Y93.21 E5.08457
G1 X105.45 Y93.114 E5.11363
G1 X106.102 Y93.071 E5.12993
G1 X106.604 Y93.046 E5.14247
G1 X107.242 Y93.019 E5.1584
G1 X107.92 Y92.998 E5.17532
G1 X108.489 Y92.987 E5.18952
G1 X109.092 Y92.979 E5.20456
G1 X110.293 Y92.975 E5.23452
G1 X111.048 Y92.98 E5.25335
G1 X112.377 Y93.006 E5.28651
G1 X112.696 Y93.016 E5.29447
G1 X113.512 Y93.05 E5.31485
G1 X114.086 Y93.082 E5.32919
G1 X114.725 Y93.125 E5.34516
G1 X115.263 Y93.169 E5.35863
G1 X116.119 Y93.251 E5.38008
G1 X116.933 Y93.345 E5.40052
G1 X117.112 Y93.369 E5.40503
G1 X118.187 Y93.524 E5.43212
G1 X118.843 Y93.635 E5.44871
G1 X119.49 Y93.772 E5.46521
G1 X119.694 Y93.821 E5.47045
G1 X120.24 Y93.962 E5.48451
G1 X120.849 Y94.14 E5.50034
G1 X121.65 Y94.43 E5.52159
G1 X122.124 Y94.629 E5.53441
G1 X122.707 Y94.913 E5.55059
G1 X123.523 Y95.399 E5.57428
G1 X124.067 Y95.791 E5.59101
G1 X124.593 Y96.228 E5.60807
G1 X125.139 Y96.759 E5.62707
G1 X125.649 Y97.344 E5.64643
G1 X125.971 Y97.762 E5.65959
G1 X126.375 Y98.352 E5.67743
G1 X126.676 Y98.909 E5.69322
G1 X127.029 Y99.692 E5.71464
G1 X127.325 Y100.533 E5.73688
G1 X127.455 Y101.039 E5.74992
G1 X127.574 Y101.577 E5.76366
G1 X127.715 Y102.61 E5.78967
G1 X127.74 Y103.126 E5.80256
G1 X127.748 Y103.532 E5.81269
G1 X127.736 Y104.064 E5.82596
G1 X127.645 Y105.493 E5.86168
G1 X127.624 Y105.761 E5.86838
G1 X127.498 Y108.349 E5.93302
G1 X127.443 Y111.026 E5.99981
G1 X127.463 Y113.67 E6.06577
G1 X127.559 Y116.322 E6.13196
G1 X127.697 Y118.548 E6.1876
G1 X127.732 Y119.104 E6.2015
G1 X127.748 Y119.725 E6.21699
G1 X127.736 Y120.265 E6.23047
G1 X127.674 Y121.233 E6.25466
G1 X127.596 Y122.238 E6.27981
G1 X127.467 Y124.846 E6.34494
G1 X127.41 Y127.525 E6.41179
G1 X127.427 Y130.167 E6.47769
G1 X127.521 Y132.82 E6.54391
G1 X127.685 Y135.41 E6.60865
G1 X127.727 Y136.095 E6.62577
G1 X127.741 Y136.614 E6.63872
G1 X127.718 Y137.329 E6.65657
G1 X127.668 Y137.735 E6.66677
G1 X127.577 Y138.326 E6.68169
G1 X127.518 Y138.662 E6.6902
G1 X127.284 Y139.56 E6.71335
G1 X127.079 Y140.152 E6.72897
G1 X127.018 Y140.316 E6.73334
G1 X126.706 Y141.023 E6.75262
G1 X126.598 Y141.232 E6.75848
G1 X126.234 Y141.848 E6.77633
G1 X125.976 Y142.208 E6.78738
G1 X125.578 Y142.723 E6.80362
G1 X125.084 Y143.289 E6.82236
G1 X124.884 Y143.493 E6.82948
G1 X124.398 Y143.941 E6.84597
G1 X124.141 Y144.154 E6.8543
G1 X123.441 Y144.658 E6.87582
G1 X122.783 Y145.04 E6.89479
G1 X122.283 Y145.287 E6.90871
G1 X121.751 Y145.522 E6.92321
G1 X121.197 Y145.737 E6.93804
G1 X120.565 Y145.945 E6.95463
G1 X120.021 Y146.101 E6.96875
G1 X119.249 Y146.279 E6.98851
G1 X118.774 Y146.372 E7.00059
G1 X117.539 Y146.572 E7.0318
G1 X117.333 Y146.602 E7.03699
G1 X116.673 Y146.687 E7.05359
G1 X115.711 Y146.79 E7.07772
G1 X114.674 Y146.876 E7.10368
G1 X113.997 Y146.923 E7.12061
G1 X113.45 Y146.952 E7.13427
G1 X112.758 Y146.981 E7.15155
G1 X112.08 Y147.002 E7.16847
G1 X111.509 Y147.013 E7.18272
G1 X110.897 Y147.021 E7.19799
G1 X109.707 Y147.025 E7.22767
G1 X108.952 Y147.02 E7.2465
G1 X107.625 Y146.994 E7.27961
G1 X107.304 Y146.984 E7.28762
G1 X106.488 Y146.95 E7.308
G1 X105.914 Y146.918 E7.32234
G1 X105.274 Y146.875 E7.33834
G1 X104.739 Y146.831 E7.35173
G1 X103.882 Y146.749 E7.37321
G1 X103.067 Y146.655 E7.39367
G1 X102.886 Y146.631 E7.39822
G1 X101.812 Y146.476 E7.42529
G1 X101.157 Y146.365 E7.44187
G1 X100.513 Y146.229 E7.45828
G1 X100.31 Y146.18 E7.46349
G1 X99.766 Y146.04 E7.47751
G1 X99.151 Y145.86 E7.49349
G1 X98.354 Y145.572 E7.51463
G1 X97.862 Y145.365 E7.52795
G1 X97.293 Y145.087 E7.54374
G1 X96.499 Y144.616 E7.56677
G1 X95.528 Y143.94 E7.59628
G1 X95.24 Y143.751 E7.60488
G1 X94.215 Y143.035 E7.63607
G1 X92.003 Y141.584 E7.70206
G1 X89.745 Y140.193 E7.76821
G1 X87.468 Y138.878 E7.83381
G1 X84.721 Y137.4 E7.91162
G1 X83.163 Y136.595 E7.95536
G1 X82.547 Y136.231 E7.97321
G1 X82.187 Y135.972 E7.98428
G1 X81.675 Y135.576 E8.00042
G1 X81.111 Y135.084 E8.01909
G1 X80.907 Y134.884 E8.02622
G1 X80.452 Y134.389 E8.04299
G1 X80.239 Y134.131 E8.05134
G1 X79.742 Y133.44 E8.07257
G1 X79.364 Y132.789 E8.09135
G1 X79.112 Y132.281 E8.10549
G1 X78.877 Y131.749 E8.12
G1 X78.661 Y131.191 E8.13493
G1 X78.457 Y130.571 E8.15121
G1 X78.296 Y130.011 E8.16574
G1 X78.121 Y129.249 E8.18525
G1 X78.028 Y128.774 E8.19732
G1 X77.828 Y127.539 E8.22853
G1 X77.798 Y127.333 E8.23372
G1 X77.713 Y126.673 E8.25032
G1 X77.61 Y125.711 E8.27445
G1 X77.514 Y124.55 E8.30352
G1 X77.471 Y123.898 E8.31981
G1 X77.446 Y123.396 E8.33235
G1 X77.419 Y122.759 E8.34826
G1 X77.398 Y122.08 E8.3652
G1 X77.386 Y121.503 E8.3796
G1 X77.378 Y120.766 E8.39798
G1 X77.375 Y119.692 E8.42478
G1 X77.384 Y118.655 E8.45064
G1 X77.408 Y117.546 E8.47832
G1 X77.45 Y116.488 E8.50473
G1 X77.482 Y115.914 E8.51907
G1 X77.525 Y115.274 E8.53507
G1 X77.569 Y114.739 E8.54846
G1 X77.651 Y113.882 E8.56994
G1 X77.745 Y113.067 E8.5904
G1 X77.769 Y112.886 E8.59496
G1 X77.924 Y111.812 E8.62202
G1 X78.035 Y111.157 E8.6386
G1 X78.171 Y110.513 E8.65502
G1 X78.22 Y110.308 E8.66027
G1 X78.364 Y109.749 E8.67467
G1 X78.527 Y109.193 E8.68913
G1 X78.819 Y108.375 E8.71079
G1 X79.041 Y107.848 E8.72506
G1 X79.32 Y107.28 E8.74084
G1 X79.792 Y106.49 E8.7638
G1 X80.165 Y105.967 E8.77982
G1 X80.644 Y105.387 E8.79859
G1 X81.159 Y104.861 E8.81695
G1 X81.737 Y104.357 E8.83608
G0 F3600 X81.981 Y104.673
G1 F1200 X82.399 Y104.35 E8.84926
G1 X82.971 Y103.959 E8.86654
G1 X83.559 Y103.638 E8.88325
G1 X85.499 Y102.65 E8.93756
G1 X87.824 Y101.383 E9.00361
G1 X90.154 Y100.026 E9.07087
G1 X92.359 Y98.657 E9.13561
G1 X95.46 Y96.584 E9.22866
G1 X96.529 Y95.84 E9.26115
G1 X97.172 Y95.442 E9.28001
G1 X97.41 Y95.311 E9.28679
G1 X97.879 Y95.079 E9.29984
G1 X98.411 Y94.844 E9.31435
G1 X98.93 Y94.642 E9.32824
G1 X99.55 Y94.438 E9.34453
G1 X100.084 Y94.285 E9.35838
G1 X100.837 Y94.112 E9.37766
G1 X101.29 Y94.023 E9.38917
G1 X102.525 Y93.823 E9.42038
G1 X102.718 Y93.795 E9.42524
G1 X103.511 Y93.694 E9.44519
G1 X104.331 Y93.607 E9.46576
G1 X105.476 Y93.513 E9.49441
G1 X106.122 Y93.471 E9.51056
G1 X106.621 Y93.446 E9.52303
G1 X107.254 Y93.419 E9.53883
G1 X107.929 Y93.398 E9.55568
G1 X108.495 Y93.387 E9.5698
G1 X109.093 Y93.379 E9.58472
G1 X110.291 Y93.375 E9.6146
G1 X111.041 Y93.38 E9.63331
G1 X112.364 Y93.405 E9.66632
G1 X112.68 Y93.416 E9.67421
G1 X113.49 Y93.45 E9.69443
G1 X114.06 Y93.481 E9.70867
G1 X114.693 Y93.523 E9.72449
G1 X115.225 Y93.567 E9.73781
G1 X116.073 Y93.649 E9.75906
G1 X117.055 Y93.764 E9.78373
G1 X118.13 Y93.919 E9.81082
G1 X118.774 Y94.029 E9.82712
G1 X119.403 Y94.162 E9.84315
G1 X119.594 Y94.209 E9.84806
G1 X120.281 Y94.388 E9.86577
G1 X120.884 Y94.572 E9.8815
G1 X121.508 Y94.804 E9.8981
G1 X122.218 Y95.115 E9.91744
G1 X122.528 Y95.27 E9.92608
G1 X123.293 Y95.727 E9.94831
G1 X123.828 Y96.112 E9.96476
G1 X124.322 Y96.521 E9.98075
G1 X124.854 Y97.04 E9.99929
G1 X125.332 Y97.588 E10.01743
G1 X125.654 Y98.006 E10.03059
G1 X126.044 Y98.579 E10.04789
G1 X126.315 Y99.082 E10.06214
G1 X126.662 Y99.851 E10.08318
G1 X126.939 Y100.639 E10.10402
G1 X127.064 Y101.125 E10.11654
G1 X127.183 Y101.663 E10.13028
G1 X127.316 Y102.632 E10.15468
G1 X127.34 Y103.134 E10.16722
G1 X127.337 Y104.039 E10.18979
G1 X127.246 Y105.462 E10.22536
G1 X127.227 Y105.709 E10.23154
G1 X127.097 Y108.357 E10.29768
G1 X127.043 Y111.021 E10.36414
G1 X127.063 Y113.688 E10.43067
G1 X127.158 Y116.322 E10.49642
G1 X127.299 Y118.596 E10.55326
G1 X127.332 Y119.124 E10.56645
G1 X127.348 Y119.733 E10.58165
G1 X127.337 Y120.24 E10.5943
G1 X127.275 Y121.202 E10.61835
G1 X127.198 Y122.188 E10.64302
G1 X127.066 Y124.853 E10.70958
G1 X127.01 Y127.519 E10.7761
G1 X127.028 Y130.183 E10.84255
G1 X127.121 Y132.823 E10.90845
G1 X127.286 Y135.441 E10.97388
G1 X127.328 Y136.114 E10.9907
G1 X127.341 Y136.623 E11.0034
G1 X127.317 Y137.315 E11.02068
G1 X127.273 Y137.674 E11.0297
G1 X127.182 Y138.265 E11.04462
G1 X127.125 Y138.589 E11.05282
G1 X126.905 Y139.432 E11.07455
G1 X126.705 Y140.013 E11.08988
G1 X126.644 Y140.177 E11.09425
G1 X126.35 Y140.839 E11.11232
G1 X126.242 Y141.048 E11.11818
G1 X125.889 Y141.644 E11.13546
G1 X125.66 Y141.963 E11.14526
G1 X125.262 Y142.478 E11.1615
G1 X124.798 Y143.009 E11.17909
G1 X124.598 Y143.213 E11.18621
G1 X124.143 Y143.633 E11.20166
G1 X123.886 Y143.846 E11.20999
G1 X123.229 Y144.319 E11.23018
G1 X122.59 Y144.689 E11.2486
G1 X122.121 Y144.921 E11.26165
G1 X121.589 Y145.156 E11.27616
G1 X121.07 Y145.358 E11.29005
G1 X120.45 Y145.562 E11.30633
G1 X119.916 Y145.715 E11.32019
G1 X119.163 Y145.888 E11.33946
G1 X118.71 Y145.977 E11.35098
G1 X117.475 Y146.177 E11.38219
G1 X117.282 Y146.205 E11.38705
G1 X116.489 Y146.306 E11.40699
G1 X115.669 Y146.393 E11.42756
G1 X114.524 Y146.487 E11.45622
G1 X113.878 Y146.529 E11.47237
G1 X113.379 Y146.554 E11.48483
G1 X112.746 Y146.581 E11.50064
G1 X112.071 Y146.602 E11.51748
G1 X111.504 Y146.614 E11.53163
G1 X110.895 Y146.621 E11.54682
G1 X109.709 Y146.625 E11.57641
G1 X108.959 Y146.62 E11.59512
G1 X107.638 Y146.595 E11.62808
G1 X107.32 Y146.584 E11.63601
G1 X106.51 Y146.55 E11.65624
G1 X105.94 Y146.519 E11.67048
G1 X105.306 Y146.477 E11.68633
G1 X104.777 Y146.433 E11.69957
G1 X103.928 Y146.351 E11.72085
G1 X103.113 Y146.257 E11.74131
G1 X102.943 Y146.235 E11.74559
